;FLAVOR:Marlin
;TIME:1221
;Filament used: 0.632488m
;Layer height: 0.2
;MINX:84.575
;MINY:102.7
;MINZ:0.12
;MAXX:150.422
;MAXY:132.3
;MAXZ:3.32
;Generated with Cura_SteamEngine 4.6.1
M140 S60
M105
M190 S60
M104 S200
M105
M109 S200
M82 ;absolute extrusion mode
; Ender 3 Custom Start G-code
G92 E0 ; Reset Extruder
G90 ; Absolute positioning
G28 ; Home all axes
G1 Z2.0 F3000 ; Move Z Axis up little to prevent scratching of Heat Bed
G1 X0.1 Y20 Z0.3 F5000.0 ; Move to start position
G1 X0.1 Y200.0 Z0.3 F1500.0 E15 ; Draw the first line
G1 X0.4 Y200.0 Z0.3 F5000.0 ; Move to side a little
G1 X0.4 Y20 Z0.3 F1500.0 E30 ; Draw the second line
G92 E0 ; Reset Extruder
G1 Z2.0 F3000 ; Move Z Axis up little to prevent scratching of Heat Bed
G1 X5 Y20 Z0.3 F5000.0 ; Move over to prevent blob squish
G92 E0
G92 E0
G1 F1500 E-6.5
;LAYER_COUNT:17
;LAYER:0
M107
G0 F6000 X89.051 Y105.777 Z0.12
;TYPE:SKIRT
G1 F1500 E0
G1 F1200 X89.415 Y105.478 E0.0094
G1 X89.654 Y105.293 E0.01543
G1 X90.04 Y105.012 E0.02496
G1 X90.306 Y104.831 E0.03138
G1 X90.688 Y104.587 E0.04043
G1 X90.962 Y104.423 E0.0468
G1 X91.439 Y104.16 E0.05767
G1 X91.709 Y104.023 E0.06371
G1 X92.124 Y103.827 E0.07287
G1 X92.418 Y103.699 E0.07927
G1 X92.921 Y103.501 E0.09006
G1 X93.211 Y103.398 E0.0962
G1 X93.625 Y103.264 E0.10488
G1 X93.935 Y103.173 E0.11133
G1 X94.435 Y103.044 E0.12163
G1 X94.74 Y102.976 E0.12787
G1 X95.2 Y102.888 E0.13722
G1 X95.505 Y102.839 E0.14338
G1 X96.02 Y102.773 E0.15374
G1 X96.332 Y102.744 E0.16
G1 X96.788 Y102.716 E0.16911
G1 X97.376 Y102.7 E0.18085
G1 X135.827 Y102.703 E0.94818
G1 X136.21 Y102.713 E0.95583
G1 X136.638 Y102.736 E0.96438
G1 X137.007 Y102.766 E0.97177
G1 X137.427 Y102.811 E0.9802
G1 X137.809 Y102.863 E0.98789
G1 X138.226 Y102.932 E0.99633
G1 X138.591 Y103.002 E1.00374
G1 X138.975 Y103.085 E1.01158
G1 X139.347 Y103.176 E1.01923
G1 X139.804 Y103.303 E1.02869
G1 X140.162 Y103.414 E1.03617
G1 X140.518 Y103.534 E1.04367
G1 X140.881 Y103.666 E1.05138
G1 X141.315 Y103.838 E1.06069
G1 X141.666 Y103.99 E1.06833
G1 X142.02 Y104.155 E1.07612
G1 X142.35 Y104.318 E1.08347
G1 X142.74 Y104.524 E1.09227
G1 X143.079 Y104.716 E1.10004
G1 X143.424 Y104.923 E1.10807
G1 X143.735 Y105.121 E1.11543
G1 X144.093 Y105.364 E1.12406
G1 X144.401 Y105.585 E1.13163
G1 X144.754 Y105.853 E1.14047
G1 X145.05 Y106.092 E1.14807
G1 X145.337 Y106.336 E1.15558
G1 X145.629 Y106.596 E1.16339
G1 X145.936 Y106.884 E1.17179
G1 X146.196 Y107.142 E1.1791
G1 X146.527 Y107.492 E1.18871
G1 X146.787 Y107.784 E1.19651
G1 X147.038 Y108.08 E1.20426
G1 X147.269 Y108.367 E1.21161
G1 X147.514 Y108.687 E1.21965
G1 X147.736 Y108.994 E1.22721
G1 X147.998 Y109.381 E1.23654
G1 X148.202 Y109.702 E1.24413
G1 X148.401 Y110.033 E1.25184
G1 X148.593 Y110.371 E1.25959
G1 X148.804 Y110.77 E1.2686
G1 X148.967 Y111.1 E1.27595
G1 X149.13 Y111.452 E1.28369
G1 X149.28 Y111.798 E1.29121
G1 X149.438 Y112.19 E1.29965
G1 X149.574 Y112.557 E1.30746
G1 X149.719 Y112.985 E1.31648
G1 X149.827 Y113.338 E1.32384
G1 X149.934 Y113.723 E1.33182
G1 X150.026 Y114.09 E1.33937
G1 X150.119 Y114.509 E1.34793
G1 X150.191 Y114.882 E1.35551
G1 X150.258 Y115.289 E1.36374
G1 X150.31 Y115.664 E1.3713
G1 X150.358 Y116.096 E1.37997
G1 X150.389 Y116.473 E1.38752
G1 X150.412 Y116.906 E1.39618
G1 X150.422 Y117.285 E1.40374
G1 X150.422 Y117.691 E1.41184
G1 X150.412 Y118.081 E1.41963
G1 X150.389 Y118.516 E1.42832
G1 X150.359 Y118.883 E1.43567
G1 X150.314 Y119.295 E1.44394
G1 X150.262 Y119.679 E1.45167
G1 X150.193 Y120.101 E1.46021
G1 X150.123 Y120.466 E1.46762
G1 X150.039 Y120.855 E1.47557
G1 X149.949 Y121.222 E1.48311
G1 X149.826 Y121.664 E1.49226
G1 X149.714 Y122.027 E1.49984
G1 X149.594 Y122.384 E1.50736
G1 X149.465 Y122.74 E1.51492
G1 X149.29 Y123.182 E1.5244
G1 X149.135 Y123.54 E1.53219
G1 X148.97 Y123.895 E1.54
G1 X148.807 Y124.225 E1.54735
G1 X148.601 Y124.615 E1.55615
G1 X148.409 Y124.954 E1.56392
G1 X148.205 Y125.294 E1.57184
G1 X148.008 Y125.604 E1.57916
G1 X147.76 Y125.971 E1.588
G1 X147.538 Y126.28 E1.5956
G1 X147.272 Y126.629 E1.60435
G1 X147.033 Y126.925 E1.61195
G1 X146.789 Y127.212 E1.61946
G1 X146.529 Y127.504 E1.62727
G1 X146.241 Y127.811 E1.63567
G1 X145.983 Y128.071 E1.64298
G1 X145.633 Y128.402 E1.65259
G1 X145.341 Y128.662 E1.66039
G1 X145.044 Y128.914 E1.66816
G1 X144.752 Y129.149 E1.67564
G1 X144.413 Y129.407 E1.68415
G1 X144.104 Y129.629 E1.69174
G1 X143.743 Y129.873 E1.70043
G1 X143.429 Y130.073 E1.70786
G1 X143.096 Y130.274 E1.71563
G1 X142.762 Y130.464 E1.72329
G1 X142.36 Y130.677 E1.73237
G1 X142.026 Y130.842 E1.73981
G1 X141.671 Y131.007 E1.74762
G1 X141.32 Y131.159 E1.75525
G1 X140.908 Y131.323 E1.7641
G1 X140.543 Y131.457 E1.77186
G1 X140.158 Y131.587 E1.77997
G1 X139.802 Y131.697 E1.78741
G1 X139.396 Y131.811 E1.79582
G1 X139.025 Y131.904 E1.80345
G1 X138.573 Y132.003 E1.81269
G1 X138.207 Y132.072 E1.82012
G1 X137.834 Y132.133 E1.82766
G1 X137.452 Y132.186 E1.83536
G1 X137.012 Y132.234 E1.84419
G1 X136.643 Y132.264 E1.85158
G1 X136.212 Y132.287 E1.86019
G1 X135.624 Y132.3 E1.87193
G1 X97.13 Y132.296 E2.64012
G1 X96.814 Y132.286 E2.64643
G1 X96.341 Y132.257 E2.65589
G1 X96.028 Y132.228 E2.66216
G1 X95.515 Y132.163 E2.67248
G1 X95.209 Y132.114 E2.67866
G1 X94.758 Y132.028 E2.68783
G1 X94.455 Y131.961 E2.69402
G1 X93.949 Y131.831 E2.70444
G1 X93.638 Y131.74 E2.71091
G1 X93.209 Y131.601 E2.71991
G1 X92.92 Y131.498 E2.72603
G1 X92.425 Y131.303 E2.73665
G1 X92.131 Y131.175 E2.74305
G1 X91.757 Y131 E2.75129
G1 X91.485 Y130.864 E2.75736
G1 X90.967 Y130.58 E2.76915
G1 X90.693 Y130.416 E2.77552
G1 X90.328 Y130.183 E2.78416
G1 X90.062 Y130.003 E2.79057
G1 X89.651 Y129.705 E2.8007
G1 X89.41 Y129.518 E2.80679
G1 X89.062 Y129.232 E2.81578
G1 X88.818 Y129.019 E2.82224
G1 X88.433 Y128.658 E2.83277
G1 X88.216 Y128.441 E2.8389
G1 X87.862 Y128.064 E2.84922
G1 X87.651 Y127.823 E2.85561
G1 X87.352 Y127.459 E2.86501
G1 X87.167 Y127.22 E2.87104
G1 X86.889 Y126.839 E2.88046
G1 X86.705 Y126.569 E2.88698
G1 X86.452 Y126.171 E2.89639
G1 X86.291 Y125.901 E2.90266
G1 X86.024 Y125.415 E2.91373
G1 X85.888 Y125.145 E2.91976
G1 X85.705 Y124.755 E2.92836
G1 X85.575 Y124.457 E2.93484
G1 X85.369 Y123.935 E2.94604
G1 X85.268 Y123.649 E2.9521
G1 X85.137 Y123.242 E2.96063
G1 X85.046 Y122.931 E2.9671
G1 X84.922 Y122.451 E2.97699
G1 X84.853 Y122.144 E2.98327
G1 X84.76 Y121.662 E2.99306
G1 X84.712 Y121.361 E2.99915
G1 X84.648 Y120.855 E3.00933
G1 X84.619 Y120.543 E3.01558
G1 X84.591 Y120.092 E3.0246
G1 X84.575 Y119.505 E3.03631
G1 X84.579 Y115.257 E3.12109
G1 X84.589 Y114.939 E3.12744
G1 X84.618 Y114.469 E3.13683
G1 X84.647 Y114.154 E3.14315
G1 X84.713 Y113.629 E3.15371
G1 X84.761 Y113.331 E3.15973
G1 X84.848 Y112.879 E3.16892
G1 X84.916 Y112.573 E3.17517
G1 X85.042 Y112.081 E3.18531
G1 X85.133 Y111.769 E3.19179
G1 X85.272 Y111.339 E3.20081
G1 X85.373 Y111.055 E3.20683
G1 X85.569 Y110.559 E3.21747
G1 X85.699 Y110.26 E3.22398
G1 X85.875 Y109.882 E3.2323
G1 X86.01 Y109.612 E3.23832
G1 X86.277 Y109.124 E3.24942
G1 X86.437 Y108.854 E3.25568
G1 X86.694 Y108.449 E3.26526
G1 X86.878 Y108.178 E3.27179
G1 X87.163 Y107.785 E3.28148
G1 X87.348 Y107.546 E3.28751
G1 X87.643 Y107.187 E3.29679
G1 X87.858 Y106.941 E3.30331
G1 X88.216 Y106.559 E3.31375
G1 X88.433 Y106.342 E3.31988
G1 X88.81 Y105.988 E3.3302
G1 X89.051 Y105.777 E3.33659
G0 F6000 X89.314 Y106.078
G1 F1200 X89.659 Y105.794 E3.34551
G1 X89.898 Y105.609 E3.35154
G1 X90.265 Y105.343 E3.36058
G1 X90.531 Y105.162 E3.367
G1 X90.894 Y104.93 E3.3756
G1 X91.168 Y104.766 E3.38197
G1 X91.62 Y104.517 E3.39227
G1 X91.89 Y104.38 E3.39831
G1 X92.284 Y104.194 E3.40701
G1 X92.578 Y104.066 E3.41341
G1 X93.055 Y103.878 E3.42364
G1 X93.345 Y103.775 E3.42978
G1 X93.738 Y103.648 E3.43802
G1 X94.048 Y103.557 E3.44447
G1 X94.522 Y103.434 E3.45424
G1 X94.827 Y103.366 E3.46048
G1 X95.263 Y103.283 E3.46934
G1 X95.568 Y103.234 E3.4755
G1 X96.057 Y103.172 E3.48534
G1 X96.369 Y103.143 E3.49159
G1 X96.801 Y103.115 E3.50023
G1 X97.376 Y103.1 E3.51171
G1 X135.816 Y103.103 E4.27882
G1 X136.199 Y103.113 E4.28647
G1 X136.606 Y103.134 E4.2946
G1 X136.975 Y103.164 E4.30199
G1 X137.373 Y103.208 E4.30998
G1 X137.755 Y103.26 E4.31767
G1 X138.151 Y103.324 E4.32568
G1 X138.516 Y103.394 E4.33309
G1 X138.88 Y103.474 E4.34053
G1 X139.252 Y103.565 E4.34817
G1 X139.685 Y103.685 E4.35714
G1 X140.043 Y103.796 E4.36462
G1 X140.381 Y103.91 E4.37174
G1 X140.744 Y104.042 E4.37945
G1 X141.156 Y104.205 E4.38829
G1 X141.507 Y104.357 E4.39592
G1 X141.843 Y104.513 E4.40331
G1 X142.173 Y104.676 E4.41066
G1 X142.543 Y104.872 E4.41902
G1 X142.882 Y105.064 E4.42679
G1 X143.209 Y105.261 E4.43441
G1 X143.52 Y105.459 E4.44177
G1 X143.86 Y105.689 E4.44996
G1 X144.168 Y105.91 E4.45752
G1 X144.503 Y106.165 E4.46592
G1 X144.799 Y106.404 E4.47352
G1 X145.071 Y106.634 E4.48063
G1 X145.363 Y106.894 E4.48843
G1 X145.654 Y107.168 E4.4964
G1 X145.914 Y107.426 E4.50371
G1 X146.229 Y107.758 E4.51285
G1 X146.489 Y108.05 E4.52065
G1 X146.727 Y108.331 E4.528
G1 X146.958 Y108.618 E4.53535
G1 X147.189 Y108.922 E4.54297
G1 X147.411 Y109.229 E4.55053
G1 X147.66 Y109.596 E4.55938
G1 X147.864 Y109.917 E4.56697
G1 X148.053 Y110.231 E4.57428
G1 X148.245 Y110.569 E4.58204
G1 X148.446 Y110.947 E4.59059
G1 X148.609 Y111.277 E4.59793
G1 X148.763 Y111.611 E4.60527
G1 X148.913 Y111.957 E4.6128
G1 X149.063 Y112.329 E4.6208
G1 X149.199 Y112.696 E4.62861
G1 X149.336 Y113.102 E4.63716
G1 X149.444 Y113.455 E4.64453
G1 X149.546 Y113.821 E4.65211
G1 X149.638 Y114.188 E4.65966
G1 X149.726 Y114.584 E4.66776
G1 X149.798 Y114.957 E4.67534
G1 X149.862 Y115.344 E4.68317
G1 X149.914 Y115.719 E4.69072
G1 X149.959 Y116.129 E4.69895
G1 X149.99 Y116.506 E4.7065
G1 X150.012 Y116.917 E4.71471
G1 X150.022 Y117.296 E4.72228
G1 X150.023 Y117.681 E4.72996
G1 X150.013 Y118.071 E4.73775
G1 X149.99 Y118.484 E4.746
G1 X149.96 Y118.851 E4.75335
G1 X149.918 Y119.241 E4.76118
G1 X149.866 Y119.625 E4.76891
G1 X149.801 Y120.026 E4.77702
G1 X149.731 Y120.391 E4.78444
G1 X149.65 Y120.759 E4.79196
G1 X149.56 Y121.126 E4.7995
G1 X149.444 Y121.546 E4.80819
G1 X149.332 Y121.909 E4.81577
G1 X149.218 Y122.248 E4.82291
G1 X149.089 Y122.604 E4.83047
G1 X148.923 Y123.023 E4.83946
G1 X148.768 Y123.381 E4.84725
G1 X148.612 Y123.718 E4.85466
G1 X148.449 Y124.048 E4.862
G1 X148.253 Y124.418 E4.87036
G1 X148.061 Y124.757 E4.87813
G1 X147.868 Y125.079 E4.88562
G1 X147.671 Y125.389 E4.89295
G1 X147.435 Y125.738 E4.90136
G1 X147.213 Y126.047 E4.90895
G1 X146.96 Y126.378 E4.91727
G1 X146.721 Y126.674 E4.92486
G1 X146.491 Y126.946 E4.93197
G1 X146.231 Y127.238 E4.93977
G1 X145.957 Y127.529 E4.94775
G1 X145.699 Y127.789 E4.95506
G1 X145.367 Y128.104 E4.96419
G1 X145.075 Y128.364 E4.97199
G1 X144.794 Y128.602 E4.97934
G1 X144.502 Y128.837 E4.98682
G1 X144.18 Y129.082 E4.9949
G1 X143.871 Y129.304 E5.00249
G1 X143.528 Y129.535 E5.01074
G1 X143.214 Y129.735 E5.01817
G1 X142.898 Y129.926 E5.02554
G1 X142.564 Y130.116 E5.03321
G1 X142.183 Y130.319 E5.04182
G1 X141.849 Y130.484 E5.04926
G1 X141.512 Y130.64 E5.05667
G1 X141.161 Y130.792 E5.0643
G1 X140.77 Y130.948 E5.0727
G1 X140.405 Y131.082 E5.08046
G1 X140.04 Y131.205 E5.08815
G1 X139.684 Y131.315 E5.09558
G1 X139.298 Y131.423 E5.10358
G1 X138.927 Y131.516 E5.11122
G1 X138.499 Y131.61 E5.11996
G1 X138.133 Y131.679 E5.12739
G1 X137.779 Y131.737 E5.13455
G1 X137.397 Y131.79 E5.14225
G1 X136.98 Y131.836 E5.15062
G1 X136.611 Y131.866 E5.15801
G1 X136.202 Y131.888 E5.16618
G1 X135.624 Y131.9 E5.17772
G1 X97.143 Y131.896 E5.94565
G1 X96.827 Y131.886 E5.95196
G1 X96.378 Y131.858 E5.96094
G1 X96.065 Y131.829 E5.96721
G1 X95.578 Y131.768 E5.977
G1 X95.272 Y131.719 E5.98319
G1 X94.844 Y131.637 E5.99188
G1 X94.541 Y131.57 E5.99808
G1 X94.061 Y131.447 E6.00797
G1 X93.75 Y131.356 E6.01443
G1 X93.344 Y131.225 E6.02295
G1 X93.055 Y131.122 E6.02907
G1 X92.585 Y130.936 E6.03916
G1 X92.291 Y130.808 E6.04555
G1 X91.936 Y130.642 E6.05337
G1 X91.664 Y130.506 E6.05944
G1 X91.173 Y130.237 E6.07062
G1 X90.899 Y130.073 E6.07699
G1 X90.552 Y129.852 E6.0852
G1 X90.286 Y129.672 E6.09161
G1 X89.897 Y129.389 E6.10121
G1 X89.656 Y129.202 E6.1073
G1 X89.326 Y128.931 E6.11582
G1 X89.082 Y128.718 E6.12228
G1 X88.715 Y128.376 E6.13229
G1 X88.498 Y128.159 E6.13842
G1 X88.163 Y127.801 E6.1482
G1 X87.952 Y127.56 E6.15459
G1 X87.668 Y127.215 E6.16351
G1 X87.483 Y126.976 E6.16954
G1 X87.22 Y126.613 E6.17849
G1 X87.036 Y126.343 E6.18501
G1 X86.795 Y125.966 E6.19394
G1 X86.634 Y125.696 E6.20021
G1 X86.381 Y125.235 E6.2107
G1 X86.245 Y124.965 E6.21674
G1 X86.071 Y124.595 E6.2249
G1 X85.941 Y124.297 E6.23138
G1 X85.746 Y123.802 E6.242
G1 X85.645 Y123.516 E6.24805
G1 X85.521 Y123.13 E6.25615
G1 X85.43 Y122.819 E6.26261
G1 X85.312 Y122.364 E6.27199
G1 X85.243 Y122.057 E6.27827
G1 X85.155 Y121.599 E6.28758
G1 X85.107 Y121.298 E6.29366
G1 X85.047 Y120.818 E6.30332
G1 X85.018 Y120.506 E6.30957
G1 X84.99 Y120.078 E6.31813
G1 X84.975 Y119.505 E6.32957
G1 X84.979 Y115.269 E6.4141
G1 X84.989 Y114.951 E6.42045
G1 X85.016 Y114.506 E6.42935
G1 X85.045 Y114.191 E6.43566
G1 X85.108 Y113.692 E6.4457
G1 X85.156 Y113.394 E6.45172
G1 X85.238 Y112.966 E6.46042
G1 X85.306 Y112.66 E6.46667
G1 X85.426 Y112.193 E6.47629
G1 X85.517 Y111.881 E6.48278
G1 X85.649 Y111.473 E6.49134
G1 X85.75 Y111.189 E6.49735
G1 X85.936 Y110.718 E6.50746
G1 X86.066 Y110.419 E6.51396
G1 X86.233 Y110.061 E6.52185
G1 X86.368 Y109.791 E6.52787
G1 X86.621 Y109.327 E6.53842
G1 X86.781 Y109.057 E6.54468
G1 X87.025 Y108.673 E6.55376
G1 X87.209 Y108.402 E6.5603
G1 X87.479 Y108.029 E6.56949
G1 X87.664 Y107.79 E6.57552
G1 X87.944 Y107.45 E6.58431
G1 X88.159 Y107.204 E6.59083
G1 X88.498 Y106.841 E6.60074
G1 X88.715 Y106.624 E6.60686
G1 X89.073 Y106.289 E6.61665
G1 X89.314 Y106.078 E6.62304
G0 F6000 X89.578 Y106.379
G1 F1200 X89.904 Y106.111 E6.63146
G1 X90.143 Y105.926 E6.63749
G1 X90.49 Y105.674 E6.64605
G1 X90.756 Y105.493 E6.65247
G1 X91.099 Y105.274 E6.66059
G1 X91.373 Y105.11 E6.66697
G1 X91.801 Y104.874 E6.67672
G1 X92.071 Y104.737 E6.68276
G1 X92.444 Y104.561 E6.69099
G1 X92.738 Y104.433 E6.69739
G1 X93.189 Y104.255 E6.70707
G1 X93.479 Y104.152 E6.71321
G1 X93.85 Y104.031 E6.721
G1 X94.16 Y103.94 E6.72744
G1 X94.609 Y103.825 E6.73669
G1 X94.914 Y103.757 E6.74293
G1 X95.327 Y103.678 E6.75132
G1 X95.632 Y103.629 E6.75749
G1 X96.094 Y103.57 E6.76678
G1 X96.406 Y103.541 E6.77303
G1 X96.815 Y103.515 E6.78121
G1 X97.376 Y103.5 E6.79241
G1 X135.806 Y103.502 E7.55932
G1 X136.189 Y103.512 E7.56697
G1 X136.573 Y103.533 E7.57464
G1 X136.942 Y103.563 E7.58203
G1 X137.319 Y103.604 E7.5896
G1 X137.701 Y103.656 E7.59729
G1 X138.075 Y103.717 E7.60486
G1 X138.44 Y103.787 E7.61227
G1 X138.785 Y103.862 E7.61932
G1 X139.157 Y103.953 E7.62696
G1 X139.567 Y104.067 E7.63545
G1 X139.925 Y104.178 E7.64293
G1 X140.244 Y104.285 E7.64965
G1 X140.607 Y104.417 E7.65736
G1 X140.997 Y104.572 E7.66573
G1 X141.348 Y104.724 E7.67336
G1 X141.666 Y104.872 E7.68036
G1 X141.996 Y105.035 E7.68771
G1 X142.346 Y105.22 E7.69561
G1 X142.685 Y105.412 E7.70338
G1 X142.994 Y105.598 E7.71058
G1 X143.305 Y105.796 E7.71794
G1 X143.627 Y106.014 E7.7257
G1 X143.935 Y106.235 E7.73326
G1 X144.252 Y106.476 E7.74121
G1 X144.548 Y106.715 E7.7488
G1 X144.805 Y106.933 E7.75553
G1 X145.097 Y107.193 E7.76333
G1 X145.373 Y107.452 E7.77088
G1 X145.633 Y107.71 E7.77819
G1 X145.93 Y108.024 E7.78682
G1 X146.19 Y108.316 E7.79462
G1 X146.415 Y108.582 E7.80157
G1 X146.646 Y108.869 E7.80893
G1 X146.865 Y109.156 E7.81613
G1 X147.087 Y109.463 E7.82369
G1 X147.323 Y109.81 E7.83206
G1 X147.527 Y110.131 E7.83965
G1 X147.706 Y110.429 E7.84659
G1 X147.898 Y110.767 E7.85435
G1 X148.087 Y111.124 E7.86241
G1 X148.25 Y111.454 E7.86976
G1 X148.396 Y111.77 E7.8767
G1 X148.546 Y112.116 E7.88423
G1 X148.688 Y112.468 E7.8918
G1 X148.824 Y112.835 E7.89961
G1 X148.954 Y113.219 E7.9077
G1 X149.062 Y113.572 E7.91507
G1 X149.158 Y113.918 E7.92224
G1 X149.25 Y114.285 E7.92979
G1 X149.333 Y114.66 E7.93745
G1 X149.405 Y115.033 E7.94503
G1 X149.466 Y115.399 E7.95244
G1 X149.518 Y115.774 E7.95999
G1 X149.56 Y116.161 E7.96776
G1 X149.591 Y116.538 E7.97531
G1 X149.613 Y116.927 E7.98308
G1 X149.623 Y117.306 E7.99065
G1 X149.623 Y117.67 E7.99791
