;FLAVOR:Marlin
;TIME:3398
;Filament used: 1.58987m
;Layer height: 0.2
;MINX:90.7
;MINY:88.578
;MINZ:0.12
;MAXX:154.281
;MAXY:154.425
;MAXZ:19.12
;Generated with Cura_SteamEngine 4.6.1
M140 S60
M105
M190 S60
M104 S200
M105
M109 S200
M82 ;absolute extrusion mode
; Ender 3 Custom Start G-code
G92 E0 ; Reset Extruder
G90 ; Absolute positioning
G28 ; Home all axes
G1 Z2.0 F3000 ; Move Z Axis up little to prevent scratching of Heat Bed
G1 X0.1 Y20 Z0.3 F5000.0 ; Move to start position
G1 X0.1 Y200.0 Z0.3 F1500.0 E15 ; Draw the first line
G1 X0.4 Y200.0 Z0.3 F5000.0 ; Move to side a little
G1 X0.4 Y20 Z0.3 F1500.0 E30 ; Draw the second line
G92 E0 ; Reset Extruder
G1 Z2.0 F3000 ; Move Z Axis up little to prevent scratching of Heat Bed
G1 X5 Y20 Z0.3 F5000.0 ; Move over to prevent blob squish
G92 E0
G92 E0
G1 F1500 E-6.5
;LAYER_COUNT:96
;LAYER:0
M107
G0 F6000 X94.884 Y93.064 Z0.12
;TYPE:SKIRT
G1 F1500 E0
G1 F1200 X95.142 Y92.804 E0.00731
G1 X95.492 Y92.473 E0.01692
G1 X95.784 Y92.213 E0.02473
G1 X96.073 Y91.967 E0.0323
G1 X96.368 Y91.729 E0.03986
G1 X96.728 Y91.456 E0.04888
G1 X97.037 Y91.235 E0.05646
G1 X97.386 Y90.999 E0.06487
G1 X97.697 Y90.801 E0.07223
G1 X98.033 Y90.599 E0.08005
G1 X98.371 Y90.407 E0.08781
G1 X98.77 Y90.196 E0.09681
G1 X99.1 Y90.033 E0.10416
G1 X99.454 Y89.868 E0.11195
G1 X99.805 Y89.716 E0.11959
G1 X100.204 Y89.557 E0.12816
G1 X100.567 Y89.423 E0.13588
G1 X100.977 Y89.284 E0.14452
G1 X101.335 Y89.174 E0.15199
G1 X101.734 Y89.063 E0.16026
G1 X102.106 Y88.97 E0.16791
G1 X102.549 Y88.873 E0.17696
G1 X102.914 Y88.804 E0.18437
G1 X103.291 Y88.742 E0.192
G1 X103.673 Y88.689 E0.19969
G1 X104.113 Y88.641 E0.20853
G1 X104.482 Y88.611 E0.21591
G1 X104.91 Y88.588 E0.22447
G1 X105.293 Y88.578 E0.23211
G1 X105.7 Y88.578 E0.24024
G1 X106.084 Y88.588 E0.2479
G1 X106.513 Y88.611 E0.25648
G1 X106.882 Y88.641 E0.26386
G1 X107.302 Y88.686 E0.27229
G1 X107.684 Y88.738 E0.27999
G1 X108.101 Y88.807 E0.28842
G1 X108.466 Y88.877 E0.29584
G1 X108.85 Y88.96 E0.30368
G1 X109.222 Y89.051 E0.31132
G1 X109.679 Y89.178 E0.32079
G1 X110.037 Y89.289 E0.32827
G1 X110.393 Y89.409 E0.33576
G1 X110.756 Y89.541 E0.34347
G1 X111.19 Y89.713 E0.35279
G1 X111.541 Y89.865 E0.36042
G1 X111.895 Y90.03 E0.36821
G1 X112.225 Y90.193 E0.37556
G1 X112.615 Y90.399 E0.38436
G1 X112.954 Y90.591 E0.39214
G1 X113.299 Y90.798 E0.40017
G1 X113.61 Y90.996 E0.40752
G1 X113.968 Y91.239 E0.41616
G1 X114.276 Y91.46 E0.42372
G1 X114.629 Y91.728 E0.43257
G1 X114.925 Y91.967 E0.44016
G1 X115.212 Y92.211 E0.44768
G1 X115.504 Y92.471 E0.45548
G1 X115.811 Y92.759 E0.46388
G1 X116.071 Y93.017 E0.47119
G1 X116.447 Y93.417 E0.48214
G1 X117.004 Y93.346 E0.49335
G1 X117.599 Y93.323 E0.50523
G1 X126.365 Y93.323 E0.68017
G1 X127.154 Y93.363 E0.69593
G1 X127.934 Y93.482 E0.71168
G1 X128.699 Y93.68 E0.72745
G1 X129.439 Y93.954 E0.7432
G1 X130.148 Y94.302 E0.75896
G1 X130.819 Y94.72 E0.77473
G1 X131.443 Y95.203 E0.79048
G1 X132.016 Y95.746 E0.80623
G1 X132.531 Y96.345 E0.822
G1 X132.982 Y96.993 E0.83775
G1 X133.366 Y97.684 E0.85353
G1 X133.678 Y98.409 E0.86928
G1 X133.915 Y99.162 E0.88503
G1 X134.074 Y99.936 E0.9008
G1 X134.165 Y101.095 E0.924
G1 X134.185 Y106.7 E1.03586
G1 X146.364 Y106.7 E1.2789
G1 X147.153 Y106.74 E1.29467
G1 X147.933 Y106.859 E1.31041
G1 X148.698 Y107.057 E1.32618
G1 X149.438 Y107.331 E1.34193
G1 X150.147 Y107.679 E1.35769
G1 X150.818 Y108.097 E1.37347
G1 X151.442 Y108.58 E1.38922
G1 X152.015 Y109.123 E1.40497
G1 X152.53 Y109.722 E1.42073
G1 X152.981 Y110.37 E1.43649
G1 X153.365 Y111.061 E1.45227
G1 X153.677 Y111.786 E1.46802
G1 X153.914 Y112.539 E1.48377
G1 X154.073 Y113.313 E1.49954
G1 X154.164 Y114.434 E1.52198
G1 X154.281 Y128.317 E1.79904
G1 X154.247 Y129.106 E1.8148
G1 X154.134 Y129.888 E1.83057
G1 X153.943 Y130.654 E1.84633
G1 X153.675 Y131.397 E1.86209
G1 X153.334 Y132.109 E1.87784
G1 X152.922 Y132.783 E1.89361
G1 X152.444 Y133.411 E1.90936
G1 X151.996 Y133.898 E1.92256
G1 X151.879 Y134.015 E1.92586
G1 X151.293 Y134.545 E1.94163
G1 X150.657 Y135.012 E1.95738
G1 X149.977 Y135.413 E1.97313
G1 X149.259 Y135.743 E1.9889
G1 X148.512 Y135.998 E2.00465
G1 X147.743 Y136.177 E2.02041
G1 X146.959 Y136.277 E2.03618
G1 X146.364 Y136.3 E2.04806
G1 X133.848 Y136.3 E2.29783
G1 X133.662 Y136.809 E2.30865
G1 X133.317 Y137.519 E2.3244
G1 X132.901 Y138.191 E2.34017
G1 X132.421 Y138.817 E2.35592
G1 X131.997 Y139.275 E2.36837
G1 X131.88 Y139.392 E2.37167
G1 X131.294 Y139.922 E2.38744
G1 X130.658 Y140.389 E2.40319
G1 X129.978 Y140.79 E2.41894
G1 X129.26 Y141.12 E2.43471
G1 X128.513 Y141.375 E2.45046
G1 X127.744 Y141.554 E2.46622
G1 X126.96 Y141.654 E2.48199
G1 X126.365 Y141.677 E2.49387
G1 X120.299 Y141.677 E2.61493
G1 X120.296 Y141.87 E2.61878
G1 X120.286 Y142.186 E2.62509
G1 X120.257 Y142.659 E2.63455
G1 X120.228 Y142.972 E2.64082
G1 X120.164 Y143.48 E2.65104
G1 X120.116 Y143.781 E2.65712
G1 X120.027 Y144.245 E2.66655
G1 X119.959 Y144.551 E2.6728
G1 X119.836 Y145.034 E2.68275
G1 X119.746 Y145.344 E2.68919
G1 X119.605 Y145.781 E2.69836
G1 X119.503 Y146.068 E2.70443
G1 X119.302 Y146.575 E2.71532
G1 X119.172 Y146.873 E2.72181
G1 X119.005 Y147.232 E2.72971
G1 X118.87 Y147.503 E2.73575
G1 X118.598 Y148.001 E2.74707
G1 X118.438 Y148.271 E2.75334
G1 X118.181 Y148.676 E2.76291
G1 X117.997 Y148.947 E2.76944
G1 X117.712 Y149.34 E2.77913
G1 X117.527 Y149.579 E2.78516
G1 X117.232 Y149.938 E2.79444
G1 X117.017 Y150.184 E2.80096
G1 X116.659 Y150.566 E2.8114
G1 X116.442 Y150.783 E2.81753
G1 X116.062 Y151.14 E2.82793
G1 X115.823 Y151.349 E2.83427
G1 X115.47 Y151.639 E2.84339
G1 X115.229 Y151.826 E2.84947
G1 X114.835 Y152.113 E2.8592
G1 X114.569 Y152.294 E2.86562
G1 X114.187 Y152.538 E2.87467
G1 X113.913 Y152.702 E2.88104
G1 X113.436 Y152.965 E2.89191
G1 X113.166 Y153.102 E2.89795
G1 X112.751 Y153.298 E2.90711
G1 X112.457 Y153.426 E2.91351
G1 X111.954 Y153.624 E2.9243
G1 X111.664 Y153.727 E2.93044
G1 X111.25 Y153.861 E2.93912
G1 X110.94 Y153.952 E2.94557
G1 X110.44 Y154.081 E2.95588
G1 X110.135 Y154.149 E2.96211
G1 X109.675 Y154.237 E2.97146
G1 X109.37 Y154.286 E2.97762
G1 X108.855 Y154.352 E2.98798
G1 X108.543 Y154.381 E2.99424
G1 X108.087 Y154.409 E3.00335
G1 X107.499 Y154.425 E3.01509
G1 X103.255 Y154.421 E3.09979
G1 X102.939 Y154.411 E3.1061
G1 X102.466 Y154.382 E3.11555
G1 X102.153 Y154.353 E3.12183
G1 X101.64 Y154.288 E3.13214
G1 X101.334 Y154.239 E3.13833
G1 X100.883 Y154.153 E3.14749
G1 X100.58 Y154.086 E3.15368
G1 X100.074 Y153.956 E3.16411
G1 X99.763 Y153.865 E3.17058
G1 X99.334 Y153.726 E3.17958
G1 X99.045 Y153.623 E3.1857
G1 X98.55 Y153.428 E3.19632
G1 X98.256 Y153.3 E3.20271
G1 X97.882 Y153.125 E3.21096
G1 X97.61 Y152.989 E3.21702
G1 X97.092 Y152.705 E3.22881
G1 X96.818 Y152.541 E3.23519
G1 X96.453 Y152.308 E3.24383
G1 X96.187 Y152.128 E3.25024
G1 X95.776 Y151.83 E3.26037
G1 X95.535 Y151.643 E3.26645
G1 X95.187 Y151.357 E3.27544
G1 X94.943 Y151.144 E3.28191
G1 X94.558 Y150.783 E3.29244
G1 X94.341 Y150.566 E3.29856
G1 X93.987 Y150.189 E3.30888
G1 X93.776 Y149.948 E3.31528
G1 X93.477 Y149.584 E3.32468
G1 X93.292 Y149.345 E3.33071
G1 X93.014 Y148.964 E3.34012
G1 X92.83 Y148.694 E3.34664
G1 X92.577 Y148.296 E3.35605
G1 X92.416 Y148.026 E3.36233
G1 X92.149 Y147.54 E3.37339
G1 X92.013 Y147.27 E3.37942
G1 X91.83 Y146.88 E3.38802
G1 X91.7 Y146.582 E3.39451
G1 X91.494 Y146.059 E3.40573
G1 X91.392 Y145.77 E3.41184
G1 X91.26 Y145.362 E3.4204
G1 X91.17 Y145.054 E3.4268
G1 X91.047 Y144.576 E3.43665
G1 X90.978 Y144.269 E3.44293
G1 X90.885 Y143.787 E3.45273
G1 X90.837 Y143.486 E3.45881
G1 X90.773 Y142.98 E3.46899
G1 X90.744 Y142.668 E3.47524
G1 X90.716 Y142.217 E3.48426
G1 X90.7 Y141.63 E3.49598
G1 X90.703 Y103.173 E4.26343
G1 X90.713 Y102.79 E4.27108
G1 X90.736 Y102.359 E4.27969
G1 X90.766 Y101.992 E4.28704
G1 X90.81 Y101.586 E4.29519
G1 X90.862 Y101.2 E4.30296
G1 X90.933 Y100.764 E4.31178
G1 X91.003 Y100.401 E4.31915
G1 X91.086 Y100.02 E4.32694
G1 X91.176 Y99.653 E4.33448
G1 X91.299 Y99.211 E4.34363
G1 X91.411 Y98.848 E4.35121
G1 X91.531 Y98.491 E4.35873
G1 X91.66 Y98.135 E4.36629
G1 X91.835 Y97.693 E4.37577
G1 X91.99 Y97.335 E4.38356
G1 X92.155 Y96.98 E4.39137
G1 X92.318 Y96.65 E4.39871
G1 X92.524 Y96.26 E4.40752
G1 X92.716 Y95.921 E4.41529
G1 X92.92 Y95.581 E4.4232
G1 X93.117 Y95.271 E4.43053
G1 X93.365 Y94.904 E4.43937
G1 X93.587 Y94.595 E4.44697
G1 X93.853 Y94.246 E4.45572
G1 X94.092 Y93.95 E4.46332
G1 X94.336 Y93.663 E4.47083
G1 X94.596 Y93.371 E4.47864
G1 X94.884 Y93.064 E4.48704
G0 F6000 X95.168 Y93.346
G1 F1200 X95.426 Y93.086 E4.49434
G1 X95.758 Y92.771 E4.50348
G1 X96.05 Y92.511 E4.51128
G1 X96.324 Y92.279 E4.51845
G1 X96.619 Y92.041 E4.52601
G1 X96.961 Y91.781 E4.53458
G1 X97.27 Y91.56 E4.54216
G1 X97.601 Y91.337 E4.55013
G1 X97.912 Y91.139 E4.55749
G1 X98.231 Y90.947 E4.56492
G1 X98.569 Y90.755 E4.57267
G1 X98.947 Y90.554 E4.58122
G1 X99.277 Y90.391 E4.58856
G1 X99.613 Y90.235 E4.59595
G1 X99.964 Y90.083 E4.60359
G1 X100.342 Y89.932 E4.61171
G1 X100.705 Y89.798 E4.61943
G1 X101.095 Y89.666 E4.62765
G1 X101.453 Y89.556 E4.63512
G1 X101.831 Y89.451 E4.64295
G1 X102.203 Y89.358 E4.6506
G1 X102.623 Y89.266 E4.65918
G1 X102.988 Y89.197 E4.6666
G1 X103.346 Y89.138 E4.67384
G1 X103.728 Y89.085 E4.68153
G1 X104.145 Y89.039 E4.68991
G1 X104.514 Y89.009 E4.69729
G1 X104.921 Y88.988 E4.70543
G1 X105.304 Y88.978 E4.71307
G1 X105.69 Y88.978 E4.72078
G1 X106.074 Y88.988 E4.72844
G1 X106.481 Y89.009 E4.73658
G1 X106.85 Y89.039 E4.74396
G1 X107.248 Y89.083 E4.75195
G1 X107.63 Y89.135 E4.75965
G1 X108.026 Y89.199 E4.76765
G1 X108.391 Y89.269 E4.77507
G1 X108.755 Y89.349 E4.78251
G1 X109.127 Y89.44 E4.79015
G1 X109.56 Y89.56 E4.79912
G1 X109.918 Y89.671 E4.8066
G1 X110.256 Y89.785 E4.81371
G1 X110.619 Y89.917 E4.82142
G1 X111.031 Y90.08 E4.83026
G1 X111.382 Y90.232 E4.8379
G1 X111.718 Y90.388 E4.84529
G1 X112.048 Y90.551 E4.85264
G1 X112.418 Y90.747 E4.86099
G1 X112.757 Y90.939 E4.86877
G1 X113.084 Y91.136 E4.87638
G1 X113.395 Y91.334 E4.88374
G1 X113.735 Y91.564 E4.89193
G1 X114.043 Y91.785 E4.8995
G1 X114.378 Y92.04 E4.9079
G1 X114.674 Y92.279 E4.91549
G1 X114.946 Y92.509 E4.9226
G1 X115.238 Y92.769 E4.9304
G1 X115.529 Y93.043 E4.93838
G1 X115.789 Y93.301 E4.94569
G1 X116.104 Y93.633 E4.95482
G1 X116.292 Y93.844 E4.96046
G1 X116.409 Y93.819 E4.96285
G1 X117.174 Y93.735 E4.97821
G1 X117.599 Y93.723 E4.98669
G1 X126.365 Y93.723 E5.16163
G1 X127.133 Y93.763 E5.17697
G1 X127.893 Y93.882 E5.19233
G1 X128.636 Y94.08 E5.20767
G1 X129.355 Y94.354 E5.22303
G1 X130.041 Y94.701 E5.23837
G1 X130.688 Y95.117 E5.25372
G1 X131.288 Y95.598 E5.26906
G1 X131.835 Y96.139 E5.28442
G1 X132.323 Y96.734 E5.29977
G1 X132.746 Y97.376 E5.31512
G1 X133.101 Y98.059 E5.33048
G1 X133.382 Y98.774 E5.34581
G1 X133.588 Y99.516 E5.36118
G1 X133.716 Y100.274 E5.37652
G1 X133.765 Y101.096 E5.39295
G1 X133.787 Y107.1 E5.51277
G1 X146.364 Y107.1 E5.76375
G1 X147.132 Y107.14 E5.7791
G1 X147.892 Y107.259 E5.79445
G1 X148.635 Y107.457 E5.8098
G1 X149.354 Y107.731 E5.82515
G1 X150.04 Y108.078 E5.84049
G1 X150.687 Y108.494 E5.85584
G1 X151.287 Y108.975 E5.87119
G1 X151.834 Y109.516 E5.88654
G1 X152.322 Y110.111 E5.9019
G1 X152.745 Y110.753 E5.91724
G1 X153.1 Y111.436 E5.9326
G1 X153.381 Y112.151 E5.94794
G1 X153.587 Y112.893 E5.9633
G1 X153.715 Y113.651 E5.97864
G1 X153.764 Y114.438 E5.99438
G1 X153.881 Y128.321 E6.27144
G1 X153.847 Y129.089 E6.28678
G1 X153.734 Y129.85 E6.30213
G1 X153.543 Y130.595 E6.31748
G1 X153.275 Y131.316 E6.33283
G1 X152.934 Y132.005 E6.34817
G1 X152.523 Y132.655 E6.36352
G1 X152.047 Y133.26 E6.37888
G1 X151.714 Y133.616 E6.38861
G1 X151.597 Y133.733 E6.39191
G1 X151.025 Y134.247 E6.40726
G1 X150.403 Y134.7 E6.42262
G1 X149.738 Y135.086 E6.43796
G1 X149.036 Y135.401 E6.45331
G1 X148.305 Y135.641 E6.46867
G1 X147.554 Y135.804 E6.484
G1 X146.789 Y135.888 E6.49936
G1 X146.364 Y135.9 E6.50785
G1 X133.561 Y135.9 E6.76335
G1 X133.533 Y136.006 E6.76553
G1 X133.262 Y136.726 E6.78089
G1 X132.917 Y137.413 E6.79623
G1 X132.503 Y138.062 E6.81159
G1 X132.024 Y138.663 E6.82693
G1 X131.715 Y138.993 E6.83595
G1 X131.598 Y139.11 E6.83925
G1 X131.026 Y139.624 E6.8546
G1 X130.404 Y140.077 E6.86995
G1 X129.739 Y140.463 E6.8853
G1 X129.037 Y140.778 E6.90065
G1 X128.306 Y141.018 E6.91601
G1 X127.555 Y141.181 E6.93134
G1 X126.79 Y141.265 E6.9467
G1 X126.365 Y141.277 E6.95518
G1 X119.9 Y141.277 E7.0842
G1 X119.896 Y141.857 E7.09578
G1 X119.886 Y142.173 E7.10208
G1 X119.858 Y142.622 E7.11106
G1 X119.829 Y142.935 E7.11734
G1 X119.769 Y143.417 E7.12703
G1 X119.721 Y143.718 E7.13311
G1 X119.637 Y144.158 E7.14205
G1 X119.569 Y144.464 E7.14831
G1 X119.452 Y144.922 E7.15774
G1 X119.362 Y145.232 E7.16418
G1 X119.228 Y145.647 E7.17288
G1 X119.126 Y145.934 E7.17896
G1 X118.936 Y146.415 E7.18928
G1 X118.806 Y146.713 E7.19577
G1 X118.647 Y147.054 E7.20328
G1 X118.512 Y147.325 E7.20932
G1 X118.254 Y147.798 E7.22007
G1 X118.094 Y148.068 E7.22634
G1 X117.85 Y148.452 E7.23542
G1 X117.666 Y148.723 E7.24195
G1 X117.396 Y149.096 E7.25114
G1 X117.211 Y149.335 E7.25717
G1 X116.931 Y149.675 E7.26596
G1 X116.716 Y149.921 E7.27248
G1 X116.377 Y150.284 E7.28239
G1 X116.16 Y150.501 E7.28852
G1 X115.798 Y150.839 E7.2984
G1 X115.559 Y151.048 E7.30474
G1 X115.224 Y151.323 E7.31339
G1 X114.983 Y151.51 E7.31948
G1 X114.61 Y151.782 E7.32869
G1 X114.344 Y151.963 E7.33511
G1 X113.981 Y152.195 E7.34371
G1 X113.707 Y152.359 E7.35008
G1 X113.255 Y152.608 E7.36038
G1 X112.985 Y152.745 E7.36642
G1 X112.591 Y152.931 E7.37511
G1 X112.297 Y153.059 E7.38151
G1 X111.82 Y153.247 E7.39174
G1 X111.53 Y153.35 E7.39789
G1 X111.137 Y153.477 E7.40613
G1 X110.827 Y153.568 E7.41258
G1 X110.353 Y153.691 E7.42235
G1 X110.048 Y153.759 E7.42858
G1 X109.612 Y153.842 E7.43744
G1 X109.307 Y153.891 E7.44361
G1 X108.818 Y153.953 E7.45344
G1 X108.506 Y153.982 E7.4597
G1 X108.074 Y154.01 E7.46833
G1 X107.499 Y154.025 E7.47981
G1 X103.268 Y154.021 E7.56425
G1 X102.952 Y154.011 E7.57056
G1 X102.503 Y153.983 E7.57953
G1 X102.19 Y153.954 E7.58581
G1 X101.703 Y153.893 E7.5956
G1 X101.397 Y153.844 E7.60179
G1 X100.969 Y153.762 E7.61048
G1 X100.666 Y153.695 E7.61668
G1 X100.186 Y153.572 E7.62656
G1 X99.875 Y153.481 E7.63303
G1 X99.469 Y153.35 E7.64154
G1 X99.18 Y153.247 E7.64767
G1 X98.71 Y153.061 E7.65775
G1 X98.416 Y152.933 E7.66415
G1 X98.061 Y152.767 E7.67197
G1 X97.789 Y152.631 E7.67804
G1 X97.298 Y152.362 E7.68921
G1 X97.024 Y152.198 E7.69559
G1 X96.677 Y151.977 E7.7038
G1 X96.411 Y151.797 E7.71021
G1 X96.022 Y151.514 E7.71981
G1 X95.781 Y151.327 E7.72589
G1 X95.451 Y151.056 E7.73442
G1 X95.207 Y150.843 E7.74088
G1 X94.84 Y150.501 E7.75089
G1 X94.623 Y150.284 E7.75701
G1 X94.288 Y149.926 E7.7668
G1 X94.077 Y149.685 E7.77319
G1 X93.793 Y149.34 E7.78211
G1 X93.608 Y149.101 E7.78814
G1 X93.345 Y148.738 E7.79709
G1 X93.161 Y148.468 E7.80361
G1 X92.92 Y148.091 E7.81254
G1 X92.759 Y147.821 E7.81881
G1 X92.506 Y147.36 E7.8293
G1 X92.37 Y147.09 E7.83534
G1 X92.196 Y146.72 E7.8435
G1 X92.066 Y146.422 E7.84998
G1 X91.871 Y145.926 E7.86062
G1 X91.769 Y145.637 E7.86673
G1 X91.644 Y145.25 E7.87485
G1 X91.554 Y144.942 E7.88125
G1 X91.437 Y144.489 E7.89059
G1 X91.368 Y144.182 E7.89687
G1 X91.28 Y143.724 E7.90618
G1 X91.232 Y143.423 E7.91226
G1 X91.172 Y142.943 E7.92191
G1 X91.143 Y142.631 E7.92817
G1 X91.115 Y142.203 E7.93673
G1 X91.1 Y141.63 E7.94816
G1 X91.103 Y103.184 E8.7154
G1 X91.113 Y102.801 E8.72304
G1 X91.135 Y102.391 E8.73124
G1 X91.165 Y102.024 E8.73858
G1 X91.206 Y101.639 E8.74631
G1 X91.258 Y101.253 E8.75408
G1 X91.326 Y100.84 E8.76244
G1 X91.396 Y100.477 E8.76981
G1 X91.475 Y100.116 E8.77719
G1 X91.565 Y99.749 E8.78473
G1 X91.681 Y99.329 E8.79342
G1 X91.793 Y98.966 E8.80101
G1 X91.907 Y98.627 E8.80814
G1 X92.036 Y98.271 E8.8157
G1 X92.202 Y97.852 E8.82469
G1 X92.357 Y97.494 E8.83248
G1 X92.513 Y97.157 E8.83989
G1 X92.676 Y96.827 E8.84723
G1 X92.872 Y96.457 E8.85559
G1 X93.064 Y96.118 E8.86337
G1 X93.257 Y95.796 E8.87086
G1 X93.454 Y95.486 E8.87819
G1 X93.69 Y95.137 E8.88659
G1 X93.912 Y94.828 E8.89419
G1 X94.165 Y94.497 E8.9025
G1 X94.404 Y94.201 E8.91009
G1 X94.634 Y93.929 E8.9172
G1 X94.894 Y93.637 E8.925
G1 X95.168 Y93.346 E8.93298
G0 F6000 X95.452 Y93.627
