;FLAVOR:Marlin
;TIME:3517
;Filament used: 1.63502m
;Layer height: 0.2
;MINX:89.771
;MINY:88.578
;MINZ:0.12
;MAXX:168.999
;MAXY:154.425
;MAXZ:19.12
;Generated with Cura_SteamEngine 4.6.1
M140 S60
M105
M190 S60
M104 S200
M105
M109 S200
M82 ;absolute extrusion mode
; Ender 3 Custom Start G-code
G92 E0 ; Reset Extruder
G90 ; Absolute positioning
G28 ; Home all axes
G1 Z2.0 F3000 ; Move Z Axis up little to prevent scratching of Heat Bed
G1 X0.1 Y20 Z0.3 F5000.0 ; Move to start position
G1 X0.1 Y200.0 Z0.3 F1500.0 E15 ; Draw the first line
G1 X0.4 Y200.0 Z0.3 F5000.0 ; Move to side a little
G1 X0.4 Y20 Z0.3 F1500.0 E30 ; Draw the second line
G92 E0 ; Reset Extruder
G1 Z2.0 F3000 ; Move Z Axis up little to prevent scratching of Heat Bed
G1 X5 Y20 Z0.3 F5000.0 ; Move over to prevent blob squish
G92 E0
G92 E0
G1 F1500 E-6.5
;LAYER_COUNT:96
;LAYER:0
M107
G0 F6000 X92.759 Y108.455 Z0.12
;TYPE:SKIRT
G1 F1500 E0
G1 F1200 X93.395 Y107.988 E0.01575
G1 X94.075 Y107.587 E0.0315
G1 X94.793 Y107.257 E0.04727
G1 X95.54 Y107.002 E0.06302
G1 X96.309 Y106.823 E0.07878
G1 X97.093 Y106.723 E0.09455
G1 X97.688 Y106.7 E0.10643
G1 X113.311 Y106.7 E0.41821
G1 X114.1 Y106.74 E0.43397
G1 X114.88 Y106.859 E0.44972
G1 X115.645 Y107.057 E0.46549
G1 X116.385 Y107.331 E0.48123
G1 X117.094 Y107.679 E0.497
G1 X117.765 Y108.097 E0.51277
G1 X117.846 Y108.16 E0.51482
G1 X117.846 Y101.24 E0.65292
G1 X117.886 Y100.451 E0.66868
G1 X118.005 Y99.671 E0.68443
G1 X118.203 Y98.906 E0.7002
G1 X118.477 Y98.166 E0.71594
G1 X118.825 Y97.457 E0.73171
G1 X119.243 Y96.786 E0.74748
G1 X119.726 Y96.162 E0.76323
G1 X120.131 Y95.725 E0.77512
G1 X120.248 Y95.608 E0.77842
G1 X120.834 Y95.078 E0.79419
G1 X121.47 Y94.611 E0.80994
G1 X122.15 Y94.21 E0.82569
G1 X122.868 Y93.88 E0.84146
G1 X123.615 Y93.625 E0.85721
G1 X124.384 Y93.446 E0.87297
G1 X125.168 Y93.346 E0.88874
G1 X125.763 Y93.323 E0.90062
G1 X134.529 Y93.323 E1.07556
G1 X135.318 Y93.363 E1.09132
G1 X136.098 Y93.482 E1.10707
G1 X136.863 Y93.68 E1.12284
G1 X137.603 Y93.954 E1.13859
G1 X138.312 Y94.302 E1.15435
G1 X138.983 Y94.72 E1.17012
G1 X139.607 Y95.203 E1.18587
G1 X140.044 Y95.608 E1.19776
G1 X140.161 Y95.725 E1.20106
G1 X140.691 Y96.311 E1.21683
G1 X140.986 Y96.713 E1.22678
G1 X141.031 Y96.622 E1.22881
G1 X141.218 Y96.27 E1.23676
G1 X141.398 Y95.95 E1.24409
G1 X141.615 Y95.586 E1.25254
G1 X141.818 Y95.267 E1.26009
G1 X142.064 Y94.904 E1.26884
G1 X142.286 Y94.595 E1.27643
G1 X142.552 Y94.246 E1.28519
G1 X142.791 Y93.95 E1.29278
G1 X143.035 Y93.663 E1.3003
G1 X143.295 Y93.371 E1.3081
G1 X143.583 Y93.064 E1.3165
G1 X143.841 Y92.804 E1.32381
G1 X144.191 Y92.473 E1.33343
G1 X144.483 Y92.213 E1.34123
G1 X144.772 Y91.967 E1.3488
G1 X145.067 Y91.729 E1.35637
G1 X145.427 Y91.456 E1.36538
G1 X145.736 Y91.235 E1.37296
G1 X146.085 Y90.999 E1.38137
G1 X146.396 Y90.801 E1.38873
G1 X146.732 Y90.599 E1.39655
G1 X147.07 Y90.407 E1.40431
G1 X147.469 Y90.196 E1.41332
G1 X147.799 Y90.033 E1.42066
G1 X148.153 Y89.868 E1.42846
G1 X148.504 Y89.716 E1.43609
G1 X148.903 Y89.557 E1.44466
G1 X149.266 Y89.423 E1.45238
G1 X149.676 Y89.284 E1.46102
G1 X150.034 Y89.174 E1.4685
G1 X150.433 Y89.063 E1.47676
G1 X150.805 Y88.97 E1.48441
G1 X151.248 Y88.873 E1.49346
G1 X151.613 Y88.804 E1.50088
G1 X151.99 Y88.742 E1.5085
G1 X152.372 Y88.689 E1.5162
G1 X152.812 Y88.641 E1.52503
G1 X153.181 Y88.611 E1.53242
G1 X153.609 Y88.588 E1.54097
G1 X153.992 Y88.578 E1.54862
G1 X154.399 Y88.578 E1.55674
G1 X154.783 Y88.588 E1.56441
G1 X155.212 Y88.611 E1.57298
G1 X155.581 Y88.641 E1.58037
G1 X155.998 Y88.686 E1.58874
G1 X156.381 Y88.738 E1.59645
G1 X156.805 Y88.807 E1.60502
G1 X157.169 Y88.877 E1.61242
G1 X157.549 Y88.96 E1.62018
G1 X157.921 Y89.051 E1.62782
G1 X158.378 Y89.178 E1.63729
G1 X158.736 Y89.289 E1.64477
G1 X159.092 Y89.409 E1.65227
G1 X159.455 Y89.541 E1.65998
G1 X159.889 Y89.713 E1.66929
G1 X160.24 Y89.865 E1.67692
G1 X160.594 Y90.03 E1.68472
G1 X160.924 Y90.193 E1.69206
G1 X161.314 Y90.399 E1.70087
G1 X161.653 Y90.591 E1.70864
G1 X161.998 Y90.798 E1.71667
G1 X162.309 Y90.996 E1.72403
G1 X162.667 Y91.239 E1.73266
G1 X162.975 Y91.46 E1.74023
G1 X163.328 Y91.728 E1.74907
G1 X163.624 Y91.967 E1.75666
G1 X163.911 Y92.211 E1.76418
G1 X164.203 Y92.471 E1.77198
G1 X164.51 Y92.759 E1.78038
G1 X164.77 Y93.017 E1.78769
G1 X165.101 Y93.367 E1.79731
G1 X165.361 Y93.659 E1.80511
G1 X165.612 Y93.955 E1.81285
G1 X165.843 Y94.242 E1.82021
G1 X166.088 Y94.562 E1.82825
G1 X166.31 Y94.869 E1.83581
G1 X166.572 Y95.256 E1.84514
G1 X166.776 Y95.577 E1.85273
G1 X166.975 Y95.908 E1.86043
G1 X167.167 Y96.246 E1.86819
G1 X167.378 Y96.645 E1.8772
G1 X167.541 Y96.975 E1.88454
G1 X167.704 Y97.327 E1.89228
G1 X167.854 Y97.673 E1.89981
G1 X168.012 Y98.065 E1.90824
G1 X168.148 Y98.432 E1.91605
G1 X168.293 Y98.86 E1.92507
G1 X168.401 Y99.213 E1.93244
G1 X168.508 Y99.598 E1.94041
G1 X168.6 Y99.965 E1.94796
G1 X168.693 Y100.384 E1.95653
G1 X168.765 Y100.757 E1.96411
G1 X168.832 Y101.164 E1.97234
G1 X168.884 Y101.539 E1.9799
G1 X168.932 Y101.971 E1.98857
G1 X168.963 Y102.348 E1.99612
G1 X168.986 Y102.784 E2.00483
G1 X168.999 Y103.371 E2.01655
G1 X168.995 Y141.87 E2.78484
G1 X168.985 Y142.186 E2.79115
G1 X168.956 Y142.657 E2.80057
G1 X168.928 Y142.96 E2.80664
G1 X168.866 Y143.459 E2.81667
G1 X168.815 Y143.782 E2.8232
G1 X168.716 Y144.293 E2.83359
G1 X168.649 Y144.588 E2.83962
G1 X168.537 Y145.022 E2.84857
G1 X168.447 Y145.334 E2.85505
G1 X168.302 Y145.786 E2.86452
G1 X168.201 Y146.07 E2.87054
G1 X168.005 Y146.567 E2.8812
G1 X167.878 Y146.859 E2.88755
G1 X167.707 Y147.226 E2.89563
G1 X167.569 Y147.503 E2.90181
G1 X167.297 Y148.001 E2.91313
G1 X167.137 Y148.271 E2.91939
G1 X166.88 Y148.676 E2.92897
G1 X166.696 Y148.947 E2.9355
G1 X166.411 Y149.34 E2.94519
G1 X166.226 Y149.579 E2.95122
G1 X165.931 Y149.938 E2.9605
G1 X165.716 Y150.184 E2.96702
G1 X165.358 Y150.566 E2.97746
G1 X165.141 Y150.783 E2.98359
G1 X164.761 Y151.14 E2.99399
G1 X164.522 Y151.349 E3.00033
G1 X164.169 Y151.639 E3.00944
G1 X163.928 Y151.826 E3.01553
G1 X163.534 Y152.113 E3.02526
G1 X163.268 Y152.294 E3.03168
G1 X162.886 Y152.538 E3.04073
G1 X162.612 Y152.702 E3.0471
G1 X162.135 Y152.965 E3.05797
G1 X161.865 Y153.102 E3.06401
G1 X161.45 Y153.298 E3.07317
G1 X161.156 Y153.426 E3.07957
G1 X160.653 Y153.624 E3.09036
G1 X160.363 Y153.727 E3.0965
G1 X159.956 Y153.859 E3.10504
G1 X159.647 Y153.95 E3.11146
G1 X159.135 Y154.082 E3.12202
G1 X158.829 Y154.15 E3.12827
G1 X158.374 Y154.237 E3.13752
G1 X158.069 Y154.286 E3.14368
G1 X157.554 Y154.352 E3.15404
G1 X157.242 Y154.381 E3.1603
G1 X156.786 Y154.409 E3.16941
G1 X156.198 Y154.425 E3.18115
G1 X151.954 Y154.421 E3.26584
G1 X151.638 Y154.411 E3.27215
G1 X151.165 Y154.382 E3.28161
G1 X150.852 Y154.353 E3.28788
G1 X150.339 Y154.288 E3.2982
G1 X150.033 Y154.239 E3.30439
G1 X149.582 Y154.153 E3.31355
G1 X149.279 Y154.086 E3.31974
G1 X148.762 Y153.953 E3.3304
G1 X148.456 Y153.863 E3.33676
G1 X148.046 Y153.73 E3.34536
G1 X147.756 Y153.627 E3.3515
G1 X147.257 Y153.43 E3.36221
G1 X146.958 Y153.3 E3.36872
G1 X146.58 Y153.124 E3.37704
G1 X146.31 Y152.989 E3.38306
G1 X145.803 Y152.711 E3.3946
G1 X145.528 Y152.547 E3.40099
G1 X145.152 Y152.308 E3.40988
G1 X144.886 Y152.128 E3.41629
G1 X144.475 Y151.83 E3.42642
G1 X144.234 Y151.643 E3.43251
G1 X143.886 Y151.357 E3.4415
G1 X143.642 Y151.144 E3.44796
G1 X143.257 Y150.783 E3.45849
G1 X143.044 Y150.57 E3.46451
G1 X142.683 Y150.184 E3.47505
G1 X142.477 Y149.948 E3.4813
G1 X142.197 Y149.609 E3.49008
G1 X141.997 Y149.352 E3.49658
G1 X141.694 Y148.934 E3.50688
G1 X141.518 Y148.674 E3.51315
G1 X141.282 Y148.304 E3.5219
G1 X141.12 Y148.033 E3.5282
G1 X140.858 Y147.559 E3.53901
G1 X140.716 Y147.279 E3.54528
G1 X140.514 Y146.847 E3.55479
G1 X140.389 Y146.558 E3.56108
G1 X140.196 Y146.067 E3.57161
G1 X140.095 Y145.782 E3.57764
G1 X139.961 Y145.367 E3.58634
G1 X139.87 Y145.056 E3.59281
G1 X139.744 Y144.569 E3.60285
G1 X139.678 Y144.274 E3.60888
G1 X139.586 Y143.791 E3.61869
G1 X139.535 Y143.469 E3.6252
G1 X139.474 Y142.987 E3.63489
G1 X139.445 Y142.682 E3.64101
G1 X139.415 Y142.217 E3.65031
G1 X139.399 Y141.63 E3.66203
G1 X139.399 Y139.965 E3.69525
G1 X138.822 Y140.389 E3.70954
G1 X138.142 Y140.79 E3.7253
G1 X137.424 Y141.12 E3.74107
G1 X136.677 Y141.375 E3.75682
G1 X135.908 Y141.554 E3.77257
G1 X135.124 Y141.654 E3.78835
G1 X134.529 Y141.677 E3.80023
G1 X125.763 Y141.677 E3.97516
G1 X124.974 Y141.637 E3.99093
G1 X124.194 Y141.518 E4.00668
G1 X123.429 Y141.32 E4.02244
G1 X122.689 Y141.046 E4.03819
G1 X121.98 Y140.698 E4.05395
G1 X121.309 Y140.28 E4.06973
G1 X120.685 Y139.797 E4.08548
G1 X120.248 Y139.392 E4.09737
G1 X120.131 Y139.275 E4.10067
G1 X119.601 Y138.689 E4.11644
G1 X119.134 Y138.053 E4.13218
G1 X118.733 Y137.373 E4.14794
G1 X118.403 Y136.655 E4.16371
G1 X118.148 Y135.908 E4.17946
G1 X117.969 Y135.139 E4.19521
G1 X117.923 Y134.778 E4.20248
G1 X117.604 Y135.012 E4.21037
G1 X116.924 Y135.413 E4.22613
G1 X116.206 Y135.743 E4.2419
G1 X115.459 Y135.998 E4.25765
G1 X114.69 Y136.177 E4.2734
G1 X113.906 Y136.277 E4.28918
G1 X113.311 Y136.3 E4.30106
G1 X97.688 Y136.3 E4.61283
G1 X96.899 Y136.26 E4.6286
G1 X96.119 Y136.141 E4.64434
G1 X95.354 Y135.943 E4.66011
G1 X94.614 Y135.669 E4.67586
G1 X93.905 Y135.321 E4.69162
G1 X93.234 Y134.903 E4.7074
G1 X92.61 Y134.42 E4.72315
G1 X92.173 Y134.015 E4.73504
G1 X92.056 Y133.898 E4.73834
G1 X91.526 Y133.312 E4.75411
G1 X91.059 Y132.676 E4.76985
G1 X90.658 Y131.996 E4.78561
G1 X90.328 Y131.278 E4.80137
G1 X90.073 Y130.531 E4.81713
G1 X89.894 Y129.762 E4.83288
G1 X89.794 Y128.978 E4.84866
G1 X89.771 Y128.383 E4.86054
G1 X89.771 Y114.617 E5.13525
G1 X89.811 Y113.828 E5.15102
G1 X89.93 Y113.048 E5.16677
G1 X90.128 Y112.283 E5.18253
G1 X90.402 Y111.543 E5.19828
G1 X90.75 Y110.834 E5.21404
G1 X91.168 Y110.163 E5.22982
G1 X91.651 Y109.539 E5.24557
G1 X92.056 Y109.102 E5.25746
G1 X92.173 Y108.985 E5.26076
G1 X92.759 Y108.455 E5.27653
G0 F6000 X93.027 Y108.753
G1 F1200 X93.649 Y108.3 E5.29188
G1 X94.314 Y107.914 E5.30723
G1 X95.016 Y107.599 E5.32258
G1 X95.747 Y107.359 E5.33794
G1 X96.498 Y107.196 E5.35327
G1 X97.263 Y107.112 E5.36863
G1 X97.688 Y107.1 E5.37711
G1 X113.311 Y107.1 E5.68889
G1 X114.079 Y107.14 E5.70424
G1 X114.839 Y107.259 E5.71959
G1 X115.582 Y107.457 E5.73493
G1 X116.301 Y107.731 E5.75029
G1 X116.987 Y108.078 E5.76563
G1 X117.634 Y108.494 E5.78098
G1 X118.234 Y108.975 E5.79632
G1 X118.246 Y101.24 E5.95068
G1 X118.286 Y100.472 E5.96603
G1 X118.405 Y99.712 E5.98138
G1 X118.603 Y98.969 E5.99673
G1 X118.877 Y98.25 E6.01208
G1 X119.224 Y97.564 E6.02742
G1 X119.64 Y96.917 E6.04277
G1 X120.121 Y96.317 E6.05812
G1 X120.53 Y95.89 E6.06992
G1 X121.102 Y95.376 E6.08527
G1 X121.724 Y94.923 E6.10062
G1 X122.389 Y94.537 E6.11597
G1 X123.091 Y94.222 E6.13132
G1 X123.822 Y93.982 E6.14668
G1 X124.573 Y93.819 E6.16201
G1 X125.338 Y93.735 E6.17737
G1 X125.763 Y93.723 E6.18586
G1 X134.529 Y93.723 E6.36079
G1 X135.297 Y93.763 E6.37614
G1 X136.057 Y93.882 E6.39149
G1 X136.8 Y94.08 E6.40683
G1 X137.519 Y94.354 E6.42219
G1 X138.205 Y94.701 E6.43753
G1 X138.852 Y95.117 E6.45288
G1 X139.452 Y95.598 E6.46823
G1 X139.879 Y96.007 E6.48003
G1 X140.393 Y96.579 E6.49537
G1 X140.846 Y97.201 E6.51073
G1 X141.039 Y97.533 E6.51839
G1 X141.22 Y97.14 E6.52703
G1 X141.389 Y96.8 E6.5346
G1 X141.566 Y96.466 E6.54215
G1 X141.746 Y96.146 E6.54947
G1 X141.953 Y95.801 E6.5575
G1 X142.156 Y95.482 E6.56505
G1 X142.389 Y95.137 E6.57336
G1 X142.611 Y94.828 E6.58095
G1 X142.864 Y94.497 E6.58926
G1 X143.103 Y94.201 E6.59686
G1 X143.333 Y93.929 E6.60396
G1 X143.593 Y93.637 E6.61177
G1 X143.867 Y93.346 E6.61974
G1 X144.125 Y93.086 E6.62705
G1 X144.457 Y92.771 E6.63619
G1 X144.749 Y92.511 E6.64399
G1 X145.023 Y92.279 E6.65115
G1 X145.318 Y92.041 E6.65872
G1 X145.66 Y91.781 E6.66729
G1 X145.969 Y91.56 E6.67487
G1 X146.3 Y91.337 E6.68284
G1 X146.611 Y91.139 E6.69019
G1 X146.93 Y90.947 E6.69762
G1 X147.268 Y90.755 E6.70538
G1 X147.646 Y90.554 E6.71392
G1 X147.976 Y90.391 E6.72127
G1 X148.312 Y90.235 E6.72866
G1 X148.663 Y90.083 E6.7363
G1 X149.041 Y89.932 E6.74442
G1 X149.404 Y89.798 E6.75214
G1 X149.794 Y89.666 E6.76036
G1 X150.152 Y89.556 E6.76783
G1 X150.53 Y89.451 E6.77566
G1 X150.902 Y89.358 E6.78331
G1 X151.322 Y89.266 E6.79189
G1 X151.687 Y89.197 E6.79931
G1 X152.045 Y89.138 E6.80655
G1 X152.427 Y89.085 E6.81424
G1 X152.844 Y89.039 E6.82261
G1 X153.213 Y89.009 E6.83
G1 X153.62 Y88.988 E6.83814
G1 X154.003 Y88.978 E6.84578
G1 X154.389 Y88.978 E6.85348
G1 X154.773 Y88.988 E6.86115
G1 X155.18 Y89.009 E6.86928
G1 X155.549 Y89.039 E6.87667
G1 X155.945 Y89.082 E6.88462
G1 X156.328 Y89.134 E6.89233
G1 X156.729 Y89.2 E6.90044
G1 X157.093 Y89.27 E6.90784
G1 X157.454 Y89.349 E6.91521
G1 X157.826 Y89.44 E6.92286
G1 X158.259 Y89.56 E6.93182
G1 X158.617 Y89.671 E6.9393
G1 X158.955 Y89.785 E6.94642
G1 X159.318 Y89.917 E6.95413
G1 X159.73 Y90.08 E6.96297
G1 X160.081 Y90.232 E6.97061
G1 X160.417 Y90.388 E6.978
G1 X160.747 Y90.551 E6.98534
G1 X161.117 Y90.747 E6.9937
G1 X161.456 Y90.939 E7.00147
G1 X161.783 Y91.136 E7.00909
G1 X162.094 Y91.334 E7.01645
G1 X162.434 Y91.564 E7.02464
G1 X162.742 Y91.785 E7.03221
G1 X163.077 Y92.04 E7.04061
G1 X163.373 Y92.279 E7.0482
G1 X163.645 Y92.509 E7.05531
G1 X163.937 Y92.769 E7.06311
G1 X164.228 Y93.043 E7.07109
G1 X164.488 Y93.301 E7.0784
G1 X164.803 Y93.633 E7.08753
G1 X165.063 Y93.925 E7.09533
G1 X165.301 Y94.206 E7.10268
G1 X165.532 Y94.493 E7.11003
G1 X165.763 Y94.797 E7.11765
G1 X165.985 Y95.104 E7.12521
G1 X166.234 Y95.471 E7.13406
G1 X166.438 Y95.792 E7.14165
G1 X166.627 Y96.106 E7.14897
G1 X166.819 Y96.444 E7.15673
G1 X167.02 Y96.822 E7.16527
G1 X167.183 Y97.152 E7.17261
G1 X167.337 Y97.486 E7.17995
G1 X167.487 Y97.832 E7.18748
G1 X167.637 Y98.204 E7.19548
G1 X167.773 Y98.571 E7.20329
G1 X167.91 Y98.977 E7.21185
G1 X168.018 Y99.33 E7.21921
G1 X168.12 Y99.696 E7.22679
G1 X168.212 Y100.063 E7.23434
G1 X168.3 Y100.459 E7.24244
G1 X168.372 Y100.832 E7.25002
G1 X168.436 Y101.219 E7.25785
G1 X168.488 Y101.594 E7.2654
G1 X168.533 Y102.004 E7.27364
G1 X168.564 Y102.381 E7.28118
G1 X168.586 Y102.794 E7.28944
G1 X168.599 Y103.371 E7.30096
G1 X168.595 Y141.857 E8.06899
G1 X168.585 Y142.173 E8.07529
G1 X168.558 Y142.62 E8.08423
G1 X168.53 Y142.923 E8.0903
G1 X168.47 Y143.396 E8.09982
G1 X168.419 Y143.719 E8.10634
G1 X168.326 Y144.204 E8.1162
G1 X168.259 Y144.499 E8.12224
G1 X168.153 Y144.911 E8.13073
G1 X168.063 Y145.223 E8.13721
G1 X167.925 Y145.652 E8.1462
G1 X167.824 Y145.936 E8.15221
G1 X167.638 Y146.407 E8.16232
G1 X167.511 Y146.699 E8.16867
G1 X167.349 Y147.048 E8.17635
G1 X167.211 Y147.325 E8.18253
G1 X166.953 Y147.798 E8.19328
G1 X166.793 Y148.068 E8.19954
G1 X166.549 Y148.452 E8.20862
G1 X166.365 Y148.723 E8.21516
G1 X166.095 Y149.096 E8.22435
G1 X165.91 Y149.335 E8.23038
G1 X165.63 Y149.675 E8.23917
G1 X165.415 Y149.921 E8.24569
G1 X165.076 Y150.284 E8.2556
G1 X164.859 Y150.501 E8.26173
G1 X164.497 Y150.839 E8.27161
G1 X164.258 Y151.048 E8.27795
G1 X163.923 Y151.323 E8.2866
G1 X163.682 Y151.51 E8.29268
G1 X163.309 Y151.782 E8.3019
G1 X163.043 Y151.963 E8.30832
G1 X162.68 Y152.195 E8.31691
G1 X162.406 Y152.359 E8.32329
G1 X161.954 Y152.608 E8.33358
G1 X161.684 Y152.745 E8.33963
G1 X161.29 Y152.931 E8.34832
G1 X160.996 Y153.059 E8.35472
G1 X160.519 Y153.247 E8.36495
G1 X160.229 Y153.35 E8.37109
G1 X159.843 Y153.476 E8.3792
G1 X159.534 Y153.567 E8.38562
G1 X159.048 Y153.692 E8.39564
G1 X158.742 Y153.76 E8.40189
G1 X158.311 Y153.842 E8.41065
G1 X158.006 Y153.891 E8.41681
G1 X157.517 Y153.953 E8.42665
G1 X157.205 Y153.982 E8.4329
G1 X156.773 Y154.01 E8.44154
G1 X156.198 Y154.025 E8.45302
G1 X151.967 Y154.021 E8.53746
G1 X151.651 Y154.011 E8.54377
G1 X151.202 Y153.983 E8.55274
G1 X150.889 Y153.954 E8.55902
G1 X150.402 Y153.893 E8.56881
G1 X150.096 Y153.844 E8.57499
G1 X149.668 Y153.762 E8.58369
G1 X149.365 Y153.695 E8.58988
G1 X148.875 Y153.569 E8.59998
G1 X148.569 Y153.479 E8.60635
G1 X148.18 Y153.353 E8.61451
G1 X147.89 Y153.25 E8.62065
G1 X147.416 Y153.063 E8.63082
G1 X147.117 Y152.933 E8.63732
G1 X146.759 Y152.766 E8.64521
G1 X146.489 Y152.631 E8.65123
G1 X146.008 Y152.368 E8.66217
