;FLAVOR:Marlin
;TIME:6760
;Filament used: 4.82398m
;Layer height: 0.2
;MINX:45.75
;MINY:85.5
;MINZ:0.2
;MAXX:189.25
;MAXY:149.5
;MAXZ:10
;Generated with Cura_SteamEngine 4.6.1
M140 S60
M105
M190 S60
M104 S200
M105
M109 S200
M82 ;absolute extrusion mode
; Ender 3 Custom Start G-code
G92 E0 ; Reset Extruder
G28 ; Home all axes
G1 Z2.0 F3000 ; Move Z Axis up little to prevent scratching of Heat Bed
G1 X0.1 Y20 Z0.3 F5000.0 ; Move to start position
G1 X0.1 Y200.0 Z0.3 F1500.0 E15 ; Draw the first line
G1 X0.4 Y200.0 Z0.3 F5000.0 ; Move to side a little
G1 X0.4 Y20 Z0.3 F1500.0 E30 ; Draw the second line
G92 E0 ; Reset Extruder
G1 Z2.0 F3000 ; Move Z Axis up little to prevent scratching of Heat Bed
G1 X5 Y20 Z0.3 F5000.0 ; Move over to prevent blob squish
G92 E0
G92 E0
G1 F1500 E-6.5
;LAYER_COUNT:50
;LAYER:0
M107
G0 F6000 X168.931 Y86.326 Z0.2
;TYPE:SKIRT
G1 F1500 E0
G1 F1200 X169.42 Y86.346 E0.01628
G1 X169.848 Y86.374 E0.03054
G1 X170.732 Y86.47 E0.06012
G1 X171.714 Y86.621 E0.09316
G1 X172.469 Y86.767 E0.11874
G1 X173.301 Y86.96 E0.14715
G1 X173.885 Y87.114 E0.16724
G1 X174.183 Y87.202 E0.17757
G1 X174.658 Y87.355 E0.19417
G1 X175.365 Y87.606 E0.21912
G1 X175.588 Y87.691 E0.22706
G1 X175.995 Y87.856 E0.24167
G1 X176.882 Y88.248 E0.27392
G1 X177.299 Y88.452 E0.28936
G1 X178.008 Y88.824 E0.31599
G1 X178.212 Y88.938 E0.32376
G1 X178.564 Y89.144 E0.33733
G1 X179.193 Y89.534 E0.36194
G1 X179.41 Y89.675 E0.37055
G1 X179.796 Y89.938 E0.38609
G1 X180.376 Y90.358 E0.4099
G1 X180.577 Y90.51 E0.41829
G1 X180.925 Y90.785 E0.43304
G1 X181.283 Y91.081 E0.44849
G1 X181.707 Y91.448 E0.46714
G1 X182.011 Y91.727 E0.48086
G1 X182.569 Y92.266 E0.50667
G1 X182.755 Y92.455 E0.51549
G1 X183.038 Y92.755 E0.5292
G1 X183.362 Y93.112 E0.54524
G1 X183.722 Y93.528 E0.56354
G1 X183.973 Y93.836 E0.57675
G1 X184.451 Y94.452 E0.60268
G1 X184.593 Y94.644 E0.61063
G1 X184.846 Y95.002 E0.62521
G1 X185.112 Y95.396 E0.64102
G1 X185.402 Y95.847 E0.65885
G1 X185.621 Y96.211 E0.67298
G1 X185.992 Y96.864 E0.69796
G1 X186.108 Y97.079 E0.70609
G1 X186.31 Y97.475 E0.72087
G1 X186.653 Y98.194 E0.74737
G1 X186.746 Y98.403 E0.75498
G1 X186.895 Y98.755 E0.76769
G1 X187.077 Y99.209 E0.78396
G1 X187.296 Y99.8 E0.80492
G1 X187.409 Y100.134 E0.81665
G1 X187.642 Y100.879 E0.84261
G1 X187.701 Y101.085 E0.84974
G1 X187.88 Y101.81 E0.87457
G1 X188.083 Y102.783 E0.90763
G1 X188.214 Y103.556 E0.93371
G1 X188.325 Y104.413 E0.96245
G1 X188.393 Y105.125 E0.98624
G1 X188.423 Y105.751 E1.00709
G1 X188.45 Y107.379 E1.06124
G1 X188.448 Y127.798 E1.74038
G1 X188.424 Y129.18 E1.78635
G1 X188.404 Y129.667 E1.80256
G1 X188.376 Y130.096 E1.81686
G1 X188.28 Y130.982 E1.8465
G1 X188.129 Y131.964 E1.87955
G1 X187.983 Y132.719 E1.90513
G1 X187.79 Y133.551 E1.93353
G1 X187.636 Y134.135 E1.95362
G1 X187.548 Y134.433 E1.96396
G1 X187.395 Y134.908 E1.98055
G1 X187.144 Y135.615 E2.00551
G1 X187.059 Y135.838 E2.01344
G1 X186.894 Y136.245 E2.02805
G1 X186.502 Y137.132 E2.0603
G1 X186.298 Y137.549 E2.07575
G1 X185.926 Y138.258 E2.10238
G1 X185.812 Y138.462 E2.11015
G1 X185.602 Y138.82 E2.12395
G1 X185.221 Y139.435 E2.14801
G1 X185.081 Y139.651 E2.15658
G1 X184.813 Y140.044 E2.1724
G1 X184.395 Y140.622 E2.19612
G1 X184.24 Y140.827 E2.20467
G1 X183.963 Y141.177 E2.21952
G1 X183.661 Y141.542 E2.23527
G1 X183.298 Y141.961 E2.25371
G1 X183.026 Y142.258 E2.26711
G1 X182.694 Y142.606 E2.2831
G1 X182.268 Y143.031 E2.30312
G1 X181.993 Y143.29 E2.31568
G1 X181.638 Y143.612 E2.33162
G1 X181.231 Y143.965 E2.34954
G1 X180.914 Y144.223 E2.36314
G1 X180.298 Y144.701 E2.38907
G1 X180.106 Y144.843 E2.39701
G1 X179.748 Y145.096 E2.41159
G1 X178.924 Y145.639 E2.44441
G1 X178.548 Y145.866 E2.45902
G1 X177.871 Y146.25 E2.48491
G1 X177.661 Y146.363 E2.49284
G1 X177.25 Y146.573 E2.50819
G1 X176.397 Y146.974 E2.53954
G1 X175.995 Y147.145 E2.55407
G1 X175.536 Y147.329 E2.57052
G1 X174.942 Y147.549 E2.59159
G1 X174.606 Y147.662 E2.60338
G1 X173.679 Y147.947 E2.63563
G1 X172.938 Y148.13 E2.66102
G1 X171.964 Y148.333 E2.69411
G1 X171.195 Y148.463 E2.72005
G1 X170.339 Y148.574 E2.74876
G1 X169.828 Y148.627 E2.76585
G1 X169.625 Y148.643 E2.77262
G1 X168.999 Y148.673 E2.79346
G1 X167.37 Y148.7 E2.84765
G1 X67.629 Y148.7 E6.16505
G1 X67.452 Y148.698 E6.17094
G1 X66.07 Y148.674 E6.21691
G1 X65.583 Y148.654 E6.23312
G1 X65.154 Y148.626 E6.24742
G1 X64.268 Y148.53 E6.27706
G1 X63.286 Y148.379 E6.31011
G1 X62.531 Y148.233 E6.33568
G1 X61.699 Y148.04 E6.36409
G1 X61.115 Y147.886 E6.38418
G1 X60.817 Y147.798 E6.39451
G1 X60.344 Y147.646 E6.41104
G1 X59.618 Y147.388 E6.43667
G1 X59.401 Y147.305 E6.44439
G1 X59.005 Y147.144 E6.45861
G1 X58.118 Y146.752 E6.49086
G1 X57.701 Y146.549 E6.50629
G1 X57.283 Y146.333 E6.52194
G1 X56.784 Y146.06 E6.54086
G1 X56.437 Y145.857 E6.55423
G1 X55.794 Y145.458 E6.5794
G1 X55.582 Y145.32 E6.58781
G1 X55.204 Y145.062 E6.60303
G1 X54.609 Y144.631 E6.62747
G1 X54.415 Y144.484 E6.63557
G1 X54.07 Y144.211 E6.6502
G1 X53.704 Y143.908 E6.666
G1 X53.292 Y143.551 E6.68413
G1 X52.992 Y143.276 E6.69767
G1 X52.643 Y142.943 E6.71371
G1 X52.219 Y142.518 E6.73368
G1 X51.963 Y142.246 E6.7461
G1 X51.638 Y141.888 E6.76219
G1 X51.274 Y141.468 E6.78067
G1 X51.027 Y141.165 E6.79367
G1 X50.524 Y140.515 E6.82101
G1 X50.393 Y140.337 E6.82836
G1 X50.157 Y140.003 E6.84196
G1 X49.89 Y139.608 E6.85782
G1 X49.59 Y139.14 E6.87631
G1 X49.374 Y138.78 E6.89027
G1 X49 Y138.121 E6.91548
G1 X48.888 Y137.913 E6.92333
G1 X48.679 Y137.502 E6.93867
G1 X48.276 Y136.646 E6.97014
G1 X48.105 Y136.245 E6.98464
G1 X47.921 Y135.786 E7.00108
G1 X47.701 Y135.192 E7.02215
G1 X47.588 Y134.856 E7.03394
G1 X47.303 Y133.929 E7.0662
G1 X47.12 Y133.188 E7.09158
G1 X46.917 Y132.214 E7.12468
G1 X46.787 Y131.445 E7.15062
G1 X46.676 Y130.589 E7.17932
G1 X46.623 Y130.078 E7.19641
G1 X46.607 Y129.875 E7.20318
G1 X46.577 Y129.249 E7.22403
G1 X46.55 Y127.621 E7.27818
G1 X46.552 Y107.202 E7.95732
G1 X46.576 Y105.82 E8.0033
G1 X46.596 Y105.333 E8.01951
G1 X46.624 Y104.904 E8.03381
G1 X46.72 Y104.018 E8.06345
G1 X46.871 Y103.036 E8.09649
G1 X47.017 Y102.281 E8.12207
G1 X47.21 Y101.449 E8.15048
G1 X47.364 Y100.865 E8.17056
G1 X47.452 Y100.567 E8.1809
G1 X47.603 Y100.096 E8.19735
G1 X47.76 Y99.646 E8.2132
G1 X47.95 Y99.139 E8.23121
G1 X48.105 Y98.758 E8.24489
G1 X48.508 Y97.847 E8.27802
G1 X48.705 Y97.445 E8.29291
G1 X48.925 Y97.02 E8.30883
G1 X49.189 Y96.537 E8.32714
G1 X49.397 Y96.181 E8.34085
G1 X49.803 Y95.527 E8.36645
G1 X49.932 Y95.329 E8.37431
G1 X50.188 Y94.954 E8.38941
G1 X50.608 Y94.374 E8.41323
G1 X50.76 Y94.173 E8.42161
G1 X51.041 Y93.818 E8.43667
G1 X51.355 Y93.439 E8.45304
G1 X51.71 Y93.03 E8.47106
G1 X51.987 Y92.728 E8.48469
G1 X52.546 Y92.151 E8.51141
G1 X52.713 Y91.987 E8.51919
G1 X53.003 Y91.714 E8.53244
G1 X53.362 Y91.388 E8.54857
G1 X53.786 Y91.02 E8.56724
G1 X54.09 Y90.773 E8.58027
G1 X54.888 Y90.162 E8.6137
G1 X55.262 Y89.897 E8.62894
G1 X56.079 Y89.359 E8.66148
G1 X56.458 Y89.13 E8.6762
G1 X57.129 Y88.75 E8.70185
G1 X57.339 Y88.637 E8.70978
G1 X57.75 Y88.427 E8.72514
G1 X58.603 Y88.026 E8.75648
G1 X59.005 Y87.855 E8.77101
G1 X59.464 Y87.671 E8.78746
G1 X60.058 Y87.451 E8.80853
G1 X60.394 Y87.338 E8.82032
G1 X61.321 Y87.053 E8.85258
G1 X62.062 Y86.87 E8.87796
G1 X63.036 Y86.667 E8.91105
G1 X63.805 Y86.537 E8.93699
G1 X64.661 Y86.426 E8.9657
G1 X65.172 Y86.373 E8.98279
G1 X65.375 Y86.357 E8.98956
G1 X66.001 Y86.327 E9.01041
G1 X67.63 Y86.3 E9.0646
G1 X167.371 Y86.3 E12.382
G1 X167.548 Y86.302 E12.38788
G1 X168.931 Y86.326 E12.43389
G0 F6000 X168.938 Y85.926
G1 F1200 X169.446 Y85.947 E12.4508
G1 X169.874 Y85.975 E12.46507
G1 X170.793 Y86.075 E12.49581
G1 X171.775 Y86.226 E12.52886
G1 X172.559 Y86.377 E12.55541
G1 X173.391 Y86.57 E12.58382
G1 X173.998 Y86.73 E12.6047
G1 X174.296 Y86.818 E12.61503
G1 X174.79 Y86.977 E12.63229
G1 X175.507 Y87.232 E12.6576
G1 X175.73 Y87.317 E12.66554
G1 X176.154 Y87.489 E12.68076
G1 X177.049 Y87.884 E12.7133
G1 X177.483 Y88.096 E12.72936
G1 X177.899 Y88.311 E12.74494
G1 X178.407 Y88.589 E12.7642
G1 X178.773 Y88.803 E12.7783
G1 X179.411 Y89.199 E12.80328
G1 X179.628 Y89.34 E12.81188
G1 X180.029 Y89.613 E12.82802
G1 X180.618 Y90.039 E12.85219
G1 X180.819 Y90.191 E12.86058
G1 X181.179 Y90.477 E12.87587
G1 X181.788 Y90.986 E12.90227
G1 X181.972 Y91.148 E12.91042
G1 X182.287 Y91.437 E12.92464
G1 X182.619 Y91.754 E12.93991
G1 X183.04 Y92.175 E12.95971
G1 X183.334 Y92.486 E12.97394
G1 X183.658 Y92.843 E12.98998
G1 X184.027 Y93.269 E13.00872
G1 X184.288 Y93.589 E13.02246
G1 X184.772 Y94.214 E13.04875
G1 X184.914 Y94.406 E13.05669
G1 X185.177 Y94.778 E13.07185
G1 X185.625 Y95.45 E13.09871
G1 X185.741 Y95.634 E13.10594
G1 X185.968 Y96.011 E13.12058
G1 X186.344 Y96.674 E13.14593
G1 X186.46 Y96.889 E13.15405
G1 X186.67 Y97.3 E13.16941
G1 X186.873 Y97.719 E13.18489
G1 X187.111 Y98.241 E13.20397
G1 X187.266 Y98.606 E13.21716
G1 X187.448 Y99.06 E13.23343
G1 X187.673 Y99.665 E13.2549
G1 X187.79 Y100.012 E13.26708
G1 X187.934 Y100.463 E13.28282
G1 X188.085 Y100.974 E13.30055
G1 X188.272 Y101.728 E13.32639
G1 X188.475 Y102.701 E13.35944
G1 X188.61 Y103.504 E13.38653
G1 X188.721 Y104.361 E13.41527
G1 X188.776 Y104.89 E13.43296
G1 X188.792 Y105.093 E13.43973
G1 X188.823 Y105.744 E13.46141
G1 X188.85 Y107.379 E13.5158
G1 X188.848 Y127.805 E14.19517
G1 X188.824 Y129.187 E14.24114
G1 X188.803 Y129.693 E14.25798
G1 X188.775 Y130.122 E14.27228
G1 X188.675 Y131.043 E14.3031
G1 X188.524 Y132.025 E14.33614
G1 X188.373 Y132.809 E14.3627
G1 X188.18 Y133.641 E14.3911
G1 X188.02 Y134.248 E14.41198
G1 X187.932 Y134.546 E14.42232
G1 X187.773 Y135.04 E14.43958
G1 X187.518 Y135.757 E14.46489
G1 X187.433 Y135.98 E14.47283
G1 X187.261 Y136.404 E14.48804
G1 X186.866 Y137.299 E14.52058
G1 X186.654 Y137.733 E14.53665
G1 X186.439 Y138.149 E14.55222
G1 X186.161 Y138.657 E14.57148
G1 X185.943 Y139.029 E14.58582
G1 X185.557 Y139.652 E14.6102
G1 X185.417 Y139.868 E14.61876
G1 X185.138 Y140.277 E14.63523
G1 X184.714 Y140.863 E14.65928
G1 X184.559 Y141.068 E14.66783
G1 X184.271 Y141.432 E14.68327
G1 X183.969 Y141.797 E14.69903
G1 X183.598 Y142.226 E14.71789
G1 X183.316 Y142.534 E14.73178
G1 X182.984 Y142.882 E14.74778
G1 X182.548 Y143.317 E14.76826
G1 X182.262 Y143.586 E14.78132
G1 X181.907 Y143.908 E14.79726
G1 X181.49 Y144.27 E14.81563
G1 X181.161 Y144.538 E14.82974
G1 X180.536 Y145.022 E14.85603
G1 X180.344 Y145.164 E14.86398
G1 X179.972 Y145.427 E14.87913
G1 X179.138 Y145.977 E14.91236
G1 X178.747 Y146.213 E14.92755
G1 X178.061 Y146.602 E14.95378
G1 X177.851 Y146.715 E14.96171
G1 X177.423 Y146.933 E14.97768
G1 X176.562 Y147.338 E15.00933
G1 X176.144 Y147.516 E15.02444
G1 X175.685 Y147.7 E15.04089
G1 X175.076 Y147.925 E15.06248
G1 X174.727 Y148.043 E15.07474
G1 X173.789 Y148.331 E15.10737
G1 X173.02 Y148.522 E15.13373
G1 X172.046 Y148.725 E15.16682
G1 X171.246 Y148.86 E15.1938
G1 X170.39 Y148.971 E15.22251
G1 X169.86 Y149.026 E15.24023
G1 X169.657 Y149.042 E15.24701
G1 X169.006 Y149.073 E15.26868
G1 X167.37 Y149.1 E15.3231
G1 X67.629 Y149.1 E18.6405
G1 X67.445 Y149.098 E18.64662
G1 X66.063 Y149.074 E18.69259
G1 X65.557 Y149.053 E18.70944
G1 X65.128 Y149.025 E18.72374
G1 X64.207 Y148.925 E18.75455
G1 X63.225 Y148.774 E18.7876
G1 X62.441 Y148.623 E18.81415
G1 X61.609 Y148.43 E18.84256
G1 X61.002 Y148.27 E18.86344
G1 X60.704 Y148.182 E18.87377
G1 X60.212 Y148.024 E18.89096
G1 X59.475 Y147.762 E18.91697
G1 X59.258 Y147.679 E18.9247
G1 X58.846 Y147.511 E18.9395
G1 X57.951 Y147.116 E18.97204
G1 X57.518 Y146.904 E18.98807
G1 X57.1 Y146.688 E19.00372
G1 X56.589 Y146.409 E19.02309
G1 X56.229 Y146.198 E19.03697
G1 X55.576 Y145.794 E19.06251
G1 X55.364 Y145.656 E19.07092
G1 X54.971 Y145.387 E19.08676
G1 X54.367 Y144.95 E19.11155
G1 X54.173 Y144.803 E19.11965
G1 X53.815 Y144.519 E19.13485
G1 X53.203 Y144.006 E19.16141
G1 X53.027 Y143.851 E19.16921
G1 X52.716 Y143.565 E19.18326
G1 X52.367 Y143.232 E19.19931
G1 X51.933 Y142.797 E19.21974
G1 X51.667 Y142.515 E19.23264
G1 X51.342 Y142.157 E19.24872
G1 X50.969 Y141.727 E19.26765
G1 X50.712 Y141.411 E19.2812
G1 X50.202 Y140.752 E19.30892
G1 X50.071 Y140.574 E19.31627
G1 X49.826 Y140.227 E19.33039
G1 X49.559 Y139.832 E19.34625
G1 X49.251 Y139.353 E19.36519
G1 X49.027 Y138.979 E19.37969
G1 X48.648 Y138.31 E19.40527
G1 X48.536 Y138.102 E19.41312
G1 X48.318 Y137.675 E19.42907
G1 X47.911 Y136.81 E19.46086
G1 X47.734 Y136.394 E19.4759
G1 X47.55 Y135.935 E19.49235
G1 X47.325 Y135.326 E19.51394
G1 X47.207 Y134.977 E19.5262
G1 X46.919 Y134.039 E19.55883
G1 X46.728 Y133.27 E19.58519
G1 X46.525 Y132.296 E19.61828
G1 X46.39 Y131.496 E19.64526
G1 X46.279 Y130.64 E19.67397
G1 X46.224 Y130.11 E19.69169
G1 X46.208 Y129.907 E19.69847
G1 X46.177 Y129.256 E19.72014
G1 X46.15 Y127.621 E19.77453
G1 X46.152 Y107.195 E20.4539
G1 X46.176 Y105.813 E20.49987
G1 X46.197 Y105.307 E20.51672
G1 X46.225 Y104.878 E20.53102
G1 X46.325 Y103.957 E20.56183
G1 X46.476 Y102.975 E20.59487
G1 X46.627 Y102.191 E20.62143
G1 X46.82 Y101.359 E20.64984
G1 X46.98 Y100.752 E20.67072
G1 X47.068 Y100.454 E20.68105
G1 X47.226 Y99.964 E20.69817
G1 X47.495 Y99.207 E20.72489
G1 X47.576 Y98.996 E20.73241
G1 X47.738 Y98.6 E20.74664
G1 X48.145 Y97.679 E20.78013
G1 X48.349 Y97.261 E20.7956
G1 X48.569 Y96.836 E20.81152
G1 X48.839 Y96.342 E20.83024
G1 X49.056 Y95.972 E20.84451
G1 X49.468 Y95.309 E20.87047
G1 X49.597 Y95.111 E20.87833
G1 X49.863 Y94.721 E20.89403
G1 X50.289 Y94.132 E20.91821
G1 X50.441 Y93.931 E20.92659
G1 X50.733 Y93.562 E20.94224
G1 X51.047 Y93.183 E20.95861
G1 X51.41 Y92.765 E20.97703
G1 X51.698 Y92.452 E20.99117
G1 X52.266 Y91.866 E21.01832
G1 X52.433 Y91.702 E21.0261
G1 X52.734 Y91.418 E21.03987
G1 X53.093 Y91.092 E21.056
G1 X53.528 Y90.715 E21.07514
G1 X53.844 Y90.458 E21.08869
G1 X54.461 Y89.98 E21.11465
G1 X54.65 Y89.84 E21.12247
G1 X55.038 Y89.566 E21.13827
G1 X55.865 Y89.021 E21.17121
G1 X56.259 Y88.783 E21.18652
G1 X56.939 Y88.398 E21.21251
G1 X57.149 Y88.285 E21.22044
G1 X57.577 Y88.067 E21.23642
G1 X58.438 Y87.662 E21.26807
G1 X58.856 Y87.484 E21.28318
G1 X59.315 Y87.3 E21.29962
G1 X59.924 Y87.075 E21.32122
G1 X60.273 Y86.957 E21.33347
G1 X61.211 Y86.669 E21.36611
G1 X61.98 Y86.478 E21.39246
G1 X62.954 Y86.275 E21.42555
G1 X63.754 Y86.14 E21.45254
G1 X64.61 Y86.029 E21.48124
G1 X65.14 Y85.974 E21.49897
G1 X65.343 Y85.958 E21.50574
G1 X65.994 Y85.927 E21.52742
G1 X67.63 Y85.9 E21.58184
G1 X167.371 Y85.9 E24.89924
G1 X167.555 Y85.902 E24.90536
G1 X168.938 Y85.926 E24.95136
G0 F6000 X168.945 Y85.526
G1 F1200 X169.472 Y85.547 E24.9689
G1 X169.9 Y85.575 E24.98317
G1 X170.854 Y85.68 E25.01509
G1 X171.836 Y85.831 E25.04814
G1 X172.65 Y85.988 E25.07571
G1 X173.482 Y86.181 E25.10412
G1 X174.111 Y86.346 E25.12575
G1 X174.409 Y86.434 E25.13608
G1 X174.922 Y86.599 E25.154
G1 X175.65 Y86.858 E25.1797
G1 X175.873 Y86.943 E25.18764
G1 X176.312 Y87.122 E25.20341
G1 X177.216 Y87.521 E25.23628
G1 X177.666 Y87.741 E25.25294
G1 X178.082 Y87.956 E25.26851
G1 X178.602 Y88.24 E25.28822
G1 X178.981 Y88.462 E25.30283
G1 X179.629 Y88.863 E25.32817
G1 X179.846 Y89.004 E25.33678
G1 X180.263 Y89.288 E25.35356
G1 X180.859 Y89.72 E25.37804
G1 X181.06 Y89.872 E25.38642
G1 X181.434 Y90.168 E25.40229
G1 X181.792 Y90.464 E25.41774
G1 X182.236 Y90.848 E25.43726
G1 X182.563 Y91.148 E25.45202
G1 X182.895 Y91.465 E25.46729
G1 X183.325 Y91.894 E25.48749
G1 X183.631 Y92.217 E25.50229
G1 X183.955 Y92.574 E25.51833
G1 X184.332 Y93.01 E25.5375
G1 X184.603 Y93.343 E25.55178
G1 X185.094 Y93.976 E25.57842
G1 X185.236 Y94.168 E25.58636
G1 X185.509 Y94.554 E25.60209
G1 X185.775 Y94.948 E25.6179
G1 X186.079 Y95.421 E25.6366
G1 X186.315 Y95.812 E25.65179
G1 X186.696 Y96.484 E25.67748
G1 X186.812 Y96.699 E25.68561
G1 X187.03 Y97.126 E25.70155
G1 X187.233 Y97.545 E25.71704
G1 X187.477 Y98.078 E25.73654
G1 X187.637 Y98.457 E25.75022
G1 X187.819 Y98.911 E25.76649
G1 X188.049 Y99.531 E25.78848
G1 X188.171 Y99.89 E25.80109
G1 X188.411 Y100.658 E25.82786
G1 X188.47 Y100.864 E25.83498
G1 X188.663 Y101.646 E25.86177
G1 X188.866 Y102.619 E25.89483
G1 X189.007 Y103.453 E25.92296
G1 X189.118 Y104.31 E25.95171
G1 X189.175 Y104.859 E25.97006
G1 X189.191 Y105.062 E25.97684
G1 X189.223 Y105.737 E25.99931
