;FLAVOR:Marlin
;TIME:19185
;Filament used: 16.4707m
;Layer height: 0.2
;MINX:46.515
;MINY:46.515
;MINZ:0.2
;MAXX:188.485
;MAXY:188.485
;MAXZ:40.8
;Generated with Cura_SteamEngine 4.6.1
M140 S60
M105
M190 S60
M104 S200
M105
M109 S200
M82 ;absolute extrusion mode
; Ender 3 Custom Start G-code
G92 E0 ; Reset Extruder
G28 ; Home all axes
G1 Z2.0 F3000 ; Move Z Axis up little to prevent scratching of Heat Bed
G1 X0.1 Y20 Z0.3 F5000.0 ; Move to start position
G1 X0.1 Y200.0 Z0.3 F1500.0 E15 ; Draw the first line
G1 X0.4 Y200.0 Z0.3 F5000.0 ; Move to side a little
G1 X0.4 Y20 Z0.3 F1500.0 E30 ; Draw the second line
G92 E0 ; Reset Extruder
G1 Z2.0 F3000 ; Move Z Axis up little to prevent scratching of Heat Bed
G1 X5 Y20 Z0.3 F5000.0 ; Move over to prevent blob squish
G92 E0
G92 E0
G1 F1500 E-6.5
;LAYER_COUNT:204
;LAYER:0
M107
G0 F6000 X120.916 Y47.391 Z0.2
;TYPE:SKIRT
G1 F1500 E0
G1 F1200 X121.456 Y47.422 E0.01799
G1 X123.524 Y47.569 E0.08695
G1 X123.847 Y47.597 E0.09773
G1 X125.669 Y47.786 E0.15865
G1 X126.228 Y47.855 E0.17739
G1 X128.199 Y48.13 E0.24358
G1 X128.525 Y48.181 E0.25455
G1 X130.951 Y48.611 E0.3365
G1 X132.768 Y48.989 E0.39823
G1 X133.28 Y49.106 E0.4157
G1 X135.602 Y49.684 E0.49528
G1 X137.399 Y50.188 E0.55736
G1 X137.918 Y50.345 E0.57539
G1 X139.724 Y50.919 E0.63842
G1 X140.191 Y51.078 E0.65483
G1 X141.973 Y51.713 E0.71775
G1 X142.484 Y51.906 E0.73592
G1 X144.154 Y52.566 E0.79564
G1 X144.694 Y52.791 E0.8151
G1 X146.387 Y53.529 E0.87653
G1 X146.902 Y53.764 E0.89535
G1 X148.555 Y54.552 E0.95626
G1 X149.043 Y54.796 E0.97441
G1 X150.681 Y55.646 E1.03578
G1 X151.152 Y55.902 E1.05361
G1 X152.783 Y56.82 E1.11586
G1 X153.295 Y57.122 E1.13564
G1 X154.78 Y58.027 E1.19348
G1 X155.325 Y58.373 E1.21495
G1 X156.82 Y59.355 E1.27444
G1 X157.29 Y59.677 E1.29339
G1 X158.79 Y60.737 E1.35448
G1 X159.259 Y61.083 E1.37386
G1 X160.733 Y62.203 E1.43543
G1 X161.094 Y62.489 E1.45075
G1 X162.605 Y63.72 E1.51558
G1 X163.014 Y64.067 E1.53342
G1 X164.351 Y65.234 E1.59244
G1 X164.782 Y65.623 E1.61175
G1 X166.185 Y66.937 E1.67569
G1 X166.525 Y67.269 E1.69149
G1 X168.206 Y68.965 E1.77091
G1 X169.496 Y70.349 E1.83384
G1 X169.863 Y70.758 E1.85212
G1 X171.046 Y72.116 E1.91202
G1 X171.397 Y72.535 E1.9302
G1 X172.625 Y74.047 E1.99499
G1 X172.91 Y74.414 E2.01044
G1 X174.01 Y75.867 E2.07105
G1 X174.369 Y76.358 E2.09128
G1 X175.436 Y77.873 E2.15292
G1 X175.732 Y78.313 E2.17055
G1 X176.729 Y79.833 E2.23102
G1 X177.06 Y80.36 E2.25171
G1 X177.962 Y81.846 E2.30953
G1 X178.269 Y82.373 E2.32982
G1 X179.18 Y83.997 E2.39175
G1 X179.432 Y84.466 E2.40946
G1 X180.281 Y86.109 E2.47097
G1 X180.523 Y86.599 E2.48914
G1 X181.324 Y88.286 E2.55126
G1 X181.53 Y88.746 E2.56802
G1 X182.29 Y90.496 E2.63148
G1 X182.488 Y90.979 E2.64884
G1 X183.165 Y92.698 E2.71029
G1 X183.343 Y93.181 E2.72741
G1 X184.078 Y95.265 E2.80091
G1 X184.136 Y95.445 E2.8072
G1 X184.714 Y97.271 E2.8709
G1 X184.854 Y97.748 E2.88744
G1 X185.365 Y99.578 E2.95063
G1 X185.485 Y100.043 E2.9666
G1 X185.936 Y101.901 E3.0302
G1 X186.042 Y102.379 E3.04648
G1 X186.431 Y104.256 E3.11024
G1 X186.51 Y104.685 E3.12474
G1 X186.913 Y107.083 E3.20562
G1 X187.171 Y108.971 E3.269
G1 X187.232 Y109.495 E3.28655
G1 X187.422 Y111.352 E3.34863
G1 X187.46 Y111.823 E3.36435
G1 X187.59 Y113.726 E3.42779
G1 X187.618 Y114.308 E3.44717
G1 X187.685 Y116.622 E3.52417
G1 X187.683 Y118.569 E3.58892
G1 X187.673 Y119.04 E3.60459
G1 X187.609 Y120.916 E3.66702
G1 X187.578 Y121.457 E3.68505
G1 X187.431 Y123.524 E3.75397
G1 X187.403 Y123.846 E3.76472
G1 X187.214 Y125.669 E3.82568
G1 X187.145 Y126.228 E3.84441
G1 X186.87 Y128.199 E3.9106
G1 X186.819 Y128.525 E3.92158
G1 X186.389 Y130.951 E4.00352
G1 X186.011 Y132.768 E4.06525
G1 X185.894 Y133.28 E4.08272
G1 X185.316 Y135.602 E4.16231
G1 X184.812 Y137.399 E4.22438
G1 X184.655 Y137.918 E4.24242
G1 X184.081 Y139.724 E4.30544
G1 X183.922 Y140.191 E4.32185
G1 X183.287 Y141.973 E4.38477
G1 X183.094 Y142.484 E4.40294
G1 X182.434 Y144.154 E4.46267
G1 X182.209 Y144.694 E4.48212
G1 X181.471 Y146.387 E4.54355
G1 X181.236 Y146.902 E4.56238
G1 X180.448 Y148.555 E4.62328
G1 X180.204 Y149.043 E4.64143
G1 X179.354 Y150.681 E4.70281
G1 X179.099 Y151.15 E4.72057
G1 X178.176 Y152.789 E4.78313
G1 X177.878 Y153.295 E4.80266
G1 X176.973 Y154.78 E4.8605
G1 X176.627 Y155.325 E4.88197
G1 X175.645 Y156.82 E4.94146
G1 X175.323 Y157.29 E4.96041
G1 X174.263 Y158.79 E5.0215
G1 X173.917 Y159.259 E5.04089
G1 X172.797 Y160.733 E5.10246
G1 X172.511 Y161.094 E5.11778
G1 X171.28 Y162.605 E5.1826
G1 X170.933 Y163.014 E5.20044
G1 X169.766 Y164.351 E5.25947
G1 X169.377 Y164.782 E5.27878
G1 X168.063 Y166.185 E5.34271
G1 X167.731 Y166.525 E5.35852
G1 X166.035 Y168.206 E5.43794
G1 X164.651 Y169.496 E5.50087
G1 X164.242 Y169.863 E5.51914
G1 X162.884 Y171.046 E5.57904
G1 X162.465 Y171.397 E5.59722
G1 X160.953 Y172.625 E5.66201
G1 X160.586 Y172.91 E5.67747
G1 X159.133 Y174.01 E5.73808
G1 X158.642 Y174.369 E5.75831
G1 X157.127 Y175.436 E5.81994
G1 X156.687 Y175.732 E5.83758
G1 X155.167 Y176.729 E5.89804
G1 X154.64 Y177.06 E5.91874
G1 X153.154 Y177.962 E5.97656
G1 X152.627 Y178.269 E5.99684
G1 X151.003 Y179.18 E6.05877
G1 X150.534 Y179.432 E6.07648
G1 X148.891 Y180.281 E6.13799
G1 X148.398 Y180.524 E6.15627
G1 X146.723 Y181.319 E6.21794
G1 X146.254 Y181.53 E6.23505
G1 X144.504 Y182.29 E6.2985
G1 X144.021 Y182.488 E6.31586
G1 X142.302 Y183.165 E6.37731
G1 X141.819 Y183.343 E6.39443
G1 X140.027 Y183.979 E6.45768
G1 X139.556 Y184.136 E6.47419
G1 X137.729 Y184.714 E6.53793
G1 X137.25 Y184.854 E6.55452
G1 X135.429 Y185.363 E6.61741
G1 X134.957 Y185.485 E6.63363
G1 X133.099 Y185.936 E6.69722
G1 X132.621 Y186.042 E6.7135
G1 X130.744 Y186.431 E6.77726
G1 X130.315 Y186.51 E6.79177
G1 X128.324 Y186.852 E6.85896
G1 X127.917 Y186.913 E6.87265
G1 X126.029 Y187.171 E6.93603
G1 X125.505 Y187.232 E6.95357
G1 X123.65 Y187.422 E7.01559
G1 X123.177 Y187.46 E7.03137
G1 X121.274 Y187.59 E7.09482
G1 X120.692 Y187.618 E7.1142
G1 X118.378 Y187.685 E7.19119
G1 X116.431 Y187.683 E7.25595
G1 X115.96 Y187.673 E7.27162
G1 X114.084 Y187.609 E7.33405
G1 X113.543 Y187.578 E7.35207
G1 X111.476 Y187.431 E7.421
G1 X111.154 Y187.403 E7.43175
G1 X109.331 Y187.214 E7.49271
G1 X108.772 Y187.145 E7.51144
G1 X106.801 Y186.87 E7.57763
G1 X106.475 Y186.819 E7.5886
G1 X104.049 Y186.389 E7.67055
G1 X102.232 Y186.011 E7.73228
G1 X101.72 Y185.894 E7.74975
G1 X99.398 Y185.316 E7.82933
G1 X97.601 Y184.812 E7.89141
G1 X97.082 Y184.655 E7.90944
G1 X95.276 Y184.081 E7.97247
G1 X94.809 Y183.922 E7.98888
G1 X93.027 Y183.287 E8.0518
G1 X92.516 Y183.094 E8.06997
G1 X90.846 Y182.434 E8.12969
G1 X90.306 Y182.209 E8.14915
G1 X88.613 Y181.471 E8.21058
G1 X88.098 Y181.236 E8.2294
G1 X86.445 Y180.448 E8.29031
G1 X85.957 Y180.204 E8.30846
G1 X84.319 Y179.354 E8.36984
G1 X83.848 Y179.098 E8.38767
G1 X82.217 Y178.18 E8.44992
G1 X81.705 Y177.878 E8.46969
G1 X80.22 Y176.973 E8.52753
G1 X79.675 Y176.627 E8.549
G1 X78.18 Y175.645 E8.60849
G1 X77.709 Y175.322 E8.62749
G1 X76.214 Y174.265 E8.68838
G1 X75.741 Y173.917 E8.70791
G1 X74.267 Y172.797 E8.76949
G1 X73.906 Y172.511 E8.7848
G1 X72.395 Y171.28 E8.84963
G1 X71.986 Y170.933 E8.86747
G1 X70.649 Y169.766 E8.92649
G1 X70.218 Y169.377 E8.9458
G1 X68.814 Y168.063 E9.00976
G1 X68.474 Y167.73 E9.02559
G1 X66.794 Y166.035 E9.10497
G1 X65.501 Y164.649 E9.16801
G1 X65.137 Y164.242 E9.18617
G1 X63.954 Y162.884 E9.24607
G1 X63.603 Y162.465 E9.26425
G1 X62.375 Y160.953 E9.32904
G1 X62.09 Y160.586 E9.34449
G1 X60.99 Y159.133 E9.40511
G1 X60.631 Y158.642 E9.42534
G1 X59.568 Y157.133 E9.48673
G1 X59.266 Y156.684 E9.50473
G1 X58.271 Y155.167 E9.56507
G1 X57.94 Y154.64 E9.58577
G1 X57.038 Y153.154 E9.64358
G1 X56.731 Y152.627 E9.66387
G1 X55.825 Y151.013 E9.72543
G1 X55.566 Y150.53 E9.74366
G1 X54.719 Y148.891 E9.80502
G1 X54.476 Y148.398 E9.8233
G1 X53.681 Y146.723 E9.88497
G1 X53.47 Y146.254 E9.90207
G1 X52.71 Y144.504 E9.96553
G1 X52.512 Y144.021 E9.98289
G1 X51.835 Y142.302 E10.04434
G1 X51.657 Y141.819 E10.06146
G1 X51.021 Y140.027 E10.12471
G1 X50.864 Y139.556 E10.14122
G1 X50.286 Y137.729 E10.20495
G1 X50.146 Y137.25 E10.22155
G1 X49.637 Y135.429 E10.28444
G1 X49.515 Y134.957 E10.30066
G1 X49.064 Y133.099 E10.36425
G1 X48.958 Y132.621 E10.38053
G1 X48.569 Y130.744 E10.44429
G1 X48.49 Y130.315 E10.4588
G1 X48.148 Y128.324 E10.52599
G1 X48.087 Y127.917 E10.53967
G1 X47.829 Y126.029 E10.60305
G1 X47.768 Y125.505 E10.6206
G1 X47.578 Y123.65 E10.68262
G1 X47.54 Y123.177 E10.6984
G1 X47.41 Y121.274 E10.76184
G1 X47.382 Y120.692 E10.78122
G1 X47.315 Y118.378 E10.85822
G1 X47.317 Y116.431 E10.92298
G1 X47.327 Y115.96 E10.93865
G1 X47.391 Y114.084 E11.00108
G1 X47.422 Y113.543 E11.0191
G1 X47.569 Y111.476 E11.08802
G1 X47.597 Y111.154 E11.09877
G1 X47.786 Y109.331 E11.15973
G1 X47.855 Y108.772 E11.17847
G1 X48.13 Y106.801 E11.24466
G1 X48.181 Y106.475 E11.25563
G1 X48.611 Y104.049 E11.33758
G1 X48.989 Y102.232 E11.39931
G1 X49.106 Y101.72 E11.41677
G1 X49.684 Y99.398 E11.49636
G1 X50.188 Y97.601 E11.55844
G1 X50.345 Y97.082 E11.57647
G1 X50.919 Y95.276 E11.6395
G1 X51.078 Y94.809 E11.65591
G1 X51.713 Y93.027 E11.71883
G1 X51.906 Y92.516 E11.737
G1 X52.566 Y90.846 E11.79672
G1 X52.791 Y90.306 E11.81618
G1 X53.529 Y88.613 E11.8776
G1 X53.764 Y88.098 E11.89643
G1 X54.552 Y86.445 E11.95734
G1 X54.796 Y85.957 E11.97549
G1 X55.646 Y84.319 E12.03686
G1 X55.901 Y83.85 E12.05462
G1 X56.824 Y82.211 E12.11718
G1 X57.122 Y81.705 E12.13671
G1 X58.027 Y80.22 E12.19455
G1 X58.373 Y79.675 E12.21603
G1 X59.355 Y78.18 E12.27552
G1 X59.677 Y77.71 E12.29447
G1 X60.737 Y76.21 E12.35556
G1 X61.083 Y75.741 E12.37494
G1 X62.203 Y74.267 E12.43651
G1 X62.489 Y73.906 E12.45183
G1 X63.72 Y72.395 E12.51665
G1 X64.067 Y71.986 E12.53449
G1 X65.234 Y70.649 E12.59352
G1 X65.623 Y70.218 E12.61283
G1 X66.937 Y68.815 E12.67676
G1 X67.269 Y68.475 E12.69257
G1 X68.965 Y66.794 E12.77199
G1 X70.349 Y65.504 E12.83492
G1 X70.758 Y65.137 E12.8532
G1 X72.116 Y63.954 E12.9131
G1 X72.535 Y63.603 E12.93128
G1 X74.047 Y62.375 E12.99606
G1 X74.414 Y62.09 E13.01152
G1 X75.867 Y60.99 E13.07213
G1 X76.358 Y60.631 E13.09236
G1 X77.873 Y59.564 E13.154
G1 X78.313 Y59.268 E13.17163
G1 X79.833 Y58.271 E13.23209
G1 X80.36 Y57.94 E13.25279
G1 X81.846 Y57.038 E13.31061
G1 X82.373 Y56.731 E13.33089
G1 X83.997 Y55.82 E13.39283
G1 X84.466 Y55.568 E13.41054
G1 X86.109 Y54.719 E13.47205
G1 X86.602 Y54.476 E13.49033
G1 X88.277 Y53.681 E13.552
G1 X88.746 Y53.47 E13.5691
G1 X90.496 Y52.71 E13.63256
G1 X90.979 Y52.512 E13.64992
G1 X92.698 Y51.835 E13.71137
G1 X93.181 Y51.657 E13.72849
G1 X94.973 Y51.021 E13.79173
G1 X95.444 Y50.864 E13.80825
G1 X97.271 Y50.286 E13.87198
G1 X97.75 Y50.146 E13.88858
G1 X99.571 Y49.637 E13.95147
G1 X100.043 Y49.515 E13.96768
G1 X101.901 Y49.064 E14.03127
G1 X102.379 Y48.958 E14.04756
G1 X104.256 Y48.569 E14.11131
G1 X104.685 Y48.49 E14.12582
G1 X106.676 Y48.148 E14.19301
G1 X107.083 Y48.087 E14.2067
G1 X108.971 Y47.829 E14.27008
G1 X109.495 Y47.768 E14.28763
G1 X111.35 Y47.578 E14.34965
G1 X111.823 Y47.54 E14.36543
G1 X113.726 Y47.41 E14.42887
G1 X114.308 Y47.382 E14.44825
G1 X116.622 Y47.315 E14.52525
G1 X118.568 Y47.317 E14.58997
G1 X120.916 Y47.391 E14.6681
G0 F6000 X119.054 Y46.927
G1 F1200 X120.937 Y46.992 E14.73077
G1 X121.485 Y47.023 E14.74903
G1 X123.553 Y47.17 E14.81798
G1 X123.888 Y47.199 E14.82917
G1 X125.716 Y47.389 E14.89029
G1 X126.284 Y47.459 E14.90933
G1 X128.593 Y47.786 E14.98689
G1 X131.033 Y48.219 E15.06931
G1 X133.375 Y48.718 E15.14896
G1 X135.224 Y49.17 E15.21227
G1 X135.71 Y49.298 E15.22898
G1 X138.039 Y49.963 E15.30954
G1 X139.852 Y50.54 E15.37282
G1 X140.325 Y50.701 E15.38944
G1 X142.113 Y51.338 E15.45257
G1 X142.63 Y51.534 E15.47096
G1 X144.306 Y52.196 E15.5309
G1 X144.853 Y52.424 E15.55061
G1 X146.552 Y53.164 E15.61224
G1 X147.074 Y53.403 E15.63134
G1 X148.733 Y54.194 E15.69247
G1 X149.227 Y54.441 E15.71084
G1 X150.87 Y55.294 E15.77241
G1 X151.348 Y55.553 E15.79049
G1 X152.985 Y56.475 E15.85298
G1 X153.503 Y56.78 E15.87297
G1 X154.993 Y57.688 E15.93101
G1 X155.545 Y58.038 E15.95275
G1 X157.044 Y59.025 E16.01244
G1 X157.52 Y59.35 E16.03161
G1 X159.026 Y60.415 E16.09296
G1 X159.501 Y60.764 E16.11256
G1 X160.981 Y61.889 E16.1744
G1 X161.346 Y62.179 E16.1899
G1 X162.863 Y63.414 E16.25496
G1 X163.277 Y63.765 E16.27302
G1 X164.618 Y64.936 E16.33223
G1 X165.055 Y65.331 E16.35182
G1 X166.464 Y66.65 E16.41602
G1 X166.808 Y66.987 E16.43203
G1 X168.498 Y68.692 E16.51188
G1 X169.793 Y70.081 E16.57504
G1 X170.165 Y70.495 E16.59355
G1 X171.352 Y71.859 E16.65369
G1 X171.707 Y72.283 E16.67208
G1 X172.939 Y73.8 E16.73708
G1 X173.229 Y74.172 E16.75277
G1 X174.332 Y75.63 E16.81358
G1 X174.696 Y76.128 E16.83409
G1 X175.767 Y77.649 E16.89597
G1 X176.067 Y78.094 E16.91382
G1 X177.068 Y79.62 E16.97452
G1 X177.402 Y80.152 E16.99541
G1 X178.307 Y81.644 E17.05345
G1 X178.618 Y82.177 E17.07397
G1 X179.532 Y83.807 E17.13613
G1 X179.787 Y84.282 E17.15406
G1 X180.639 Y85.931 E17.21579
G1 X180.884 Y86.427 E17.23419
G1 X181.689 Y88.122 E17.29661
G1 X181.897 Y88.587 E17.31355
G1 X182.66 Y90.344 E17.37726
G1 X182.86 Y90.832 E17.3948
G1 X183.539 Y92.558 E17.45649
G1 X183.72 Y93.047 E17.47383
G1 X184.518 Y95.324 E17.55408
G1 X185.097 Y97.158 E17.61805
G1 X185.239 Y97.64 E17.63476
G1 X185.752 Y99.477 E17.6982
G1 X185.874 Y99.948 E17.71438
G1 X186.326 Y101.813 E17.77821
G1 X186.434 Y102.297 E17.7947
G1 X186.824 Y104.182 E17.85872
G1 X186.905 Y104.617 E17.87344
G1 X187.309 Y107.028 E17.95475
G1 X187.568 Y108.924 E18.01839
G1 X187.63 Y109.454 E18.03614
G1 X187.82 Y111.319 E18.09849
G1 X187.859 Y111.795 E18.11438
G1 X187.989 Y113.705 E18.17805
G1 X188.018 Y114.296 E18.19773
G1 X188.08 Y116.293 E18.26419
G1 X188.085 Y116.622 E18.27513
G1 X188.083 Y118.576 E18.34012
G1 X188.073 Y119.053 E18.35599
G1 X188.008 Y120.937 E18.41869
G1 X187.977 Y121.485 E18.43694
G1 X187.83 Y123.552 E18.50587
G1 X187.801 Y123.887 E18.51705
G1 X187.611 Y125.716 E18.57821
G1 X187.541 Y126.284 E18.59724
G1 X187.214 Y128.593 E18.67481
G1 X186.781 Y131.033 E18.75723
G1 X186.282 Y133.375 E18.83687
G1 X185.83 Y135.224 E18.90018
G1 X185.702 Y135.71 E18.9169
G1 X185.037 Y138.039 E18.99746
G1 X184.46 Y139.852 E19.06074
G1 X184.299 Y140.325 E19.07736
G1 X183.662 Y142.113 E19.14049
G1 X183.466 Y142.63 E19.15888
G1 X182.804 Y144.306 E19.21881
G1 X182.576 Y144.853 E19.23852
G1 X181.836 Y146.552 E19.30016
G1 X181.597 Y147.074 E19.31925
G1 X180.806 Y148.733 E19.38038
G1 X180.559 Y149.227 E19.39875
G1 X179.706 Y150.87 E19.46033
G1 X179.448 Y151.346 E19.47833
G1 X178.521 Y152.991 E19.54114
G1 X178.22 Y153.503 E19.56089
G1 X177.312 Y154.993 E19.61892
G1 X176.962 Y155.545 E19.64066
G1 X175.975 Y157.044 E19.70036
G1 X175.65 Y157.52 E19.71953
G1 X174.585 Y159.026 E19.78088
G1 X174.236 Y159.501 E19.80048
G1 X173.111 Y160.981 E19.86231
G1 X172.821 Y161.346 E19.87782
G1 X171.586 Y162.863 E19.94288
G1 X171.235 Y163.277 E19.96093
G1 X170.064 Y164.618 E20.02015
G1 X169.669 Y165.055 E20.03974
G1 X168.35 Y166.464 E20.10393
G1 X168.013 Y166.808 E20.11995
G1 X166.308 Y168.498 E20.19979
G1 X164.919 Y169.793 E20.26296
G1 X164.505 Y170.165 E20.28147
G1 X163.141 Y171.352 E20.34161
G1 X162.717 Y171.707 E20.36
G1 X161.2 Y172.939 E20.425
G1 X160.828 Y173.229 E20.44069
G1 X159.37 Y174.332 E20.50149
G1 X158.872 Y174.696 E20.52201
G1 X157.351 Y175.767 E20.58388
G1 X156.906 Y176.067 E20.60173
G1 X155.38 Y177.068 E20.66243
G1 X154.848 Y177.402 E20.68333
G1 X153.356 Y178.307 E20.74137
G1 X152.823 Y178.618 E20.76189
G1 X151.193 Y179.532 E20.82405
G1 X150.718 Y179.787 E20.84198
G1 X149.069 Y180.639 E20.90371
G1 X148.57 Y180.885 E20.92221
G1 X146.888 Y181.684 E20.98415
G1 X146.413 Y181.897 E21.00146
G1 X144.656 Y182.66 E21.06517
G1 X144.168 Y182.86 E21.08272
G1 X142.442 Y183.539 E21.1444
G1 X141.953 Y183.72 E21.16175
G1 X140.155 Y184.358 E21.2252
G1 X139.677 Y184.517 E21.24196
G1 X137.842 Y185.097 E21.30597
G1 X137.358 Y185.24 E21.32275
G1 X135.53 Y185.75 E21.38587
G1 X135.052 Y185.874 E21.4023
G1 X133.187 Y186.326 E21.46612
G1 X132.703 Y186.434 E21.48262
G1 X130.818 Y186.824 E21.54664
G1 X130.383 Y186.905 E21.56136
G1 X127.972 Y187.309 E21.64267
