;FLAVOR:Marlin
;TIME:17398
;Filament used: 13.6339m
;Layer height: 0.2
;MINX:41.715
;MINY:41.715
;MINZ:0.2
;MAXX:190.142
;MAXY:190.146
;MAXZ:40
;Generated with Cura_SteamEngine 4.6.1
M140 S60
M105
M190 S60
M104 S200
M105
M109 S200
M82 ;absolute extrusion mode
; Ender 3 Custom Start G-code
G92 E0 ; Reset Extruder
G28 ; Home all axes
G1 Z2.0 F3000 ; Move Z Axis up little to prevent scratching of Heat Bed
G1 X0.1 Y20 Z0.3 F5000.0 ; Move to start position
G1 X0.1 Y200.0 Z0.3 F1500.0 E15 ; Draw the first line
G1 X0.4 Y200.0 Z0.3 F5000.0 ; Move to side a little
G1 X0.4 Y20 Z0.3 F1500.0 E30 ; Draw the second line
G92 E0 ; Reset Extruder
G1 Z2.0 F3000 ; Move Z Axis up little to prevent scratching of Heat Bed
G1 X5 Y20 Z0.3 F5000.0 ; Move over to prevent blob squish
G92 E0
G92 E0
G1 F1500 E-6.5
;LAYER_COUNT:200
;LAYER:0
M107
G0 F6000 X75.032 Y42.584 Z0.2
;TYPE:SKIRT
G1 F1500 E0
G1 F1200 X75.385 Y42.62 E0.0118
G1 X75.684 Y42.655 E0.02181
G1 X76.298 Y42.736 E0.04241
G1 X76.872 Y42.826 E0.06174
G1 X77.289 Y42.905 E0.07585
G1 X77.746 Y43.002 E0.09139
G1 X78.359 Y43.148 E0.11235
G1 X78.781 Y43.263 E0.1269
G1 X79.199 Y43.386 E0.14139
G1 X79.616 Y43.518 E0.15594
G1 X79.944 Y43.63 E0.16747
G1 X80.296 Y43.758 E0.17992
G1 X80.779 Y43.943 E0.19713
G1 X81.223 Y44.125 E0.21309
G1 X81.513 Y44.252 E0.22362
G1 X81.899 Y44.43 E0.23775
G1 X82.468 Y44.708 E0.25882
G1 X83.058 Y45.021 E0.28103
G1 X83.589 Y45.325 E0.30138
G1 X83.941 Y45.536 E0.31503
G1 X84.169 Y45.679 E0.32398
G1 X84.537 Y45.921 E0.33863
G1 X84.952 Y46.207 E0.3554
G1 X85.395 Y46.53 E0.37363
G1 X85.662 Y46.736 E0.38485
G1 X86.148 Y47.136 E0.40578
G1 X87.061 Y47.935 E0.44613
G1 X87.334 Y48.182 E0.45838
G1 X87.926 Y48.739 E0.48541
G1 X88.149 Y48.956 E0.49576
G1 X146.942 Y107.755 E3.26135
G1 X147.041 Y107.855 E3.26603
G1 X147.789 Y108.629 E3.30183
G1 X148.161 Y109.036 E3.32017
G1 X148.507 Y109.429 E3.33758
G1 X149.1 Y110.17 E3.36915
G1 X149.34 Y110.5 E3.38272
G1 X149.72 Y111.06 E3.40523
G1 X149.911 Y111.363 E3.41714
G1 X150.514 Y112.464 E3.45889
G1 X150.881 Y113.245 E3.4876
G1 X151.057 Y113.643 E3.50207
G1 X151.441 Y114.563 E3.53523
G1 X151.814 Y115.493 E3.56855
G1 X152.827 Y117.826 E3.65315
G1 X153.908 Y120.13 E3.7378
G1 X155.043 Y122.385 E3.82176
G1 X156.262 Y124.643 E3.90711
G1 X157.523 Y126.83 E3.99107
G1 X158.874 Y129.027 E4.07686
G1 X160.234 Y131.106 E4.15949
G1 X161.698 Y133.208 E4.24468
G1 X163.195 Y135.234 E4.32847
G1 X164.788 Y137.269 E4.41442
G1 X166.39 Y139.197 E4.4978
G1 X168.078 Y141.118 E4.58285
G1 X169.806 Y142.976 E4.66725
G1 X171.253 Y144.455 E4.73606
G1 X184.527 Y157.729 E5.36043
G1 X185.296 Y158.485 E5.3963
G1 X186.463 Y159.679 E5.45183
G1 X187.063 Y160.354 E5.48187
G1 X187.601 Y161.08 E5.51192
G1 X188.072 Y161.85 E5.54194
G1 X188.474 Y162.659 E5.57199
G1 X188.802 Y163.5 E5.60201
G1 X189.055 Y164.367 E5.63205
G1 X189.23 Y165.253 E5.66209
G1 X189.336 Y166.357 E5.69898
G1 X189.343 Y166.524 E5.70454
G1 X189.341 Y167.427 E5.73457
G1 X189.259 Y168.326 E5.7646
G1 X189.098 Y169.215 E5.79465
G1 X188.858 Y170.086 E5.8247
G1 X188.543 Y170.932 E5.85472
G1 X188.154 Y171.747 E5.88476
G1 X187.695 Y172.525 E5.9148
G1 X187.168 Y173.258 E5.94483
G1 X186.51 Y174.015 E5.97819
G1 X186.001 Y174.542 E6.00256
G1 X174.515 Y186.019 E6.54261
G1 X174.071 Y186.45 E6.56319
G1 X173.395 Y187.05 E6.59326
G1 X172.67 Y187.587 E6.62326
G1 X171.899 Y188.059 E6.65333
G1 X171.09 Y188.46 E6.68336
G1 X170.249 Y188.788 E6.71339
G1 X169.382 Y189.041 E6.74343
G1 X168.131 Y189.264 E6.78569
G1 X167.957 Y189.284 E6.79152
G1 X167.056 Y189.348 E6.82156
G1 X166.153 Y189.331 E6.8516
G1 X165.255 Y189.235 E6.88164
G1 X164.369 Y189.059 E6.91168
G1 X163.502 Y188.806 E6.94172
G1 X162.661 Y188.477 E6.97176
G1 X161.852 Y188.075 E7.0018
G1 X161.082 Y187.603 E7.03184
G1 X160.357 Y187.065 E7.06187
G1 X159.719 Y186.5 E7.09021
G1 X159.177 Y185.976 E7.11529
G1 X157.607 Y184.405 E7.18916
G1 X144.49 Y171.289 E7.80612
G1 X142.589 Y169.441 E7.8943
G1 X140.721 Y167.725 E7.97866
G1 X138.825 Y166.081 E8.06213
G1 X136.838 Y164.452 E8.14759
G1 X134.842 Y162.909 E8.2315
G1 X132.783 Y161.409 E8.31623
G1 X130.684 Y159.968 E8.40091
G1 X128.567 Y158.601 E8.48472
G1 X126.382 Y157.277 E8.5697
G1 X124.164 Y156.017 E8.65454
G1 X121.946 Y154.838 E8.73809
G1 X119.654 Y153.701 E8.82318
G1 X117.377 Y152.653 E8.90655
G1 X114.579 Y151.465 E9.00766
G1 X113.51 Y151.031 E9.04603
G1 X113.006 Y150.813 E9.0643
G1 X112.139 Y150.381 E9.09651
G1 X111.667 Y150.117 E9.1145
G1 X110.782 Y149.561 E9.14926
G1 X110.449 Y149.327 E9.1628
G1 X109.861 Y148.881 E9.18735
G1 X109.621 Y148.685 E9.19765
G1 X109.234 Y148.352 E9.21463
G1 X108.995 Y148.136 E9.22535
G1 X108.596 Y147.756 E9.24367
G1 X108.168 Y147.325 E9.26388
G1 X48.902 Y88.084 E12.05098
G1 X48.805 Y87.986 E12.05557
G1 X48.137 Y87.3 E12.08741
G1 X47.808 Y86.945 E12.10351
G1 X47.311 Y86.379 E12.12856
G1 X47.151 Y86.189 E12.13682
G1 X46.85 Y85.814 E12.15282
G1 X46.483 Y85.334 E12.17292
G1 X46.142 Y84.86 E12.19234
G1 X45.955 Y84.584 E12.20342
G1 X45.636 Y84.084 E12.22315
G1 X45.095 Y83.176 E12.25831
G1 X44.748 Y82.543 E12.28231
G1 X44.539 Y82.128 E12.29777
G1 X44.334 Y81.695 E12.3137
G1 X44.181 Y81.352 E12.3262
G1 X43.942 Y80.768 E12.34718
G1 X43.661 Y80.006 E12.3742
G1 X43.453 Y79.391 E12.39579
G1 X43.379 Y79.156 E12.40398
G1 X43.249 Y78.708 E12.4195
G1 X43.132 Y78.267 E12.43467
G1 X42.99 Y77.67 E12.45508
G1 X42.913 Y77.294 E12.46785
G1 X42.842 Y76.914 E12.48071
G1 X42.742 Y76.265 E12.50255
G1 X42.636 Y75.388 E12.53193
G1 X42.581 Y74.794 E12.55177
G1 X42.53 Y73.97 E12.57923
G1 X42.515 Y73.071 E12.60913
G1 X42.527 Y72.616 E12.62427
G1 X42.566 Y71.951 E12.64643
G1 X42.65 Y71.038 E12.67692
G1 X42.689 Y70.68 E12.6889
G1 X42.736 Y70.312 E12.70124
G1 X42.814 Y69.806 E12.71827
G1 X42.911 Y69.289 E12.73576
G1 X42.981 Y68.954 E12.74715
G1 X43.094 Y68.468 E12.76374
G1 X43.193 Y68.088 E12.7768
G1 X43.29 Y67.742 E12.78875
G1 X43.567 Y66.849 E12.81985
G1 X43.732 Y66.385 E12.83623
G1 X43.926 Y65.878 E12.85429
G1 X44.124 Y65.397 E12.87159
G1 X44.281 Y65.042 E12.8845
G1 X44.445 Y64.689 E12.89744
G1 X44.75 Y64.065 E12.92054
G1 X45.086 Y63.435 E12.94429
G1 X45.369 Y62.946 E12.96308
G1 X45.574 Y62.607 E12.97626
G1 X45.725 Y62.368 E12.98566
G1 X45.963 Y62.008 E13.00002
G1 X46.238 Y61.611 E13.01608
G1 X46.574 Y61.149 E13.03508
G1 X46.841 Y60.804 E13.04959
G1 X47.181 Y60.384 E13.06756
G1 X47.555 Y59.948 E13.08667
G1 X48.081 Y59.375 E13.11254
G1 X49.279 Y58.136 E13.16986
G1 X58.464 Y48.954 E13.60182
G1 X59.146 Y48.292 E13.63344
G1 X59.464 Y47.996 E13.64789
G1 X60.278 Y47.276 E13.68403
G1 X60.463 Y47.121 E13.69206
G1 X60.803 Y46.849 E13.70654
G1 X61.47 Y46.342 E13.73441
G1 X61.655 Y46.208 E13.742
G1 X62.032 Y45.948 E13.75724
G1 X62.374 Y45.723 E13.77085
G1 X62.924 Y45.385 E13.79232
G1 X63.525 Y45.042 E13.81534
G1 X64.11 Y44.733 E13.83734
G1 X64.844 Y44.375 E13.86451
G1 X65.611 Y44.039 E13.89236
G1 X66.155 Y43.827 E13.91178
G1 X66.72 Y43.624 E13.93174
G1 X67.036 Y43.519 E13.94282
G1 X67.736 Y43.301 E13.9672
G1 X68.463 Y43.104 E13.99226
G1 X69.062 Y42.965 E14.01271
G1 X69.519 Y42.87 E14.02823
G1 X69.888 Y42.802 E14.04071
G1 X70.401 Y42.721 E14.05799
G1 X70.787 Y42.67 E14.07094
G1 X71.401 Y42.608 E14.09146
G1 X72.373 Y42.539 E14.12387
G1 X73.299 Y42.515 E14.15468
G1 X74.201 Y42.533 E14.18469
G1 X75.032 Y42.584 E14.21238
G0 F6000 X75.072 Y42.186
G1 F1200 X75.425 Y42.222 E14.22418
G1 X75.736 Y42.258 E14.23459
G1 X76.35 Y42.339 E14.25519
G1 X76.938 Y42.431 E14.27499
G1 X77.372 Y42.514 E14.28968
G1 X77.829 Y42.611 E14.30522
G1 X78.455 Y42.76 E14.32663
G1 X78.894 Y42.879 E14.34175
G1 X79.312 Y43.002 E14.35625
G1 X79.745 Y43.14 E14.37136
G1 X80.073 Y43.252 E14.38289
G1 X80.439 Y43.384 E14.39583
G1 X80.922 Y43.569 E14.41303
G1 X81.383 Y43.758 E14.4296
G1 X81.673 Y43.885 E14.44013
G1 X82.074 Y44.071 E14.45484
G1 X82.643 Y44.349 E14.4759
G1 X83.257 Y44.674 E14.499
G1 X83.788 Y44.978 E14.51936
G1 X84.153 Y45.197 E14.53351
G1 X84.381 Y45.34 E14.54246
G1 X84.764 Y45.592 E14.55771
G1 X85.179 Y45.878 E14.57448
G1 X85.639 Y46.214 E14.59342
G1 X85.906 Y46.42 E14.60464
G1 X86.412 Y46.835 E14.62641
G1 X87.325 Y47.634 E14.66676
G1 X87.608 Y47.891 E14.67947
G1 X88.432 Y48.673 E14.71726
G1 X147.225 Y107.472 E17.48284
G1 X147.328 Y107.576 E17.48771
G1 X148.083 Y108.358 E17.52386
G1 X148.461 Y108.772 E17.54251
G1 X148.807 Y109.165 E17.55992
G1 X149.424 Y109.934 E17.59271
G1 X149.664 Y110.264 E17.60629
G1 X150.058 Y110.846 E17.62966
G1 X150.249 Y111.149 E17.64158
G1 X150.876 Y112.294 E17.68499
G1 X151.243 Y113.075 E17.7137
G1 X151.426 Y113.488 E17.72872
G1 X151.813 Y114.414 E17.7621
G1 X152.194 Y115.363 E17.79611
G1 X153.192 Y117.662 E17.87947
G1 X154.277 Y119.974 E17.96442
G1 X155.387 Y122.18 E18.04655
G1 X156.617 Y124.46 E18.13272
G1 X157.867 Y126.626 E18.21589
G1 X159.201 Y128.795 E18.30059
G1 X160.57 Y130.888 E18.38377
G1 X162.027 Y132.981 E18.46859
G1 X163.533 Y135.018 E18.55285
G1 X165.064 Y136.974 E18.63546
G1 X166.697 Y138.941 E18.72049
G1 X168.373 Y140.847 E18.80491
G1 X170.102 Y142.706 E18.88935
G1 X171.539 Y144.175 E18.9577
G1 X184.847 Y157.483 E19.58366
G1 X185.583 Y158.206 E19.61798
G1 X186.75 Y159.4 E19.67351
G1 X187.362 Y160.088 E19.70414
G1 X187.912 Y160.826 E19.73475
G1 X188.396 Y161.61 E19.76539
G1 X188.81 Y162.432 E19.79601
G1 X189.152 Y163.287 E19.82663
G1 X189.417 Y164.169 E19.85726
G1 X189.605 Y165.07 E19.88788
G1 X189.736 Y166.34 E19.93034
G1 X189.743 Y166.507 E19.9359
G1 X189.741 Y167.428 E19.96653
G1 X189.66 Y168.345 E19.99715
G1 X189.499 Y169.251 E20.02776
G1 X189.261 Y170.141 E20.0584
G1 X188.946 Y171.006 E20.08902
G1 X188.557 Y171.84 E20.11963
G1 X188.097 Y172.638 E20.15026
G1 X187.57 Y173.393 E20.18089
G1 X186.798 Y174.292 E20.2203
G1 X186.284 Y174.825 E20.24493
G1 X174.793 Y186.306 E20.78519
G1 X174.349 Y186.737 E20.80577
G1 X173.661 Y187.349 E20.8364
G1 X172.923 Y187.899 E20.86701
G1 X172.14 Y188.383 E20.89763
G1 X171.317 Y188.797 E20.92827
G1 X170.462 Y189.138 E20.95889
G1 X169.581 Y189.403 E20.98948
G1 X168.68 Y189.592 E21.0201
G1 X168.002 Y189.682 E21.04285
G1 X167.084 Y189.747 E21.07346
G1 X166.164 Y189.732 E21.10406
G1 X165.248 Y189.638 E21.13469
G1 X164.344 Y189.464 E21.16531
G1 X163.458 Y189.213 E21.19594
G1 X162.597 Y188.886 E21.22657
G1 X161.769 Y188.485 E21.25717
G1 X160.978 Y188.014 E21.28779
G1 X160.23 Y187.476 E21.31844
G1 X159.441 Y186.788 E21.35325
G1 X158.894 Y186.259 E21.37856
G1 X157.324 Y184.688 E21.45243
G1 X144.175 Y171.54 E22.0709
G1 X142.322 Y169.739 E22.15684
G1 X140.473 Y168.04 E22.24036
G1 X138.534 Y166.359 E22.32572
G1 X136.603 Y164.775 E22.40878
G1 X134.607 Y163.232 E22.4927
G1 X132.55 Y161.735 E22.57731
G1 X130.463 Y160.301 E22.66153
G1 X128.349 Y158.936 E22.74523
G1 X126.172 Y157.617 E22.82989
G1 X124.012 Y156.39 E22.91251
G1 X121.718 Y155.17 E22.99893
G1 X119.501 Y154.072 E23.08122
G1 X117.206 Y153.015 E23.16525
G1 X114.4 Y151.823 E23.26665
G1 X113.072 Y151.279 E23.31439
G1 X112.845 Y151.179 E23.32264
G1 X111.944 Y150.73 E23.35612
G1 X111.472 Y150.466 E23.37411
G1 X110.552 Y149.888 E23.41024
G1 X110.219 Y149.654 E23.42378
G1 X109.608 Y149.191 E23.44928
G1 X109.368 Y148.995 E23.45958
G1 X108.966 Y148.649 E23.47722
G1 X108.727 Y148.433 E23.48794
G1 X108.313 Y148.038 E23.50697
G1 X107.912 Y147.635 E23.52588
G1 X48.619 Y88.367 E26.31425
G1 X47.851 Y87.579 E26.35085
G1 X47.508 Y87.21 E26.36761
G1 X47.005 Y86.637 E26.39297
G1 X46.845 Y86.447 E26.40123
G1 X46.532 Y86.057 E26.41786
G1 X46.165 Y85.577 E26.43796
G1 X45.811 Y85.085 E26.45812
G1 X45.624 Y84.809 E26.4692
G1 X45.293 Y84.289 E26.48971
G1 X44.752 Y83.381 E26.52486
G1 X44.391 Y82.723 E26.54982
G1 X44.182 Y82.308 E26.56528
G1 X43.968 Y81.858 E26.58185
G1 X43.815 Y81.515 E26.59434
G1 X43.567 Y80.908 E26.61615
G1 X43.282 Y80.136 E26.64352
G1 X43.071 Y79.511 E26.66546
G1 X42.997 Y79.276 E26.67366
G1 X42.862 Y78.81 E26.68979
G1 X42.745 Y78.369 E26.70497
G1 X42.6 Y77.759 E26.72582
G1 X42.519 Y77.368 E26.7391
G1 X42.448 Y76.988 E26.75196
G1 X42.345 Y76.313 E26.77467
G1 X42.239 Y75.436 E26.80405
G1 X42.182 Y74.819 E26.82466
G1 X42.131 Y73.995 E26.85212
G1 X42.115 Y73.061 E26.88319
G1 X42.127 Y72.606 E26.89833
G1 X42.168 Y71.914 E26.92139
G1 X42.252 Y71.001 E26.95188
G1 X42.292 Y70.629 E26.96432
G1 X42.339 Y70.261 E26.97666
G1 X42.42 Y69.736 E26.99433
G1 X42.519 Y69.207 E27.01223
G1 X42.589 Y68.872 E27.02361
G1 X42.707 Y68.368 E27.04083
G1 X42.806 Y67.988 E27.05389
G1 X42.907 Y67.627 E27.06636
G1 X43.187 Y66.724 E27.0978
G1 X43.358 Y66.242 E27.11481
G1 X43.552 Y65.735 E27.13287
G1 X43.758 Y65.236 E27.15082
G1 X43.915 Y64.881 E27.16374
G1 X44.086 Y64.513 E27.17723
G1 X44.391 Y63.889 E27.20033
G1 X44.74 Y63.234 E27.22502
G1 X45.023 Y62.745 E27.24381
G1 X45.236 Y62.393 E27.25749
G1 X45.387 Y62.154 E27.2669
G1 X45.634 Y61.78 E27.2818
G1 X45.909 Y61.383 E27.29787
G1 X46.253 Y60.911 E27.31729
G1 X46.53 Y60.552 E27.33237
G1 X46.87 Y60.132 E27.35035
G1 X47.258 Y59.68 E27.37016
G1 X47.571 Y59.335 E27.38565
G1 X47.794 Y59.097 E27.3965
G1 X48.996 Y57.853 E27.45403
G1 X58.185 Y48.667 E27.88619
G1 X58.867 Y48.005 E27.9178
G1 X59.198 Y47.698 E27.93281
G1 X60.021 Y46.97 E27.96936
G1 X60.206 Y46.815 E27.97739
G1 X60.559 Y46.532 E27.99244
G1 X61.235 Y46.018 E28.02068
G1 X61.42 Y45.884 E28.02828
G1 X61.812 Y45.614 E28.04411
G1 X62.154 Y45.389 E28.05773
G1 X62.726 Y45.038 E28.08005
G1 X63.327 Y44.695 E28.10306
G1 X63.934 Y44.374 E28.1259
G1 X64.668 Y44.016 E28.15306
G1 X65.466 Y43.666 E28.18204
G1 X66.01 Y43.454 E28.20146
G1 X66.589 Y43.246 E28.22193
G1 X66.917 Y43.137 E28.23342
G1 X67.617 Y42.919 E28.25781
G1 X68.373 Y42.714 E28.28386
G1 X68.972 Y42.575 E28.30431
G1 X69.447 Y42.477 E28.32044
G1 X69.816 Y42.409 E28.33292
G1 X70.349 Y42.324 E28.35087
G1 X70.735 Y42.273 E28.36382
G1 X71.372 Y42.209 E28.38512
G1 X72.344 Y42.14 E28.41753
G1 X73.306 Y42.115 E28.44954
G1 X74.208 Y42.133 E28.47954
G1 X75.072 Y42.186 E28.50833
G0 F6000 X75.113 Y41.788
G1 F1200 X75.466 Y41.824 E28.52013
G1 X75.789 Y41.861 E28.53095
G1 X76.403 Y41.942 E28.55155
G1 X77.005 Y42.037 E28.57182
G1 X77.455 Y42.123 E28.58705
G1 X77.912 Y42.22 E28.60259
G1 X78.552 Y42.372 E28.62447
G1 X79.007 Y42.495 E28.64015
G1 X79.425 Y42.618 E28.65464
G1 X79.875 Y42.761 E28.67034
G1 X80.203 Y42.873 E28.68187
G1 X80.583 Y43.011 E28.69532
G1 X81.066 Y43.196 E28.71252
G1 X81.544 Y43.392 E28.7297
G1 X81.834 Y43.519 E28.74023
G1 X82.25 Y43.712 E28.75549
G1 X82.819 Y43.99 E28.77655
G1 X83.455 Y44.327 E28.80049
G1 X83.986 Y44.631 E28.82084
G1 X84.366 Y44.858 E28.83556
G1 X84.594 Y45.001 E28.84451
G1 X84.991 Y45.263 E28.86033
G1 X85.406 Y45.549 E28.8771
G1 X85.883 Y45.897 E28.89674
G1 X86.15 Y46.103 E28.90795
G1 X86.675 Y46.534 E28.93055
G1 X87.588 Y47.333 E28.9709
G1 X87.882 Y47.6 E28.98411
G1 X88.715 Y48.39 E29.02229
G1 X147.508 Y107.189 E31.78787
G1 X148.377 Y108.086 E31.82941
G1 X148.761 Y108.507 E31.84837
G1 X149.107 Y108.9 E31.86578
G1 X149.747 Y109.699 E31.89983
G1 X149.987 Y110.029 E31.9134
G1 X150.396 Y110.633 E31.93766
G1 X150.587 Y110.936 E31.94958
G1 X151.238 Y112.124 E31.99463
G1 X151.605 Y112.905 E32.02333
G1 X151.795 Y113.334 E32.03894
G1 X152.184 Y114.266 E32.07253
G1 X152.555 Y115.192 E32.10571
G1 X153.563 Y117.512 E32.18984
G1 X154.618 Y119.76 E32.27243
G1 X155.761 Y122.031 E32.35699
G1 X156.95 Y124.234 E32.44026
G1 X158.221 Y126.438 E32.52488
G1 X159.533 Y128.572 E32.6082
G1 X160.916 Y130.686 E32.69222
G1 X162.333 Y132.721 E32.7747
G1 X163.854 Y134.779 E32.85981
G1 X165.385 Y136.735 E32.94243
G1 X167.007 Y138.687 E33.02684
G1 X168.665 Y140.574 E33.11039
G1 X170.398 Y142.437 E33.19501
G1 X171.78 Y143.85 E33.26075
G1 X185.126 Y157.196 E33.88851
G1 X185.87 Y157.928 E33.92322
G1 X187.037 Y159.122 E33.97875
G1 X187.661 Y159.822 E34.00994
G1 X188.224 Y160.573 E34.04116
G1 X188.72 Y161.369 E34.07235
G1 X189.146 Y162.204 E34.10353
G1 X189.5 Y163.072 E34.13471
G1 X189.778 Y163.968 E34.16591
G1 X189.98 Y164.884 E34.19711
G1 X190.102 Y165.814 E34.22831
G1 X190.142 Y166.49 E34.25083
G1 X190.142 Y167.428 E34.28203
G1 X190.061 Y168.363 E34.31324
G1 X189.901 Y169.287 E34.34443
G1 X189.663 Y170.194 E34.37562
G1 X189.349 Y171.077 E34.40679
G1 X188.96 Y171.931 E34.438
G1 X188.5 Y172.748 E34.46919
