;FLAVOR:Marlin
;TIME:2015
;Filament used: 1.30554m
;Layer height: 0.2
;MINX:93
;MINY:86.5
;MINZ:0.2
;MAXX:142
;MAXY:148.5
;MAXZ:10
;Generated with Cura_SteamEngine 4.6.1
M140 S60
M105
M190 S60
M104 S200
M105
M109 S200
M82 ;absolute extrusion mode
; Ender 3 Custom Start G-code
G92 E0 ; Reset Extruder
G28 ; Home all axes
G1 Z2.0 F3000 ; Move Z Axis up little to prevent scratching of Heat Bed
G1 X0.1 Y20 Z0.3 F5000.0 ; Move to start position
G1 X0.1 Y200.0 Z0.3 F1500.0 E15 ; Draw the first line
G1 X0.4 Y200.0 Z0.3 F5000.0 ; Move to side a little
G1 X0.4 Y20 Z0.3 F1500.0 E30 ; Draw the second line
G92 E0 ; Reset Extruder
G1 Z2.0 F3000 ; Move Z Axis up little to prevent scratching of Heat Bed
G1 X5 Y20 Z0.3 F5000.0 ; Move over to prevent blob squish
G92 E0
G92 E0
G1 F1500 E-6.5
;LAYER_COUNT:50
;LAYER:0
M107
G0 F6000 X131.137 Y87.311 Z0.2
;TYPE:SKIRT
G1 F1500 E0
G1 F1200 X132.039 Y87.364 E0.03005
G1 X132.932 Y87.496 E0.06008
G1 X133.81 Y87.707 E0.09011
G1 X134.666 Y87.995 E0.12015
G1 X135.493 Y88.357 E0.15018
G1 X136.285 Y88.792 E0.18023
G1 X137.036 Y89.294 E0.21027
G1 X137.739 Y89.861 E0.24031
G1 X138.389 Y90.488 E0.27035
G1 X138.981 Y91.17 E0.30039
G1 X139.511 Y91.901 E0.33042
G1 X139.973 Y92.677 E0.36046
G1 X140.366 Y93.49 E0.39049
G1 X140.684 Y94.335 E0.42052
G1 X140.927 Y95.205 E0.45056
G1 X141.092 Y96.093 E0.4806
G1 X141.187 Y97.223 E0.51832
G1 X141.2 Y97.83 E0.53851
G1 X141.199 Y136.89 E1.83766
G1 X141.19 Y137.617 E1.86184
G1 X141.139 Y138.519 E1.89189
G1 X141.008 Y139.413 E1.92194
G1 X140.799 Y140.291 E1.95196
G1 X140.513 Y141.148 E1.98201
G1 X140.152 Y141.976 E2.01205
G1 X139.72 Y142.768 E2.04205
G1 X139.219 Y143.52 E2.07211
G1 X138.653 Y144.224 E2.10215
G1 X138.028 Y144.875 E2.13217
G1 X137.347 Y145.469 E2.16222
G1 X136.616 Y146 E2.19228
G1 X135.842 Y146.464 E2.22229
G1 X135.029 Y146.858 E2.25234
G1 X134.185 Y147.178 E2.28236
G1 X133.315 Y147.423 E2.31242
G1 X132.428 Y147.589 E2.34244
G1 X131.277 Y147.687 E2.38086
G1 X130.67 Y147.7 E2.40105
G1 X104.575 Y147.699 E3.26897
G1 X103.877 Y147.69 E3.29219
G1 X102.976 Y147.639 E3.32221
G1 X102.082 Y147.507 E3.35226
G1 X101.204 Y147.298 E3.38228
G1 X100.347 Y147.011 E3.41234
G1 X99.52 Y146.65 E3.44235
G1 X98.727 Y146.217 E3.47241
G1 X97.976 Y145.716 E3.50243
G1 X97.272 Y145.15 E3.53248
G1 X96.621 Y144.524 E3.56251
G1 X96.028 Y143.843 E3.59255
G1 X95.498 Y143.112 E3.62258
G1 X95.034 Y142.337 E3.65262
G1 X94.64 Y141.524 E3.68267
G1 X94.32 Y140.68 E3.71269
G1 X94.076 Y139.81 E3.74275
G1 X93.91 Y138.922 E3.77279
G1 X93.813 Y137.767 E3.81134
G1 X93.8 Y137.158 E3.8316
G1 X93.801 Y98.036 E5.13281
G1 X93.81 Y97.371 E5.15493
G1 X93.862 Y96.469 E5.18498
G1 X93.994 Y95.576 E5.215
G1 X94.204 Y94.698 E5.24503
G1 X94.491 Y93.841 E5.27509
G1 X94.853 Y93.014 E5.30511
G1 X95.286 Y92.222 E5.33513
G1 X95.788 Y91.471 E5.36518
G1 X96.355 Y90.767 E5.39524
G1 X96.981 Y90.117 E5.42526
G1 X97.662 Y89.524 E5.45529
G1 X98.394 Y88.994 E5.48535
G1 X99.169 Y88.531 E5.51538
G1 X99.982 Y88.138 E5.54541
G1 X100.827 Y87.818 E5.57546
G1 X101.696 Y87.575 E5.60548
G1 X102.584 Y87.409 E5.63552
G1 X103.723 Y87.313 E5.67354
G1 X104.33 Y87.3 E5.69373
G1 X130.439 Y87.301 E6.56212
G1 X131.137 Y87.311 E6.58534
G0 F6000 X131.143 Y86.911
G1 F1200 X132.062 Y86.964 E6.61596
G1 X132.973 Y87.097 E6.64658
G1 X133.869 Y87.308 E6.67719
G1 X134.743 Y87.596 E6.7078
G1 X135.59 Y87.959 E6.73845
G1 X136.401 Y88.394 E6.76906
G1 X137.171 Y88.898 E6.79967
G1 X137.895 Y89.467 E6.8303
G1 X138.567 Y90.097 E6.86093
G1 X139.182 Y90.782 E6.89155
G1 X139.735 Y91.518 E6.92217
G1 X140.222 Y92.299 E6.95278
G1 X140.639 Y93.12 E6.98341
G1 X140.984 Y93.974 E7.01404
G1 X141.253 Y94.854 E7.04465
G1 X141.445 Y95.755 E7.07529
G1 X141.558 Y96.668 E7.10589
G1 X141.587 Y97.212 E7.12401
G1 X141.6 Y97.83 E7.14457
G1 X141.599 Y136.895 E8.44387
G1 X141.59 Y137.622 E8.46806
G1 X141.539 Y138.541 E8.49867
G1 X141.408 Y139.453 E8.52931
G1 X141.198 Y140.349 E8.55992
G1 X140.912 Y141.224 E8.59054
G1 X140.551 Y142.071 E8.62116
G1 X140.117 Y142.883 E8.65179
G1 X139.615 Y143.655 E8.68241
G1 X139.047 Y144.38 E8.71305
G1 X138.419 Y145.053 E8.74366
G1 X137.735 Y145.669 E8.77428
G1 X137 Y146.223 E8.80489
G1 X136.22 Y146.712 E8.83551
G1 X135.4 Y147.131 E8.86614
G1 X134.547 Y147.477 E8.89676
G1 X133.667 Y147.748 E8.92738
G1 X132.767 Y147.941 E8.958
G1 X131.853 Y148.056 E8.98863
G1 X131.288 Y148.087 E9.00745
G1 X130.67 Y148.1 E9.02801
G1 X104.57 Y148.099 E9.8961
G1 X103.872 Y148.09 E9.91932
G1 X102.953 Y148.038 E9.94994
G1 X102.042 Y147.907 E9.98055
G1 X101.146 Y147.697 E10.01116
G1 X100.271 Y147.41 E10.04178
G1 X99.424 Y147.048 E10.07242
G1 X98.612 Y146.614 E10.10304
G1 X97.841 Y146.112 E10.13364
G1 X97.116 Y145.544 E10.16428
G1 X96.443 Y144.915 E10.19492
G1 X95.828 Y144.231 E10.22551
G1 X95.274 Y143.496 E10.25612
G1 X94.786 Y142.715 E10.28675
G1 X94.367 Y141.895 E10.31738
G1 X94.021 Y141.042 E10.348
G1 X93.751 Y140.162 E10.37861
G1 X93.558 Y139.261 E10.40926
G1 X93.444 Y138.348 E10.43986
G1 X93.413 Y137.777 E10.45888
G1 X93.4 Y137.158 E10.47947
G1 X93.401 Y98.031 E11.78084
G1 X93.41 Y97.366 E11.80296
G1 X93.462 Y96.446 E11.83361
G1 X93.594 Y95.535 E11.86423
G1 X93.805 Y94.639 E11.89484
G1 X94.092 Y93.764 E11.92547
G1 X94.455 Y92.918 E11.95609
G1 X94.889 Y92.106 E11.98671
G1 X95.392 Y91.335 E12.01733
G1 X95.961 Y90.611 E12.04796
G1 X96.589 Y89.939 E12.07855
G1 X97.274 Y89.323 E12.10919
G1 X98.01 Y88.77 E12.13981
G1 X98.791 Y88.282 E12.17044
G1 X99.611 Y87.864 E12.20105
G1 X100.465 Y87.519 E12.23169
G1 X101.345 Y87.249 E12.2623
G1 X102.245 Y87.057 E12.29291
G1 X103.159 Y86.943 E12.32354
G1 X103.712 Y86.913 E12.34196
G1 X104.33 Y86.9 E12.36252
G1 X130.445 Y86.901 E13.23111
G1 X131.143 Y86.911 E13.25433
G0 F6000 X131.149 Y86.511
G1 F1200 X132.085 Y86.565 E13.28551
G1 X133.013 Y86.697 E13.31669
G1 X133.927 Y86.909 E13.3479
G1 X134.819 Y87.198 E13.37908
G1 X135.684 Y87.561 E13.41028
G1 X136.514 Y87.997 E13.44147
G1 X137.305 Y88.502 E13.47268
G1 X138.049 Y89.073 E13.50387
G1 X138.742 Y89.705 E13.53507
G1 X139.379 Y90.393 E13.56625
G1 X139.954 Y91.134 E13.59745
G1 X140.465 Y91.92 E13.62863
G1 X140.907 Y92.748 E13.65985
G1 X141.276 Y93.61 E13.69103
G1 X141.571 Y94.5 E13.72222
G1 X141.789 Y95.412 E13.75341
G1 X141.929 Y96.34 E13.78462
G1 X141.987 Y97.201 E13.81332
G1 X142 Y97.83 E13.83425
G1 X141.999 Y136.9 E15.13372
G1 X141.99 Y137.627 E15.1579
G1 X141.939 Y138.564 E15.18912
G1 X141.807 Y139.492 E15.22029
G1 X141.598 Y140.406 E15.25148
G1 X141.311 Y141.299 E15.28267
G1 X140.949 Y142.165 E15.31389
G1 X140.515 Y142.996 E15.34507
G1 X140.011 Y143.787 E15.37627
G1 X139.442 Y144.532 E15.40745
G1 X138.811 Y145.227 E15.43867
G1 X138.124 Y145.865 E15.46985
G1 X137.385 Y146.442 E15.50104
G1 X136.599 Y146.954 E15.53224
G1 X135.773 Y147.397 E15.56341
G1 X134.911 Y147.769 E15.59464
G1 X134.022 Y148.065 E15.6258
G1 X133.11 Y148.285 E15.657
G1 X132.183 Y148.426 E15.68819
G1 X131.299 Y148.487 E15.71766
G1 X130.67 Y148.5 E15.73859
G1 X104.565 Y148.499 E16.60684
G1 X103.867 Y148.49 E16.63006
G1 X102.931 Y148.438 E16.66124
G1 X102.002 Y148.306 E16.69245
G1 X101.088 Y148.096 E16.72364
G1 X100.195 Y147.809 E16.75484
G1 X99.33 Y147.446 E16.78604
G1 X98.499 Y147.012 E16.81722
G1 X97.708 Y146.508 E16.84842
G1 X96.963 Y145.938 E16.87962
G1 X96.269 Y145.307 E16.91081
G1 X95.632 Y144.62 E16.94197
G1 X95.055 Y143.88 E16.97318
G1 X94.543 Y143.094 E17.00438
G1 X94.1 Y142.267 E17.03559
G1 X93.729 Y141.406 E17.06677
G1 X93.433 Y140.516 E17.09797
G1 X93.214 Y139.604 E17.12916
G1 X93.073 Y138.677 E17.16035
G1 X93.013 Y137.788 E17.18998
G1 X93 Y137.158 E17.21094
G1 X93.001 Y98.025 E18.51251
G1 X93.01 Y97.36 E18.53463
G1 X93.063 Y96.424 E18.56581
G1 X93.195 Y95.495 E18.59702
G1 X93.406 Y94.581 E18.62822
G1 X93.694 Y93.689 E18.6594
G1 X94.057 Y92.824 E18.6906
G1 X94.492 Y91.993 E18.7218
G1 X94.996 Y91.203 E18.75296
G1 X95.566 Y90.458 E18.78416
G1 X96.198 Y89.764 E18.81538
G1 X96.886 Y89.127 E18.84657
G1 X97.626 Y88.551 E18.87776
G1 X98.412 Y88.039 E18.90896
G1 X99.239 Y87.597 E18.94014
G1 X100.101 Y87.227 E18.97134
G1 X100.991 Y86.931 E19.00254
G1 X101.903 Y86.713 E19.03373
G1 X102.83 Y86.572 E19.06491
G1 X103.701 Y86.513 E19.09395
G1 X104.33 Y86.5 E19.11488
G1 X130.451 Y86.501 E19.98366
G1 X131.149 Y86.511 E20.00688
G1 F1500 E13.50688
G0 F6000 X124.339 Y106.644
G0 X124.31 Y106.89
G0 X122.544 Y112.302
G0 X122.312 Y112.638
G0 X116.95 Y128.5
G1 F1500 E20.00688
G1 F1200 X117.05 Y128.5 E20.01021
G1 X117.05 Y131.337 E20.10457
G1 X117.046 Y131.508 E20.11026
G1 X117.007 Y131.547 E20.11209
G1 X116.959 Y131.523 E20.11387
G1 X116.95 Y131.428 E20.11705
G1 X116.95 Y128.5 E20.21443
G0 F6000 X116.55 Y128.1
G1 F1200 X117.45 Y128.1 E20.24437
G1 X117.45 Y131.347 E20.35236
G1 X117.445 Y131.544 E20.35892
G1 X117.436 Y131.603 E20.3609
G1 X117.405 Y131.69 E20.36398
G1 X117.351 Y131.778 E20.36741
G1 X117.293 Y131.838 E20.37018
G1 X117.241 Y131.877 E20.37235
G1 X117.189 Y131.906 E20.37433
G1 X117.118 Y131.931 E20.37683
G1 X117.015 Y131.948 E20.3803
G1 X116.924 Y131.942 E20.38334
G1 X116.831 Y131.914 E20.38657
G1 X116.759 Y131.877 E20.38926
G1 X116.707 Y131.838 E20.39142
G1 X116.66 Y131.792 E20.39361
G1 X116.61 Y131.721 E20.3965
G1 X116.578 Y131.649 E20.39912
G1 X116.563 Y131.599 E20.40085
G1 X116.553 Y131.523 E20.4034
G1 X116.55 Y131.44 E20.40617
G1 X116.55 Y128.1 E20.51725
G0 F6000 X116.15 Y127.7
G1 F1200 X117.85 Y127.7 E20.5738
G1 X117.85 Y131.357 E20.69543
G1 X117.844 Y131.571 E20.70255
G1 X117.828 Y131.684 E20.70634
G1 X117.798 Y131.786 E20.70988
G1 X117.738 Y131.919 E20.71473
G1 X117.642 Y132.053 E20.72022
G1 X117.556 Y132.14 E20.72429
G1 X117.516 Y132.173 E20.72601
G1 X117.407 Y132.244 E20.73034
G1 X117.302 Y132.291 E20.73416
G1 X117.237 Y132.313 E20.73645
G1 X117.157 Y132.334 E20.7392
G1 X117 Y132.348 E20.74444
G1 X116.87 Y132.339 E20.74877
G1 X116.763 Y132.313 E20.75244
G1 X116.643 Y132.269 E20.75669
G1 X116.547 Y132.216 E20.76033
G1 X116.444 Y132.14 E20.76459
G1 X116.404 Y132.103 E20.7664
G1 X116.324 Y132.011 E20.77046
G1 X116.275 Y131.94 E20.77333
G1 X116.232 Y131.858 E20.77641
G1 X116.184 Y131.732 E20.78089
G1 X116.16 Y131.613 E20.78493
G1 X116.153 Y131.553 E20.78694
G1 X116.15 Y131.468 E20.78977
G1 X116.15 Y127.7 E20.91509
G0 F6000 X115.75 Y127.3
G1 F1200 X118.25 Y127.3 E20.99824
G1 X118.25 Y131.377 E21.13384
G1 X118.236 Y131.674 E21.14373
G1 X118.201 Y131.841 E21.14941
G1 X118.171 Y131.93 E21.15253
G1 X118.136 Y132.016 E21.15562
G1 X118.09 Y132.109 E21.15907
G1 X117.99 Y132.26 E21.16509
G1 X117.945 Y132.316 E21.16748
G1 X117.885 Y132.38 E21.1704
G1 X117.817 Y132.443 E21.17348
G1 X117.753 Y132.495 E21.17623
G1 X117.676 Y132.549 E21.17936
G1 X117.596 Y132.596 E21.18244
G1 X117.519 Y132.635 E21.18531
G1 X117.446 Y132.664 E21.18793
G1 X117.263 Y132.721 E21.1943
G1 X117.187 Y132.734 E21.19686
G1 X117 Y132.749 E21.2031
G1 X116.926 Y132.746 E21.20557
G1 X116.737 Y132.721 E21.21191
G1 X116.666 Y132.702 E21.21435
G1 X116.481 Y132.635 E21.2209
G1 X116.404 Y132.596 E21.22377
G1 X116.324 Y132.549 E21.22685
G1 X116.247 Y132.495 E21.22998
G1 X116.183 Y132.443 E21.23272
G1 X116.115 Y132.38 E21.23581
G1 X116.055 Y132.316 E21.23873
G1 X116.01 Y132.26 E21.24112
G1 X115.933 Y132.148 E21.24564
G1 X115.864 Y132.016 E21.25059
G1 X115.829 Y131.93 E21.25368
G1 X115.799 Y131.841 E21.2568
G1 X115.781 Y131.77 E21.25924
G1 X115.766 Y131.683 E21.26217
G1 X115.755 Y131.578 E21.26569
G1 X115.75 Y131.458 E21.26968
G1 X115.75 Y127.3 E21.40798
G0 F6000 X115.35 Y126.9
G1 F1200 X118.65 Y126.9 E21.51773
G1 X118.65 Y131.34 E21.66541
G1 X118.642 Y131.638 E21.67532
G1 X118.632 Y131.734 E21.67853
G1 X118.613 Y131.841 E21.68215
G1 X118.582 Y131.961 E21.68627
G1 X118.543 Y132.078 E21.69037
G1 X118.497 Y132.19 E21.6944
G1 X118.443 Y132.298 E21.69842
G1 X118.399 Y132.372 E21.70128
G1 X118.315 Y132.494 E21.70621
G1 X118.248 Y132.578 E21.70978
G1 X118.167 Y132.663 E21.71369
G1 X118.073 Y132.752 E21.71799
G1 X117.998 Y132.812 E21.72119
G1 X117.888 Y132.888 E21.72563
G1 X117.786 Y132.95 E21.7296
G1 X117.698 Y132.993 E21.73286
G1 X117.58 Y133.042 E21.73711
G1 X117.453 Y133.084 E21.74156
G1 X117.34 Y133.113 E21.74544
G1 X117.246 Y133.13 E21.74862
G1 X117.102 Y133.146 E21.75344
G1 X117 Y133.149 E21.75683
G1 X116.898 Y133.146 E21.76022
G1 X116.754 Y133.13 E21.76504
G1 X116.66 Y133.113 E21.76822
G1 X116.547 Y133.084 E21.7721
G1 X116.42 Y133.042 E21.77655
G1 X116.302 Y132.993 E21.7808
G1 X116.214 Y132.95 E21.78406
G1 X116.112 Y132.888 E21.78803
G1 X116.002 Y132.812 E21.79247
G1 X115.927 Y132.752 E21.79567
G1 X115.833 Y132.663 E21.79997
G1 X115.752 Y132.578 E21.80388
G1 X115.685 Y132.494 E21.80745
G1 X115.601 Y132.372 E21.81238
G1 X115.557 Y132.298 E21.81524
G1 X115.503 Y132.19 E21.81926
G1 X115.457 Y132.078 E21.82328
G1 X115.418 Y131.961 E21.82739
G1 X115.388 Y131.845 E21.83137
G1 X115.369 Y131.74 E21.83492
G1 X115.355 Y131.603 E21.8395
G1 X115.35 Y131.474 E21.84379
G1 X115.35 Y126.9 E21.99593
G0 F6000 X114.95 Y126.5
G1 F1200 X119.05 Y126.5 E22.13229
G1 X119.05 Y131.351 E22.29364
G1 X119.042 Y131.665 E22.30409
G1 X119.03 Y131.776 E22.3078
G1 X119 Y131.942 E22.31341
G1 X118.969 Y132.065 E22.31763
G1 X118.916 Y132.222 E22.32314
G1 X118.86 Y132.359 E22.32806
G1 X118.799 Y132.482 E22.33263
G1 X118.734 Y132.59 E22.33682
G1 X118.636 Y132.732 E22.34256
G1 X118.543 Y132.848 E22.3475
G1 X118.457 Y132.94 E22.35169
G1 X118.328 Y133.061 E22.35758
G1 X118.243 Y133.129 E22.3612
G1 X118.11 Y133.221 E22.36658
G1 X117.97 Y133.305 E22.37201
G1 X117.855 Y133.362 E22.37627
G1 X117.738 Y133.41 E22.38048
G1 X117.567 Y133.468 E22.38649
G1 X117.418 Y133.506 E22.3916
G1 X117.303 Y133.527 E22.39549
G1 X117.131 Y133.545 E22.40124
G1 X117 Y133.55 E22.4056
G1 X116.869 Y133.545 E22.40996
G1 X116.697 Y133.527 E22.41571
G1 X116.582 Y133.506 E22.4196
G1 X116.433 Y133.468 E22.42472
G1 X116.262 Y133.41 E22.43072
G1 X116.145 Y133.362 E22.43493
G1 X116.03 Y133.305 E22.4392
G1 X115.89 Y133.221 E22.44463
G1 X115.757 Y133.129 E22.45001
G1 X115.672 Y133.061 E22.45363
G1 X115.543 Y132.94 E22.45951
G1 X115.457 Y132.848 E22.4637
G1 X115.364 Y132.732 E22.46864
G1 X115.266 Y132.59 E22.47438
G1 X115.201 Y132.482 E22.47857
G1 X115.14 Y132.359 E22.48314
G1 X115.084 Y132.222 E22.48806
G1 X115.031 Y132.065 E22.49357
G1 X114.996 Y131.929 E22.49825
G1 X114.973 Y131.799 E22.50264
G1 X114.956 Y131.628 E22.50835
G1 X114.95 Y131.489 E22.51298
G1 X114.95 Y126.5 E22.67891
G0 F6000 X114.55 Y126.1
G1 F1200 X119.45 Y126.1 E22.84189
G1 X119.45 Y131.361 E23.01687
G1 X119.442 Y131.68 E23.02748
G1 X119.424 Y131.846 E23.03304
G1 X119.391 Y132.03 E23.03925
G1 X119.355 Y132.174 E23.04419
G1 X119.295 Y132.352 E23.05044
G1 X119.226 Y132.522 E23.05654
G1 X119.146 Y132.681 E23.06246
G1 X119.073 Y132.805 E23.06725
G1 X118.961 Y132.966 E23.07377
G1 X118.846 Y133.109 E23.07987
G1 X118.732 Y133.231 E23.08543
G1 X118.604 Y133.35 E23.09124
G1 X118.471 Y133.457 E23.09692
G1 X118.323 Y133.561 E23.10293
G1 X118.169 Y133.652 E23.10888
G1 X118.017 Y133.728 E23.11454
G1 X117.877 Y133.785 E23.11956
G1 X117.682 Y133.851 E23.12641
G1 X117.511 Y133.895 E23.13228
G1 X117.361 Y133.922 E23.13735
G1 X117.161 Y133.944 E23.14404
G1 X117 Y133.949 E23.1494
G1 X116.839 Y133.944 E23.15476
G1 X116.639 Y133.922 E23.16145
G1 X116.489 Y133.895 E23.16652
G1 X116.318 Y133.851 E23.17239
G1 X116.123 Y133.785 E23.17924
G1 X115.983 Y133.728 E23.18427
G1 X115.831 Y133.652 E23.18992
G1 X115.677 Y133.561 E23.19587
G1 X115.529 Y133.457 E23.20189
G1 X115.396 Y133.35 E23.20756
G1 X115.268 Y133.231 E23.21338
G1 X115.154 Y133.109 E23.21893
G1 X115.039 Y132.966 E23.22503
G1 X114.927 Y132.805 E23.23156
G1 X114.854 Y132.681 E23.23634
G1 X114.774 Y132.522 E23.24226
G1 X114.705 Y132.352 E23.24836
G1 X114.645 Y132.174 E23.25461
G1 X114.609 Y132.033 E23.25945
G1 X114.575 Y131.842 E23.2659
G1 X114.557 Y131.669 E23.27169
G1 X114.55 Y131.48 E23.27798
G1 X114.55 Y126.1 E23.45692
G0 F6000 X114.15 Y125.7
G1 F1200 X119.85 Y125.7 E23.6465
G1 X119.85 Y131.372 E23.83515
G1 X119.841 Y131.706 E23.84627
G1 X119.821 Y131.901 E23.85279
G1 X119.784 Y132.106 E23.85972
G1 X119.738 Y132.288 E23.86596
G1 X119.665 Y132.505 E23.87357
G1 X119.591 Y132.685 E23.88005
G1 X119.499 Y132.87 E23.88692
