;FLAVOR:Marlin
;TIME:5429
;Filament used: 3.3091m
;Layer height: 0.2
;MINX:39.7
;MINY:79.7
;MINZ:0.12
;MAXX:195.3
;MAXY:155.3
;MAXZ:3.92
;Generated with Cura_SteamEngine 4.6.1
M140 S60
M105
M190 S60
M104 S200
M105
M109 S200
M82 ;absolute extrusion mode
; Ender 3 Custom Start G-code
G92 E0 ; Reset Extruder
G90 ; Absolute positioning
G28 ; Home all axes
G1 Z2.0 F3000 ; Move Z Axis up little to prevent scratching of Heat Bed
G1 X0.1 Y20 Z0.3 F5000.0 ; Move to start position
G1 X0.1 Y200.0 Z0.3 F1500.0 E15 ; Draw the first line
G1 X0.4 Y200.0 Z0.3 F5000.0 ; Move to side a little
G1 X0.4 Y20 Z0.3 F1500.0 E30 ; Draw the second line
G92 E0 ; Reset Extruder
G1 Z2.0 F3000 ; Move Z Axis up little to prevent scratching of Heat Bed
G1 X5 Y20 Z0.3 F5000.0 ; Move over to prevent blob squish
G92 E0
G92 E0
G1 F1500 E-6.5
;LAYER_COUNT:20
;LAYER:0
M107
G0 F6000 X44.004 Y80.587 Z0.12
;TYPE:SKIRT
G1 F1500 E0
G1 F1200 X44.722 Y80.257 E0.01577
G1 X45.469 Y80.002 E0.03152
G1 X46.238 Y79.823 E0.04728
G1 X47.022 Y79.723 E0.06305
G1 X47.617 Y79.7 E0.07493
G1 X187.383 Y79.7 E2.86411
G1 X188.172 Y79.74 E2.87988
G1 X188.952 Y79.859 E2.89563
G1 X189.717 Y80.057 E2.9114
G1 X190.457 Y80.331 E2.92714
G1 X191.166 Y80.679 E2.9429
G1 X191.837 Y81.097 E2.95868
G1 X192.461 Y81.58 E2.97443
G1 X192.898 Y81.985 E2.98632
G1 X193.015 Y82.102 E2.98962
G1 X193.545 Y82.688 E3.00539
G1 X194.012 Y83.324 E3.02113
G1 X194.413 Y84.004 E3.03689
G1 X194.743 Y84.722 E3.05266
G1 X194.998 Y85.469 E3.06841
G1 X195.177 Y86.238 E3.08417
G1 X195.277 Y87.022 E3.09994
G1 X195.3 Y87.617 E3.11182
G1 X195.3 Y147.383 E4.30452
G1 X195.26 Y148.172 E4.32028
G1 X195.141 Y148.952 E4.33603
G1 X194.943 Y149.717 E4.3518
G1 X194.669 Y150.457 E4.36754
G1 X194.321 Y151.166 E4.3833
G1 X193.903 Y151.837 E4.39908
G1 X193.42 Y152.461 E4.41483
G1 X193.015 Y152.898 E4.42672
G1 X192.898 Y153.015 E4.43002
G1 X192.312 Y153.545 E4.44579
G1 X191.676 Y154.012 E4.46153
G1 X190.996 Y154.413 E4.47729
G1 X190.278 Y154.743 E4.49306
G1 X189.531 Y154.998 E4.50881
G1 X188.762 Y155.177 E4.52457
G1 X187.978 Y155.277 E4.54034
G1 X187.383 Y155.3 E4.55222
G1 X47.617 Y155.3 E7.3414
G1 X46.828 Y155.26 E7.35717
G1 X46.048 Y155.141 E7.37291
G1 X45.283 Y154.943 E7.38868
G1 X44.543 Y154.669 E7.40443
G1 X43.834 Y154.321 E7.42019
G1 X43.163 Y153.903 E7.43597
G1 X42.539 Y153.42 E7.45172
G1 X42.102 Y153.015 E7.46361
G1 X41.985 Y152.898 E7.46691
G1 X41.455 Y152.312 E7.48268
G1 X40.988 Y151.676 E7.49842
G1 X40.587 Y150.996 E7.51418
G1 X40.257 Y150.278 E7.52994
G1 X40.002 Y149.531 E7.5457
G1 X39.823 Y148.762 E7.56145
G1 X39.723 Y147.978 E7.57723
G1 X39.7 Y147.383 E7.58911
G1 X39.7 Y87.617 E8.7818
G1 X39.74 Y86.828 E8.79757
G1 X39.859 Y86.048 E8.81331
G1 X40.057 Y85.283 E8.82908
G1 X40.331 Y84.543 E8.84483
G1 X40.679 Y83.834 E8.86059
G1 X41.097 Y83.163 E8.87637
G1 X41.58 Y82.539 E8.89212
G1 X41.985 Y82.102 E8.90401
G1 X42.102 Y81.985 E8.90731
G1 X42.688 Y81.455 E8.92308
G1 X43.324 Y80.988 E8.93882
G1 X44.004 Y80.587 E8.95458
G0 F6000 X44.243 Y80.914
G1 F1200 X44.945 Y80.599 E8.96993
G1 X45.676 Y80.359 E8.98529
G1 X46.427 Y80.196 E9.00062
G1 X47.192 Y80.112 E9.01598
G1 X47.617 Y80.1 E9.02446
G1 X187.383 Y80.1 E11.81365
G1 X188.151 Y80.14 E11.82899
G1 X188.911 Y80.259 E11.84434
G1 X189.654 Y80.457 E11.85969
G1 X190.373 Y80.731 E11.87504
G1 X191.059 Y81.078 E11.89039
G1 X191.706 Y81.494 E11.90574
G1 X192.306 Y81.975 E11.92108
G1 X192.733 Y82.384 E11.93288
G1 X193.247 Y82.956 E11.94823
G1 X193.7 Y83.578 E11.96358
G1 X194.086 Y84.243 E11.97893
G1 X194.401 Y84.945 E11.99428
G1 X194.641 Y85.676 E12.00964
G1 X194.804 Y86.427 E12.02497
G1 X194.888 Y87.192 E12.04033
G1 X194.9 Y87.617 E12.04882
G1 X194.9 Y147.383 E13.24151
G1 X194.86 Y148.151 E13.25686
G1 X194.741 Y148.911 E13.27221
G1 X194.543 Y149.654 E13.28755
G1 X194.269 Y150.373 E13.30291
G1 X193.922 Y151.059 E13.31825
G1 X193.506 Y151.706 E13.3336
G1 X193.025 Y152.306 E13.34895
G1 X192.616 Y152.733 E13.36075
G1 X192.044 Y153.247 E13.37609
G1 X191.422 Y153.7 E13.39145
G1 X190.757 Y154.086 E13.40679
G1 X190.055 Y154.401 E13.42215
G1 X189.324 Y154.641 E13.4375
G1 X188.573 Y154.804 E13.45284
G1 X187.808 Y154.888 E13.4682
G1 X187.383 Y154.9 E13.47668
G1 X47.617 Y154.9 E16.26586
G1 X46.849 Y154.86 E16.28121
G1 X46.089 Y154.741 E16.29656
G1 X45.346 Y154.543 E16.31191
G1 X44.627 Y154.269 E16.32726
G1 X43.941 Y153.922 E16.3426
G1 X43.294 Y153.506 E16.35795
G1 X42.694 Y153.025 E16.3733
G1 X42.267 Y152.616 E16.3851
G1 X41.753 Y152.044 E16.40045
G1 X41.3 Y151.422 E16.4158
G1 X40.914 Y150.757 E16.43115
G1 X40.599 Y150.055 E16.4465
G1 X40.359 Y149.324 E16.46185
G1 X40.196 Y148.573 E16.47719
G1 X40.112 Y147.808 E16.49255
G1 X40.1 Y147.383 E16.50103
G1 X40.1 Y87.617 E17.69373
G1 X40.14 Y86.849 E17.70908
G1 X40.259 Y86.089 E17.72443
G1 X40.457 Y85.346 E17.73977
G1 X40.731 Y84.627 E17.75513
G1 X41.078 Y83.941 E17.77047
G1 X41.494 Y83.294 E17.78582
G1 X41.975 Y82.694 E17.80116
G1 X42.384 Y82.267 E17.81296
G1 X42.956 Y81.753 E17.82831
G1 X43.578 Y81.3 E17.84367
G1 X44.243 Y80.914 E17.85901
G0 F6000 X44.48 Y81.242
G1 F1200 X45.166 Y80.943 E17.87394
G1 X45.88 Y80.719 E17.88888
G1 X46.613 Y80.572 E17.9038
G1 X47.617 Y80.5 E17.92388
G1 X187.383 Y80.5 E20.71307
G1 X188.13 Y80.54 E20.72799
G1 X188.868 Y80.659 E20.74291
G1 X189.59 Y80.857 E20.75785
G1 X190.286 Y81.13 E20.77277
G1 X190.949 Y81.477 E20.78771
G1 X191.572 Y81.892 E20.80264
G1 X192.333 Y82.55 E20.82272
G1 X192.45 Y82.667 E20.82602
G1 X192.95 Y83.224 E20.84096
G1 X193.387 Y83.83 E20.85587
G1 X193.758 Y84.48 E20.8708
G1 X194.057 Y85.166 E20.88574
G1 X194.281 Y85.88 E20.90067
G1 X194.428 Y86.613 E20.91559
G1 X194.5 Y87.617 E20.93568
G1 X194.5 Y147.383 E22.12837
G1 X194.46 Y148.13 E22.1433
G1 X194.341 Y148.868 E22.15822
G1 X194.143 Y149.59 E22.17316
G1 X193.87 Y150.286 E22.18808
G1 X193.523 Y150.949 E22.20301
G1 X193.108 Y151.572 E22.21795
G1 X192.45 Y152.333 E22.23803
G1 X192.333 Y152.45 E22.24133
G1 X191.776 Y152.95 E22.25627
G1 X191.17 Y153.387 E22.27118
G1 X190.52 Y153.758 E22.28611
G1 X189.834 Y154.057 E22.30105
G1 X189.12 Y154.281 E22.31598
G1 X188.387 Y154.428 E22.3309
G1 X187.383 Y154.5 E22.35099
G1 X47.617 Y154.5 E25.14017
G1 X46.87 Y154.46 E25.1551
G1 X46.132 Y154.341 E25.17001
G1 X45.41 Y154.143 E25.18495
G1 X44.714 Y153.87 E25.19987
G1 X44.051 Y153.523 E25.21481
G1 X43.428 Y153.108 E25.22975
G1 X42.667 Y152.45 E25.24982
G1 X42.55 Y152.333 E25.25312
G1 X42.05 Y151.776 E25.26806
G1 X41.613 Y151.17 E25.28297
G1 X41.242 Y150.52 E25.29791
G1 X40.943 Y149.834 E25.31284
G1 X40.719 Y149.12 E25.32777
G1 X40.572 Y148.387 E25.34269
G1 X40.5 Y147.383 E25.36278
G1 X40.5 Y87.617 E26.55548
G1 X40.54 Y86.87 E26.5704
G1 X40.659 Y86.132 E26.58532
G1 X40.857 Y85.41 E26.60026
G1 X41.13 Y84.714 E26.61518
G1 X41.477 Y84.051 E26.63012
G1 X41.892 Y83.428 E26.64505
G1 X42.55 Y82.667 E26.66513
G1 X42.667 Y82.55 E26.66843
G1 X43.224 Y82.05 E26.68337
G1 X43.83 Y81.613 E26.69828
G1 X44.48 Y81.242 E26.71321
G0 F6000 X44.716 Y81.572
G1 F1200 X45.385 Y81.289 E26.72771
G1 X46.081 Y81.081 E26.74221
G1 X46.796 Y80.951 E26.75671
G1 X47.617 Y80.9 E26.77313
G1 X187.383 Y80.9 E29.56231
G1 X188.108 Y80.94 E29.5768
G1 X188.825 Y81.059 E29.5913
G1 X189.524 Y81.257 E29.6058
G1 X190.197 Y81.53 E29.62029
G1 X190.836 Y81.875 E29.63478
G1 X191.433 Y82.289 E29.64928
G1 X192.05 Y82.833 E29.6657
G1 X192.167 Y82.95 E29.669
G1 X192.651 Y83.491 E29.68349
G1 X193.074 Y84.082 E29.69799
G1 X193.428 Y84.716 E29.71248
G1 X193.711 Y85.385 E29.72698
G1 X193.919 Y86.081 E29.74147
G1 X194.049 Y86.796 E29.75598
G1 X194.1 Y87.617 E29.77239
G1 X194.1 Y147.383 E30.96509
G1 X194.06 Y148.108 E30.97958
G1 X193.941 Y148.825 E30.99408
G1 X193.743 Y149.524 E31.00858
G1 X193.47 Y150.197 E31.02307
G1 X193.125 Y150.836 E31.03756
G1 X192.711 Y151.433 E31.05206
G1 X192.167 Y152.05 E31.06848
G1 X192.05 Y152.167 E31.07178
G1 X191.509 Y152.651 E31.08627
G1 X190.918 Y153.074 E31.10077
G1 X190.284 Y153.428 E31.11526
G1 X189.615 Y153.711 E31.12976
G1 X188.919 Y153.919 E31.14425
G1 X188.204 Y154.049 E31.15876
G1 X187.383 Y154.1 E31.17517
G1 X47.617 Y154.1 E33.96435
G1 X46.892 Y154.06 E33.97884
G1 X46.175 Y153.941 E33.99335
G1 X45.476 Y153.743 E34.00784
G1 X44.803 Y153.47 E34.02234
G1 X44.164 Y153.125 E34.03683
G1 X43.567 Y152.711 E34.05133
G1 X42.95 Y152.167 E34.06774
G1 X42.833 Y152.05 E34.07105
G1 X42.349 Y151.509 E34.08553
G1 X41.926 Y150.918 E34.10004
G1 X41.572 Y150.284 E34.11453
G1 X41.289 Y149.615 E34.12902
G1 X41.081 Y148.919 E34.14352
G1 X40.951 Y148.204 E34.15802
G1 X40.9 Y147.383 E34.17444
G1 X40.9 Y87.617 E35.36713
G1 X40.94 Y86.892 E35.38162
G1 X41.059 Y86.175 E35.39613
G1 X41.257 Y85.476 E35.41062
G1 X41.53 Y84.803 E35.42512
G1 X41.875 Y84.164 E35.43961
G1 X42.289 Y83.567 E35.45411
G1 X42.833 Y82.95 E35.47052
G1 X42.95 Y82.833 E35.47382
G1 X43.491 Y82.349 E35.48831
G1 X44.082 Y81.926 E35.50281
G1 X44.716 Y81.572 E35.51731
G0 F6000 X44.951 Y81.903
G1 F1200 X45.602 Y81.636 E35.53135
G1 X46.28 Y81.446 E35.5454
G1 X46.975 Y81.333 E35.55945
G1 X47.617 Y81.3 E35.57228
G1 X187.383 Y81.3 E38.36146
G1 X188.086 Y81.34 E38.37551
G1 X188.78 Y81.459 E38.38956
G1 X189.455 Y81.657 E38.4036
G1 X190.104 Y81.929 E38.41764
G1 X190.718 Y82.274 E38.4317
G1 X191.289 Y82.685 E38.44574
G1 X191.767 Y83.116 E38.45858
G1 X191.884 Y83.233 E38.46189
G1 X192.353 Y83.758 E38.47593
G1 X192.759 Y84.333 E38.48998
G1 X193.097 Y84.951 E38.50404
G1 X193.364 Y85.602 E38.51808
G1 X193.554 Y86.28 E38.53213
G1 X193.667 Y86.975 E38.54618
G1 X193.7 Y87.617 E38.55901
G1 X193.7 Y147.383 E39.75171
G1 X193.66 Y148.086 E39.76576
G1 X193.541 Y148.78 E39.77981
G1 X193.343 Y149.455 E39.79385
G1 X193.071 Y150.104 E39.80789
G1 X192.726 Y150.718 E39.82195
G1 X192.315 Y151.289 E39.83599
G1 X191.884 Y151.767 E39.84883
G1 X191.767 Y151.884 E39.85213
G1 X191.242 Y152.353 E39.86618
G1 X190.667 Y152.759 E39.88023
G1 X190.049 Y153.097 E39.89428
G1 X189.398 Y153.364 E39.90833
G1 X188.72 Y153.554 E39.92238
G1 X188.025 Y153.667 E39.93643
G1 X187.383 Y153.7 E39.94926
G1 X47.617 Y153.7 E42.73844
G1 X46.914 Y153.66 E42.75249
G1 X46.22 Y153.541 E42.76654
G1 X45.545 Y153.343 E42.78058
G1 X44.896 Y153.071 E42.79462
G1 X44.282 Y152.726 E42.80868
G1 X43.711 Y152.315 E42.82272
G1 X43.233 Y151.884 E42.83556
G1 X43.116 Y151.767 E42.83886
G1 X42.647 Y151.242 E42.85291
G1 X42.241 Y150.667 E42.86696
G1 X41.903 Y150.049 E42.88102
G1 X41.636 Y149.398 E42.89506
G1 X41.446 Y148.72 E42.90911
G1 X41.333 Y148.025 E42.92316
G1 X41.3 Y147.383 E42.93599
G1 X41.3 Y87.617 E44.12869
G1 X41.34 Y86.914 E44.14274
G1 X41.459 Y86.22 E44.15679
G1 X41.657 Y85.545 E44.17083
G1 X41.929 Y84.896 E44.18487
G1 X42.274 Y84.282 E44.19892
G1 X42.685 Y83.711 E44.21296
G1 X43.116 Y83.233 E44.22581
G1 X43.233 Y83.116 E44.22911
G1 X43.758 Y82.647 E44.24316
G1 X44.333 Y82.241 E44.25721
G1 X44.951 Y81.903 E44.27126
G0 F6000 X45.183 Y82.235
G1 F1200 X45.817 Y81.986 E44.28486
G1 X46.476 Y81.813 E44.29845
G1 X47.15 Y81.719 E44.31203
G1 X47.617 Y81.7 E44.32136
G1 X187.383 Y81.7 E47.11054
G1 X188.063 Y81.74 E47.12414
G1 X188.733 Y81.859 E47.13772
G1 X189.385 Y82.056 E47.15131
G1 X190.009 Y82.328 E47.16489
G1 X190.597 Y82.672 E47.17849
G1 X191.141 Y83.082 E47.19208
G1 X191.484 Y83.399 E47.2014
G1 X191.601 Y83.516 E47.2047
G1 X192.054 Y84.025 E47.2183
G1 X192.443 Y84.583 E47.23188
G1 X192.765 Y85.183 E47.24546
G1 X193.014 Y85.817 E47.25906
G1 X193.187 Y86.476 E47.27265
G1 X193.281 Y87.15 E47.28623
G1 X193.3 Y87.617 E47.29556
G1 X193.3 Y147.383 E48.48826
G1 X193.26 Y148.063 E48.50185
G1 X193.141 Y148.733 E48.51543
G1 X192.944 Y149.385 E48.52902
G1 X192.672 Y150.009 E48.54261
G1 X192.328 Y150.597 E48.5562
G1 X191.918 Y151.141 E48.5698
G1 X191.601 Y151.484 E48.57912
G1 X191.484 Y151.601 E48.58242
G1 X190.975 Y152.054 E48.59602
G1 X190.417 Y152.443 E48.60959
G1 X189.817 Y152.765 E48.62318
G1 X189.183 Y153.014 E48.63677
G1 X188.524 Y153.187 E48.65037
G1 X187.85 Y153.281 E48.66395
G1 X187.383 Y153.3 E48.67328
G1 X47.617 Y153.3 E51.46246
G1 X46.937 Y153.26 E51.47605
G1 X46.267 Y153.141 E51.48963
G1 X45.615 Y152.944 E51.50322
G1 X44.991 Y152.672 E51.51681
G1 X44.403 Y152.328 E51.5304
G1 X43.859 Y151.918 E51.544
G1 X43.516 Y151.601 E51.55332
G1 X43.399 Y151.484 E51.55662
G1 X42.946 Y150.975 E51.57022
G1 X42.557 Y150.417 E51.58379
G1 X42.235 Y149.817 E51.59738
G1 X41.986 Y149.183 E51.61097
G1 X41.813 Y148.524 E51.62457
G1 X41.719 Y147.85 E51.63815
G1 X41.7 Y147.383 E51.64748
G1 X41.7 Y87.617 E52.84017
G1 X41.74 Y86.937 E52.85377
G1 X41.859 Y86.267 E52.86735
G1 X42.056 Y85.615 E52.88094
G1 X42.328 Y84.991 E52.89452
G1 X42.672 Y84.403 E52.90812
G1 X43.082 Y83.859 E52.92171
G1 X43.399 Y83.516 E52.93103
G1 X43.516 Y83.399 E52.93433
G1 X44.025 Y82.946 E52.94793
G1 X44.583 Y82.557 E52.96151
G1 X45.183 Y82.235 E52.9751
G0 F6000 X44.832 Y82.874
G1 F1200 X45.414 Y82.57 E52.9882
G1 X46.029 Y82.339 E53.00131
G1 X46.668 Y82.184 E53.01443
G1 X47.617 Y82.1 E53.03344
G1 X187.383 Y82.1 E55.82263
G1 X188.039 Y82.14 E55.83574
G1 X188.685 Y82.259 E55.84885
G1 X189.312 Y82.456 E55.86196
G1 X189.91 Y82.728 E55.87508
G1 X190.471 Y83.07 E55.88819
G1 X191.201 Y83.682 E55.9072
G1 X191.318 Y83.799 E55.9105
G1 X191.754 Y84.291 E55.92362
G1 X192.126 Y84.832 E55.93672
G1 X192.43 Y85.414 E55.94982
G1 X192.661 Y86.029 E55.96293
G1 X192.816 Y86.668 E55.97606
G1 X192.9 Y87.617 E55.99507
G1 X192.9 Y147.383 E57.18776
G1 X192.86 Y148.039 E57.20088
G1 X192.741 Y148.685 E57.21399
G1 X192.544 Y149.312 E57.2271
G1 X192.272 Y149.91 E57.24021
G1 X191.93 Y150.471 E57.25332
G1 X191.318 Y151.201 E57.27233
G1 X191.201 Y151.318 E57.27564
G1 X190.709 Y151.754 E57.28876
G1 X190.168 Y152.126 E57.30186
G1 X189.586 Y152.43 E57.31496
G1 X188.971 Y152.661 E57.32807
G1 X188.332 Y152.816 E57.34119
G1 X187.383 Y152.9 E57.36021
G1 X47.617 Y152.9 E60.14939
G1 X46.961 Y152.86 E60.1625
G1 X46.315 Y152.741 E60.17561
G1 X45.688 Y152.544 E60.18873
G1 X45.09 Y152.272 E60.20184
G1 X44.529 Y151.93 E60.21495
G1 X43.799 Y151.318 E60.23396
G1 X43.682 Y151.201 E60.23726
G1 X43.246 Y150.709 E60.25038
G1 X42.874 Y150.168 E60.26348
G1 X42.57 Y149.586 E60.27659
G1 X42.339 Y148.971 E60.2897
G1 X42.184 Y148.332 E60.30282
G1 X42.1 Y147.383 E60.32183
G1 X42.1 Y87.617 E61.51452
G1 X42.14 Y86.961 E61.52764
G1 X42.259 Y86.315 E61.54075
G1 X42.456 Y85.688 E61.55386
G1 X42.728 Y85.09 E61.56697
G1 X43.07 Y84.529 E61.58009
G1 X43.682 Y83.799 E61.5991
G1 X43.799 Y83.682 E61.6024
G1 X44.291 Y83.246 E61.61552
G1 X44.832 Y82.874 E61.62862
G0 F6000 X45.079 Y83.192
G1 F1200 X45.643 Y82.906 E61.64124
G1 X46.238 Y82.694 E61.65384
G1 X46.856 Y82.558 E61.66647
G1 X47.617 Y82.5 E61.6817
G1 X187.383 Y82.5 E64.47088
G1 X188.014 Y82.54 E64.4835
G1 X188.635 Y82.659 E64.49612
G1 X189.235 Y82.856 E64.50872
G1 X189.807 Y83.127 E64.52135
G1 X190.339 Y83.467 E64.53395
G1 X190.919 Y83.964 E64.5492
G1 X191.036 Y84.081 E64.5525
G1 X191.453 Y84.556 E64.56511
G1 X191.808 Y85.079 E64.57773
G1 X192.094 Y85.643 E64.59035
G1 X192.306 Y86.238 E64.60295
G1 X192.442 Y86.856 E64.61558
G1 X192.5 Y87.617 E64.63081
G1 X192.5 Y147.383 E65.8235
G1 X192.46 Y148.014 E65.83612
G1 X192.341 Y148.635 E65.84874
G1 X192.144 Y149.235 E65.86134
G1 X191.873 Y149.807 E65.87397
G1 X191.533 Y150.339 E65.88657
G1 X191.036 Y150.919 E65.90182
G1 X190.919 Y151.036 E65.90512
G1 X190.444 Y151.453 E65.91773
G1 X189.921 Y151.808 E65.93035
G1 X189.357 Y152.094 E65.94297
G1 X188.762 Y152.306 E65.95557
G1 X188.144 Y152.442 E65.9682
G1 X187.383 Y152.5 E65.98343
G1 X47.617 Y152.5 E68.77261
G1 X46.986 Y152.46 E68.78523
G1 X46.365 Y152.341 E68.79785
G1 X45.765 Y152.144 E68.81045
G1 X45.193 Y151.873 E68.82308
G1 X44.661 Y151.533 E68.83568
G1 X44.081 Y151.036 E68.85092
G1 X43.964 Y150.919 E68.85422
G1 X43.547 Y150.444 E68.86684
G1 X43.192 Y149.921 E68.87945
G1 X42.906 Y149.357 E68.89207
G1 X42.694 Y148.762 E68.90468
G1 X42.558 Y148.144 E68.91731
G1 X42.5 Y147.383 E68.93254
G1 X42.5 Y87.617 E70.12523
G1 X42.54 Y86.986 E70.13785
G1 X42.659 Y86.365 E70.15047
G1 X42.856 Y85.765 E70.16307
G1 X43.127 Y85.193 E70.1757
G1 X43.467 Y84.661 E70.1883
G1 X43.964 Y84.081 E70.20354
G1 X44.081 Y83.964 E70.20684
G1 X44.556 Y83.547 E70.21946
G1 X45.079 Y83.192 E70.23207
